; generated by PrusaSlicer 2.6.1+win64 on 2023-10-31 at 07:44:53 UTC


;
;

;
;

;
;
; 

; external perimeters extrusion width = 0.40mm
; perimeters extrusion width = 0.40mm
; infill extrusion width = 0.40mm
; solid infill extrusion width = 0.40mm
; top infill extrusion width = 0.40mm
; first layer extrusion width = 0.40mm

; external perimeters extrusion width = 0.40mm
; perimeters extrusion width = 0.40mm
; infill extrusion width = 0.40mm
; solid infill extrusion width = 0.40mm
; top infill extrusion width = 0.40mm
; first layer extrusion width = 0.40mm

;TYPE:Custom
M104 S0 ; Stops PrusaSlicer from sending temp waits separately
M140 S0

SAVE_GCODE_STATE NAME=start-gcode


START_PRINT EXTRUDER_TEMP=235 BED_TEMP=70


RESTORE_GCODE_STATE NAME=start-gcode
G21 ; set units to millimeters
G90 ; use absolute coordinates
M82 ; use absolute distances for extrusion
G92 E0 ; reset extrusion distance
; Filament gcode
M107 ; disable fan
;LAYER_CHANGE
;Z:0.2
;HEIGHT:0.2
G1 Z.2 F7800 ; move to next layer (0)
G1 E-2 F2400 ; retract
G92 E0 ; reset extrusion distance
M204 S2500 ; adjust acceleration
G1 X77.954 Y82.641 F7800 ; move to first skirt point
G1 E2 F2400 ;  ; unretract
M204 S2000 ; adjust acceleration
;TYPE:Skirt/Brim
;WIDTH:0.4
G1 F1800
G1 X79.732 Y81.169 E2.06854 ; skirt
G1 X81.904 Y80.386 E2.13709 ; skirt
G1 X83.061 Y80.286 E2.17157 ; skirt
G1 X127.261 Y80.286 E3.48393 ; skirt
G1 X129.535 Y80.683 E3.55247 ; skirt
G1 X131.541 Y81.827 E3.62104 ; skirt
G1 X133.04 Y83.583 E3.68959 ; skirt
G1 X133.856 Y85.743 E3.75815 ; skirt
G1 X133.975 Y87 E3.79564 ; skirt
G1 X133.975 Y92 E3.9441 ; skirt
G1 X133.653 Y113.103 E4.57075 ; skirt
G1 X133.221 Y115.371 E4.6393 ; skirt
G1 X131.238 Y118.158 E4.74086 ; skirt
G1 X119.238 Y128.158 E5.20465 ; skirt
G1 X117.236 Y129.309 E5.27322 ; skirt
G1 X114.939 Y129.714 E5.34247 ; skirt
G1 X99.529 Y129.711 E5.80001 ; skirt
G1 X98.064 Y129.592 E5.84365 ; skirt
G1 X96.624 Y129.291 E5.88733 ; skirt
G1 X94.945 Y128.686 E5.94032 ; skirt
G1 X93.425 Y127.867 E5.99159 ; skirt
G1 X79.104 Y118.645 E6.49733 ; skirt
G1 X77.407 Y117.08 E6.56587 ; skirt
G1 X76.34 Y115.032 E6.63444 ; skirt
G1 X76.025 Y113 E6.69549 ; skirt
G1 X76.026 Y107.897 E6.847 ; skirt
G1 X76.347 Y86.897 E7.47059 ; skirt
G1 X76.779 Y84.629 E7.53914 ; skirt
G1 X77.923 Y82.693 E7.60591 ; skirt
M204 S2500 ; adjust acceleration
G1 X78.241 Y82.887 F7800 ; move to first skirt point
M204 S2000 ; adjust acceleration
G1 F1800
G1 X78.305 Y82.781 E7.60959 ; skirt
G1 X80.069 Y81.391 E7.67627 ; skirt
G1 X83.061 Y80.643 E7.76784 ; skirt
G1 X127.261 Y80.643 E9.0802 ; skirt
G1 X129.471 Y81.04 E9.14687 ; skirt
G1 X131.406 Y82.181 E9.21357 ; skirt
G1 X132.824 Y83.923 E9.28026 ; skirt
G1 X133.618 Y87 E9.37461 ; skirt
G1 X133.617 Y92.097 E9.52595 ; skirt
G1 X133.296 Y113.097 E10.14954 ; skirt
G1 X132.865 Y115.302 E10.21625 ; skirt
G1 X131.009 Y117.884 E10.31066 ; skirt
G1 X119.009 Y127.884 E10.77445 ; skirt
G1 X117.057 Y128.994 E10.84112 ; skirt
G1 X114.939 Y129.357 E10.90492 ; skirt
G1 X99.54 Y129.354 E11.36214 ; skirt
G1 X98.119 Y129.24 E11.40447 ; skirt
G1 X96.723 Y128.948 E11.44682 ; skirt
G1 X95.086 Y128.359 E11.49848 ; skirt
G1 X93.619 Y127.567 E11.54798 ; skirt
G1 X79.298 Y118.345 E12.05372 ; skirt
G1 X77.654 Y116.814 E12.12042 ; skirt
G1 X76.645 Y114.807 E12.18712 ; skirt
G1 X76.382 Y113 E12.24134 ; skirt
G1 X76.383 Y107.903 E12.39268 ; skirt
G1 X76.704 Y86.903 E13.01627 ; skirt
G1 X77.135 Y84.698 E13.08298 ; skirt
G1 X78.209 Y82.938 E13.1442 ; skirt
; printing object 3_Y_Rod_Holder.stl id:0 copy 0
G1 E11.1442 F2400 ; retract
G92 E0 ; reset extrusion distance
M204 S2500 ; adjust acceleration
G1 X96.2 Y91.179 F7800 ; move to first perimeter point
G1 E2 F2400 ;  ; unretract
M204 S2000 ; adjust acceleration
;TYPE:Perimeter
;WIDTH:0.399999
G1 F1800
G1 X95.96 Y90.901 E2.0109 ; perimeter
G1 X95.606 Y90.703 E2.02294 ; perimeter
G1 X95.182 Y90.629 E2.03572 ; perimeter
G1 X84.432 Y90.629 E2.3549 ; perimeter
G1 X84.432 Y88.371 E2.42194 ; perimeter
G1 X125.889 Y88.371 E3.65285 ; perimeter
G1 X125.889 Y89.5 E3.68637 ; perimeter
G1 X125.889 Y90.629 E3.71989 ; perimeter
G1 X115.139 Y90.629 E4.03907 ; perimeter
G1 X114.752 Y90.69 E4.0507 ; perimeter
G1 X114.418 Y90.858 E4.0618 ; perimeter
G1 X114.168 Y91.091 E4.07195 ; perimeter
G1 X114.008 Y91.348 E4.08094 ; perimeter
G1 X113.922 Y91.595 E4.08871 ; perimeter
G1 X113.889 Y91.879 E4.0972 ; perimeter
G1 X113.889 Y93.37 E4.14147 ; perimeter
G1 X113.859 Y93.568 E4.14742 ; perimeter
G1 X113.652 Y93.629 E4.15383 ; perimeter
G1 X108.503 Y93.629 E4.30671 ; perimeter
G1 X107.996 Y92.346 E4.34767 ; perimeter
G1 X107.6 Y91.706 E4.37002 ; perimeter
G1 X107.083 Y91.094 E4.39381 ; perimeter
G1 X106.23 Y90.374 E4.42695 ; perimeter
G1 X105.568 Y89.989 E4.44969 ; perimeter
G1 X104.825 Y89.694 E4.47343 ; perimeter
G1 X103.734 Y89.461 E4.50655 ; perimeter
G1 X102.934 Y89.439 E4.53031 ; perimeter
G1 X101.83 Y89.595 E4.56341 ; perimeter
G1 X101.07 Y89.85 E4.58721 ; perimeter
G1 X100.087 Y90.377 E4.62033 ; perimeter
G1 X99.484 Y90.851 E4.6431 ; perimeter
G1 X98.954 Y91.405 E4.66586 ; perimeter
G1 X98.506 Y92.028 E4.68864 ; perimeter
G1 X98.15 Y92.707 E4.7114 ; perimeter
G1 X97.893 Y93.43 E4.73418 ; perimeter
G1 X97.739 Y94.181 E4.75694 ; perimeter
G1 X97.692 Y94.947 E4.77973 ; perimeter
G1 X97.752 Y95.711 E4.80248 ; perimeter
G1 X97.918 Y96.459 E4.82523 ; perimeter
G1 X98.205 Y97.206 E4.84899 ; perimeter
G1 X98.551 Y97.814 E4.86976 ; perimeter
G1 X98.83 Y98.233 E4.88471 ; perimeter
G1 X99.274 Y98.748 E4.9049 ; perimeter
G1 X99.713 Y99.146 E4.92249 ; perimeter
G1 X100.06 Y99.396 E4.93519 ; perimeter
G1 X100.522 Y99.686 E4.95139 ; perimeter
G1 X101.538 Y100.122 E4.98422 ; perimeter
G1 X102.297 Y100.293 E5.00732 ; perimeter
;WIDTH:0.386144
G1 X103.102 Y100.342 E5.03034 ; perimeter
;WIDTH:0.395217
G1 X104.205 Y100.266 E5.06273 ; perimeter
;WIDTH:0.399999
G1 X104.946 Y100.069 E5.0855 ; perimeter
G1 X105.652 Y99.769 E5.10828 ; perimeter
G1 X106.308 Y99.372 E5.13105 ; perimeter
G1 X106.903 Y98.888 E5.15382 ; perimeter
G1 X107.424 Y98.325 E5.1766 ; perimeter
G1 X107.769 Y97.844 E5.19418 ; perimeter
G1 X108.031 Y97.371 E5.21023 ; perimeter
G1 X113.675 Y97.371 E5.37781 ; perimeter
G1 X113.839 Y97.422 E5.38291 ; perimeter
G1 X113.889 Y97.574 E5.38766 ; perimeter
G1 X113.889 Y100.629 E5.47837 ; perimeter
G1 X104 Y100.636 E5.77199 ; perimeter
;WIDTH:0.38461
G1 X102.871 Y100.651 E5.80407 ; perimeter
;WIDTH:0.393164
G1 X102.078 Y100.632 E5.82717 ; perimeter
;WIDTH:0.399999
G1 X100.32 Y100.629 E5.87937 ; perimeter
G1 X99.648 Y100.6 E5.89934 ; perimeter
G1 X99.178 Y100.516 E5.91352 ; perimeter
G1 X98.562 Y100.294 E5.93296 ; perimeter
G1 X98.118 Y100.062 E5.94783 ; perimeter
G1 X97.707 Y99.754 E5.96308 ; perimeter
G1 X97.32 Y99.365 E5.97937 ; perimeter
G1 X96.915 Y98.798 E6.00006 ; perimeter
G1 X96.689 Y98.335 E6.01536 ; perimeter
G1 X96.533 Y97.822 E6.03128 ; perimeter
G1 X96.441 Y97.246 E6.0486 ; perimeter
G1 X96.433 Y92.398 E6.19254 ; perimeter
G1 X96.415 Y91.675 E6.21401 ; perimeter
G1 X96.239 Y91.224 E6.22838 ; perimeter
M204 S2500 ; adjust acceleration
G1 X95.909 Y91.378 F7800 ; move to first perimeter point
M204 S2000 ; adjust acceleration
G1 F1800
G1 X95.738 Y91.18 E6.23615 ; perimeter
G1 X95.485 Y91.039 E6.24475 ; perimeter
G1 X95.182 Y90.986 E6.25388 ; perimeter
G1 X84.075 Y90.986 E6.58366 ; perimeter
G1 X84.075 Y88.014 E6.6719 ; perimeter
G1 X126.246 Y88.014 E7.92401 ; perimeter
G1 X126.246 Y90.986 E8.01225 ; perimeter
G1 X115.139 Y90.986 E8.34203 ; perimeter
G1 X114.985 Y90.999 E8.34662 ; perimeter
G1 X114.624 Y91.149 E8.35823 ; perimeter
G1 X114.446 Y91.316 E8.36548 ; perimeter
G1 X114.331 Y91.499 E8.3719 ; perimeter
G1 X114.246 Y91.879 E8.38346 ; perimeter
G1 X114.246 Y93.37 E8.42773 ; perimeter
G1 X114.183 Y93.722 E8.43835 ; perimeter
G1 X114.016 Y93.906 E8.44573 ; perimeter
G1 X113.682 Y93.986 E8.45593 ; perimeter
G1 X108.182 Y93.986 E8.61923 ; perimeter
G1 X108.081 Y93.521 E8.63336 ; perimeter
G1 X107.689 Y92.529 E8.66503 ; perimeter
G1 X107.321 Y91.929 E8.68593 ; perimeter
G1 X106.848 Y91.363 E8.70783 ; perimeter
G1 X106.046 Y90.68 E8.73911 ; perimeter
G1 X105.428 Y90.318 E8.76038 ; perimeter
G1 X104.744 Y90.042 E8.78228 ; perimeter
G1 X103.716 Y89.818 E8.81352 ; perimeter
G1 X102.978 Y89.793 E8.83544 ; perimeter
G1 X101.935 Y89.937 E8.8667 ; perimeter
G1 X101.234 Y90.167 E8.88861 ; perimeter
G1 X100.303 Y90.661 E8.9199 ; perimeter
G1 X99.738 Y91.102 E8.94118 ; perimeter
G1 X99.241 Y91.618 E8.96245 ; perimeter
G1 X98.82 Y92.199 E8.98375 ; perimeter
G1 X98.485 Y92.833 E9.00504 ; perimeter
G1 X98.241 Y93.507 E9.02632 ; perimeter
G1 X98.095 Y94.209 E9.04761 ; perimeter
G1 X98.048 Y94.924 E9.06889 ; perimeter
G1 X98.102 Y95.639 E9.09018 ; perimeter
G1 X98.255 Y96.339 E9.11145 ; perimeter
G1 X98.457 Y96.904 E9.12927 ; perimeter
G1 X98.695 Y97.345 E9.14415 ; perimeter
G1 X99.104 Y98.005 E9.1672 ; perimeter
G1 X99.654 Y98.61 E9.19148 ; perimeter
G1 X100.051 Y98.958 E9.20715 ; perimeter
G1 X100.668 Y99.361 E9.22903 ; perimeter
G1 X101.625 Y99.776 E9.26 ; perimeter
G1 X102.334 Y99.945 E9.28164 ; perimeter
G1 X103.078 Y100.01 E9.30381 ; perimeter
G1 X104.118 Y99.922 E9.3348 ; perimeter
G1 X104.811 Y99.739 E9.35608 ; perimeter
G1 X105.472 Y99.46 E9.37738 ; perimeter
G1 X106.087 Y99.092 E9.39866 ; perimeter
G1 X106.645 Y98.641 E9.41996 ; perimeter
G1 X107.134 Y98.117 E9.44124 ; perimeter
G1 X107.545 Y97.53 E9.46252 ; perimeter
G1 X107.815 Y97.014 E9.47981 ; perimeter
G1 X113.675 Y97.014 E9.6538 ; perimeter
G1 X113.831 Y97.028 E9.65845 ; perimeter
G1 X114.023 Y97.115 E9.66471 ; perimeter
G1 X114.201 Y97.316 E9.67268 ; perimeter
G1 X114.246 Y97.554 E9.67987 ; perimeter
G1 X114.246 Y100.986 E9.78177 ; perimeter
G1 X100.32 Y100.986 E10.19525 ; perimeter
G1 X99.625 Y100.957 E10.2159 ; perimeter
G1 X99.084 Y100.861 E10.23221 ; perimeter
G1 X98.441 Y100.63 E10.2525 ; perimeter
G1 X97.926 Y100.364 E10.26971 ; perimeter
G1 X97.521 Y100.07 E10.28457 ; perimeter
G1 X97.156 Y99.727 E10.29944 ; perimeter
G1 X96.837 Y99.342 E10.31429 ; perimeter
G1 X96.569 Y98.919 E10.32916 ; perimeter
G1 X96.331 Y98.389 E10.34641 ; perimeter
G1 X96.182 Y97.889 E10.3619 ; perimeter
G1 X96.084 Y97.263 E10.38071 ; perimeter
G1 X96.063 Y91.733 E10.5449 ; perimeter
G1 X95.948 Y91.424 E10.55469 ; perimeter
M204 S2500 ; adjust acceleration
G1 X95.618 Y91.578 F7800 ; move to first perimeter point
M204 S2000 ; adjust acceleration
G1 F1800
G1 X95.516 Y91.46 E10.55932 ; perimeter
G1 X95.364 Y91.375 E10.56449 ; perimeter
G1 X95.182 Y91.343 E10.56998 ; perimeter
G1 X83.718 Y91.343 E10.91036 ; perimeter
G1 X83.718 Y87.657 E11.0198 ; perimeter
G1 X126.603 Y87.657 E12.29311 ; perimeter
G1 X126.603 Y91.343 E12.40255 ; perimeter
G1 X115.047 Y91.351 E12.74566 ; perimeter
G1 X114.83 Y91.441 E12.75264 ; perimeter
G1 X114.654 Y91.651 E12.76078 ; perimeter
G1 X114.603 Y91.879 E12.76772 ; perimeter
G1 X114.603 Y93.37 E12.81199 ; perimeter
G1 X114.546 Y93.791 E12.8246 ; perimeter
G1 X114.354 Y94.093 E12.83523 ; perimeter
G1 X114.138 Y94.244 E12.84306 ; perimeter
G1 X113.712 Y94.343 E12.85605 ; perimeter
G1 X107.92 Y94.343 E13.02802 ; perimeter
G1 X107.88 Y94.309 E13.02958 ; perimeter
G1 X107.747 Y93.647 E13.04963 ; perimeter
G1 X107.383 Y92.712 E13.07942 ; perimeter
G1 X107.043 Y92.153 E13.09885 ; perimeter
G1 X106.613 Y91.632 E13.11891 ; perimeter
G1 X105.862 Y90.986 E13.14832 ; perimeter
G1 X105.288 Y90.647 E13.16811 ; perimeter
G1 X104.663 Y90.39 E13.18817 ; perimeter
G1 X103.697 Y90.174 E13.21756 ; perimeter
G1 X103.022 Y90.148 E13.23762 ; perimeter
G1 X102.04 Y90.278 E13.26703 ; perimeter
G1 X101.397 Y90.485 E13.28709 ; perimeter
G1 X100.52 Y90.945 E13.31649 ; perimeter
G1 X99.992 Y91.353 E13.3363 ; perimeter
G1 X99.527 Y91.831 E13.3561 ; perimeter
G1 X99.134 Y92.37 E13.37591 ; perimeter
G1 X98.819 Y92.958 E13.39572 ; perimeter
G1 X98.59 Y93.584 E13.41551 ; perimeter
G1 X98.451 Y94.237 E13.43533 ; perimeter
G1 X98.405 Y94.902 E13.45512 ; perimeter
G1 X98.452 Y95.567 E13.47491 ; perimeter
G1 X98.571 Y96.147 E13.49249 ; perimeter
G1 X98.756 Y96.681 E13.50927 ; perimeter
G1 X99.005 Y97.168 E13.52551 ; perimeter
G1 X99.378 Y97.776 E13.54669 ; perimeter
G1 X99.754 Y98.219 E13.56394 ; perimeter
G1 X100.252 Y98.663 E13.58375 ; perimeter
G1 X100.815 Y99.035 E13.60379 ; perimeter
G1 X101.713 Y99.43 E13.63292 ; perimeter
G1 X102.371 Y99.59 E13.65303 ; perimeter
G1 X103.053 Y99.653 E13.67337 ; perimeter
G1 X104.031 Y99.576 E13.7025 ; perimeter
G1 X104.677 Y99.408 E13.72232 ; perimeter
G1 X105.292 Y99.151 E13.74211 ; perimeter
G1 X105.866 Y98.811 E13.76192 ; perimeter
G1 X106.387 Y98.394 E13.78173 ; perimeter
G1 X106.844 Y97.909 E13.80152 ; perimeter
G1 X107.229 Y97.364 E13.82133 ; perimeter
G1 X107.574 Y96.657 E13.84469 ; perimeter
G1 X113.675 Y96.657 E14.02584 ; perimeter
G1 X114.019 Y96.707 E14.03616 ; perimeter
G1 X114.351 Y96.91 E14.04771 ; perimeter
G1 X114.522 Y97.15 E14.05646 ; perimeter
G1 X114.603 Y97.534 E14.06811 ; perimeter
G1 X114.603 Y101.343 E14.1812 ; perimeter
G1 X99.932 Y101.334 E14.6168 ; perimeter
G1 X99.183 Y101.244 E14.6392 ; perimeter
G1 X98.699 Y101.103 E14.65417 ; perimeter
G1 X98.097 Y100.866 E14.67338 ; perimeter
G1 X97.653 Y100.607 E14.68864 ; perimeter
G1 X97.218 Y100.275 E14.70489 ; perimeter
G1 X96.829 Y99.892 E14.7211 ; perimeter
G1 X96.474 Y99.436 E14.73826 ; perimeter
G1 X96.211 Y98.996 E14.75348 ; perimeter
G1 X95.991 Y98.499 E14.76962 ; perimeter
G1 X95.832 Y97.956 E14.78642 ; perimeter
G1 X95.727 Y97.28 E14.80673 ; perimeter
G1 X95.718 Y91.878 E14.96712 ; perimeter
G1 X95.65 Y91.628 E14.97481 ; perimeter
M204 S2500 ; adjust acceleration
G1 X95.329 Y91.777 F7800 ; move to first perimeter point
M204 S2000 ; adjust acceleration
;TYPE:External perimeter
G1 F1800
G1 X95.182 Y91.7 E14.97974 ; perimeter
G1 X83.361 Y91.7 E15.33072 ; perimeter
G1 X83.361 Y87.3 E15.46136 ; perimeter
G1 X126.961 Y87.3 E16.7559 ; perimeter
G1 X126.961 Y91.7 E16.88654 ; perimeter
G1 X115.139 Y91.7 E17.23755 ; perimeter
G1 X115 Y91.766 E17.24212 ; perimeter
G1 X114.961 Y91.879 E17.24567 ; perimeter
G1 X114.961 Y93.37 E17.28994 ; perimeter
G1 X114.89 Y93.9 E17.30582 ; perimeter
G1 X114.776 Y94.137 E17.31363 ; perimeter
G1 X114.508 Y94.427 E17.32535 ; perimeter
G1 X114.16 Y94.629 E17.3373 ; perimeter
G1 X113.742 Y94.7 E17.34989 ; perimeter
G1 X107.548 Y94.7 E17.5338 ; perimeter
G1 X107.529 Y94.375 E17.54347 ; perimeter
G1 X107.413 Y93.773 E17.56167 ; perimeter
G1 X107.076 Y92.895 E17.58959 ; perimeter
G1 X106.765 Y92.377 E17.60753 ; perimeter
G1 X106.378 Y91.901 E17.62574 ; perimeter
G1 X105.678 Y91.292 E17.65329 ; perimeter
G1 X105.148 Y90.975 E17.67163 ; perimeter
G1 X104.583 Y90.737 E17.68983 ; perimeter
G1 X103.679 Y90.531 E17.71736 ; perimeter
G1 X103.066 Y90.502 E17.73558 ; perimeter
G1 X102.146 Y90.619 E17.76312 ; perimeter
G1 X101.56 Y90.803 E17.78136 ; perimeter
G1 X100.736 Y91.229 E17.8089 ; perimeter
G1 X100.246 Y91.604 E17.82722 ; perimeter
G1 X99.814 Y92.044 E17.84553 ; perimeter
G1 X99.447 Y92.54 E17.86385 ; perimeter
G1 X99.154 Y93.083 E17.88217 ; perimeter
G1 X98.939 Y93.662 E17.90051 ; perimeter
G1 X98.807 Y94.264 E17.91881 ; perimeter
G1 X98.761 Y94.88 E17.93715 ; perimeter
G1 X98.801 Y95.495 E17.95545 ; perimeter
G1 X98.921 Y96.075 E17.97304 ; perimeter
G1 X99.092 Y96.561 E17.98834 ; perimeter
G1 X99.316 Y96.992 E18.00276 ; perimeter
G1 X99.653 Y97.548 E18.02206 ; perimeter
G1 X99.994 Y97.954 E18.0378 ; perimeter
G1 X100.452 Y98.367 E18.05611 ; perimeter
G1 X100.961 Y98.709 E18.07432 ; perimeter
G1 X101.8 Y99.084 E18.10161 ; perimeter
G1 X102.408 Y99.235 E18.12021 ; perimeter
G1 X103.028 Y99.297 E18.13871 ; perimeter
G1 X103.944 Y99.229 E18.16598 ; perimeter
G1 X104.542 Y99.077 E18.1843 ; perimeter
G1 X105.113 Y98.843 E18.20262 ; perimeter
G1 X105.645 Y98.531 E18.22093 ; perimeter
G1 X106.129 Y98.148 E18.23926 ; perimeter
G1 X106.554 Y97.701 E18.25757 ; perimeter
G1 X106.912 Y97.198 E18.2759 ; perimeter
G1 X107.187 Y96.674 E18.29347 ; perimeter
G1 X107.324 Y96.3 E18.3053 ; perimeter
G1 X113.86 Y96.313 E18.49936 ; perimeter
G1 X114.276 Y96.418 E18.5121 ; perimeter
