;FLAVOR:Marlin
;TIME:2129
;Filament used: 1.69967m
;Layer height: 0.22
;MINX:77.743
;MINY:99.243
;MINZ:0.3
;MAXX:142.258
;MAXY:120.755
;MAXZ:9.98
;Generated with Cura_SteamEngine 5.4.0
M82 ;absolute extrusion mode
SAVE_GCODE_STATE

START_PRINT EXTRUDER_TEMP=230.0 BED_TEMP=60.0

RESTORE_GCODE_STATE
G92 E0
G92 E0
G1 F3600 E-0.8
;LAYER_COUNT:45
;LAYER:0
M107
M204 S1000
G0 F7500 X79.338 Y106.298 Z0.3
M204 S500
;TYPE:SKIRT
G1 F3600 E0
G1 F1500 X79.811 Y105.978 E0.02849
G1 X82.1 Y104.383 E0.16768
G1 X84.287 Y102.766 E0.30337
G1 X87.281 Y100.39 E0.49407
G1 X87.679 Y100.062 E0.5198
G1 X88.147 Y99.739 E0.54817
G1 X88.66 Y99.493 E0.57655
G1 X89.144 Y99.345 E0.6018
G1 X89.896 Y99.253 E0.6396
G1 X90.608 Y99.243 E0.67512
G1 X129.4 Y99.244 E2.61046
G1 X130.102 Y99.254 E2.64549
G1 X130.699 Y99.314 E2.67542
G1 X131.249 Y99.46 E2.70381
G1 X131.772 Y99.695 E2.73242
G1 X132.312 Y100.054 E2.76477
G1 X134.648 Y101.942 E2.91462
G1 X136.81 Y103.587 E3.05016
G1 X139.017 Y105.17 E3.18566
G1 X140.165 Y105.946 E3.25479
G1 X140.734 Y106.345 E3.28946
G1 X141.169 Y106.71 E3.31779
G1 X141.542 Y107.138 E3.34611
G1 X141.844 Y107.622 E3.37458
G1 X142.065 Y108.145 E3.4029
G1 X142.19 Y108.635 E3.42813
G1 X142.248 Y109.188 E3.45587
G1 X142.258 Y109.64 E3.47843
G1 X142.249 Y115.015 E3.74659
G1 X142.239 Y115.675 E3.77952
G1 X142.192 Y116.203 E3.80597
G1 X142.14 Y116.511 E3.82155
G1 X141.996 Y117.073 E3.85049
G1 X141.891 Y117.371 E3.86626
G1 X141.649 Y117.91 E3.89573
G1 X141.475 Y118.22 E3.91347
G1 X141.094 Y118.78 E3.94726
G1 X140.574 Y119.323 E3.98477
G1 X140.282 Y119.577 E4.00408
G1 X139.62 Y120.046 E4.04455
G1 X139.014 Y120.335 E4.07805
G1 X138.699 Y120.454 E4.09485
G1 X138.131 Y120.615 E4.1243
G1 X137.824 Y120.673 E4.13989
G1 X137.231 Y120.734 E4.16963
G1 X136.32 Y120.748 E4.21509
G1 X83.668 Y120.755 E6.84191
G1 X82.977 Y120.744 E6.87638
G1 X82.418 Y120.705 E6.90434
G1 X81.856 Y120.612 E6.93276
G1 X81.574 Y120.54 E6.94728
G1 X81.008 Y120.343 E6.97718
G1 X80.677 Y120.193 E6.99531
G1 X80.132 Y119.884 E7.02657
G1 X79.837 Y119.678 E7.04452
G1 X79.445 Y119.358 E7.06976
G1 X79.193 Y119.096 E7.0879
G1 X78.902 Y118.758 E7.11015
G1 X78.454 Y118.122 E7.14896
G1 X78.164 Y117.513 E7.18261
G1 X78.044 Y117.195 E7.19957
G1 X77.883 Y116.626 E7.22907
G1 X77.825 Y116.318 E7.24471
G1 X77.765 Y115.728 E7.2743
G1 X77.751 Y114.849 E7.31816
G1 X77.743 Y109.963 E7.56192
G1 X77.752 Y109.236 E7.59819
G1 X77.81 Y108.639 E7.62812
G1 X77.956 Y108.089 E7.65651
G1 X78.186 Y107.57 E7.68483
G1 X78.495 Y107.092 E7.71323
G1 X78.83 Y106.713 E7.73846
G1 X79.338 Y106.298 E7.77119
M204 S1000
G0 F7500 X79.562 Y106.629
M204 S500
G1 F1500 X80.04 Y106.306 E7.79997
G1 X82.338 Y104.705 E7.9397
G1 X84.525 Y103.088 E8.07539
G1 X87.53 Y100.703 E8.26679
G1 X87.909 Y100.389 E8.29135
G1 X88.323 Y100.098 E8.31659
G1 X88.777 Y99.876 E8.34181
G1 X89.261 Y99.728 E8.36706
G1 X89.902 Y99.653 E8.39926
G1 X90.608 Y99.643 E8.43448
G1 X129.394 Y99.644 E10.36952
G1 X130.096 Y99.654 E10.40455
G1 X130.599 Y99.701 E10.42975
G1 X131.089 Y99.827 E10.455
G1 X131.552 Y100.029 E10.4802
G1 X132.061 Y100.365 E10.51063
G1 X134.406 Y102.26 E10.66104
G1 X136.577 Y103.912 E10.79715
G1 X138.784 Y105.495 E10.93265
G1 X139.936 Y106.274 E11.00203
G1 X140.48 Y106.654 E11.03514
G1 X140.87 Y106.975 E11.06034
G1 X141.205 Y107.353 E11.08553
G1 X141.477 Y107.78 E11.11079
G1 X141.677 Y108.244 E11.136
G1 X141.802 Y108.734 E11.16123
G1 X141.848 Y109.197 E11.18444
G1 X141.858 Y109.639 E11.2065
G1 X141.849 Y115.009 E11.47441
G1 X141.839 Y115.669 E11.50734
G1 X141.797 Y116.138 E11.53083
G1 X141.752 Y116.413 E11.54474
G1 X141.618 Y116.942 E11.57196
G1 X141.526 Y117.208 E11.586
G1 X141.299 Y117.716 E11.61376
G1 X141.144 Y117.995 E11.62969
G1 X140.763 Y118.555 E11.66348
G1 X140.311 Y119.021 E11.69587
G1 X140.019 Y119.275 E11.71517
G1 X139.447 Y119.685 E11.75029
G1 X138.871 Y119.961 E11.78215
G1 X138.589 Y120.069 E11.79722
G1 X138.055 Y120.222 E11.82493
G1 X137.782 Y120.275 E11.8388
G1 X137.225 Y120.334 E11.86675
G1 X136.32 Y120.348 E11.9119
G1 X83.674 Y120.355 E14.53842
G1 X83.004 Y120.345 E14.57185
G1 X82.482 Y120.31 E14.59796
G1 X81.953 Y120.224 E14.62469
G1 X81.705 Y120.162 E14.63745
G1 X81.172 Y119.978 E14.66558
G1 X80.873 Y119.844 E14.68193
G1 X80.36 Y119.555 E14.7113
G1 X80.09 Y119.368 E14.72769
G1 X79.698 Y119.048 E14.75293
G1 X79.495 Y118.834 E14.76765
G1 X79.227 Y118.525 E14.78806
G1 X78.815 Y117.95 E14.82335
G1 X78.538 Y117.37 E14.85541
G1 X78.429 Y117.085 E14.87064
G1 X78.276 Y116.55 E14.8984
G1 X78.223 Y116.276 E14.91232
G1 X78.165 Y115.722 E14.94011
G1 X78.151 Y114.848 E14.98372
G1 X78.143 Y109.968 E15.22719
G1 X78.152 Y109.241 E15.26346
G1 X78.198 Y108.738 E15.28866
G1 X78.323 Y108.248 E15.31389
G1 X78.524 Y107.784 E15.33911
G1 X78.795 Y107.357 E15.36435
G1 X79.13 Y106.978 E15.38958
G1 X79.562 Y106.629 E15.41729
M204 S1000
G1 F3600 E14.61729
;MESH:Belt.STL
G0 F7500 X87.65 Y108.561
G0 X88.471 Y109.265
M204 S500
;TYPE:WALL-OUTER
G1 F3600 E15.41729
G1 F1500 X87.753 Y109.424 E15.45398
G1 X81.542 Y109.427 E15.76385
G1 X81.552 Y115.754 E16.0795
G1 X81.682 Y116.111 E16.09846
G1 X81.811 Y116.335 E16.11135
G1 X82.011 Y116.573 E16.12686
G1 X82.382 Y116.833 E16.14946
G1 X82.754 Y116.932 E16.16867
G1 X83.01 Y116.955 E16.18149
G1 X86.266 Y116.954 E16.34394
G1 F1388.9 X86.658 Y116.922 E16.36513
G1 F1307.2 X87.003 Y116.929 E16.38488
G1 F1304.3 X87.388 Y116.92 E16.40698
G1 F1382.5 X87.836 Y116.954 E16.4313
G1 F1500 X132.267 Y116.948 E18.64797
G1 F1392.1 X132.659 Y116.917 E18.66911
G1 F1315.8 X133.003 Y116.925 E18.68868
G1 F1312.9 X133.388 Y116.916 E18.71063
G1 F1379.3 X133.748 Y116.945 E18.73022
G1 F1488.8 X137.255 Y116.948 E18.9065
G1 F1500 X137.609 Y116.818 E18.92532
G1 X137.83 Y116.691 E18.93803
G1 X138.027 Y116.527 E18.95082
G1 X138.191 Y116.33 E18.96361
G1 X138.318 Y116.109 E18.97633
G1 X138.448 Y115.755 E18.99514
G1 X138.459 Y109.427 E19.31085
G1 X132.272 Y109.426 E19.61952
G1 X131.691 Y109.299 E19.64919
G1 X131.196 Y109.053 E19.67676
G1 X130.78 Y108.708 E19.70373
G1 X130.42 Y108.281 E19.73159
G1 X130.123 Y107.665 E19.76571
G1 X130.001 Y107.199 E19.78974
G1 X129.956 Y106.875 E19.80606
G1 X129.952 Y103.046 E19.99709
G1 X90.048 Y103.045 E21.98791
G1 X90.042 Y106.816 E22.17605
G1 X89.954 Y107.457 E22.20832
G1 X89.663 Y108.149 E22.24578
G1 X89.307 Y108.618 E22.27515
G1 X88.868 Y109.02 E22.30485
G1 X88.498 Y109.205 E22.32549
G1 X88.471 Y109.265 E22.32877
M204 S1000
G0 F7500 X88.276 Y109.308
G1 F3600 E21.52877
G0 F7500 X88.39 Y109.795
G0 X82.115 Y109.999
G0 X82.113 Y115.581
G0 X82.192 Y115.873
G0 X82.393 Y116.156
G0 X82.692 Y116.335
G0 X83.034 Y116.394
G0 X85.29 Y116.37
G0 X84.521 Y114.078
G0 X85.736 Y112.326
G0 X88.048 Y112.223
G0 X88.891 Y113.392
G0 X89.159 Y114.123
G0 X89.16 Y114.867
G0 X88.904 Y115.583
G0 X88.418 Y116.17
G0 X88.047 Y116.387
G0 X87.417 Y116.711
G0 X87.348 Y116.455
M204 S500
G1 F3600 E22.32877
G1 F1304.3 X86.982 Y116.477 E22.34981
G1 F1310 X86.679 Y116.456 E22.36716
G1 F1388.9 X86.315 Y116.325 E22.388
G1 F1500 X86.02 Y116.185 E22.40429
G1 X85.727 Y115.979 E22.42216
G1 X85.509 Y115.758 E22.43765
G1 X85.301 Y115.459 E22.45582
G1 X85.167 Y115.163 E22.47203
G1 X85.076 Y114.826 E22.48945
G1 X85.049 Y114.485 E22.50651
G1 X85.074 Y114.19 E22.52128
G1 X85.165 Y113.842 E22.53923
G1 X85.298 Y113.549 E22.55528
G1 X85.521 Y113.227 E22.57482
G1 X85.745 Y113.007 E22.59049
G1 X86.034 Y112.805 E22.60808
G1 X86.407 Y112.63 E22.62863
G1 X86.821 Y112.558 E22.6496
G1 X87.28 Y112.562 E22.6725
G1 X87.682 Y112.673 E22.6933
G1 X87.957 Y112.801 E22.70844
G1 X88.265 Y113.013 E22.72709
G1 X88.506 Y113.26 E22.74431
G1 X88.691 Y113.525 E22.76043
G1 X88.823 Y113.807 E22.77597
G1 X88.924 Y114.174 E22.79496
G1 X88.951 Y114.516 E22.81207
G1 X88.919 Y114.851 E22.82886
G1 X88.824 Y115.187 E22.84628
G1 X88.69 Y115.471 E22.86195
G1 X88.504 Y115.744 E22.87843
G1 X88.239 Y116.008 E22.89709
G1 X87.959 Y116.199 E22.914
G1 F1488.8 X87.666 Y116.336 E22.93026
G1 F1373 X87.348 Y116.455 E22.94877
M204 S1000
G0 F7500 X87.148 Y116.467
G1 F3600 E22.14877
G0 F7500 X87.17 Y116.737
G0 X88.988 Y116.057
G0 X89.357 Y113.624
G0 X87.331 Y111.995
G0 X85.099 Y112.857
G0 X84.644 Y115.377
G0 X85.29 Y116.37
G0 X83.034 Y116.394
G0 X82.692 Y116.335
G0 X82.393 Y116.156
G0 X82.192 Y115.873
G0 X82.113 Y115.581
G0 X82.115 Y109.999
G0 X88.82 Y109.672
G0 X90.503 Y107.606
G0 X90.619 Y103.616
G0 X109.074 Y103.636
G0 X107.521 Y105.571
G0 X108.214 Y107.476
G0 X109.503 Y108.398
G0 X109.984 Y107.951
M204 S500
G1 F3600 E22.94877
G1 F1500 X109.647 Y107.918 E22.96566
G1 X109.347 Y107.837 E22.98116
G1 X109.02 Y107.685 E22.99915
G1 X108.727 Y107.479 E23.01702
G1 X108.509 Y107.258 E23.03251
G1 X108.301 Y106.959 E23.05068
G1 X108.167 Y106.663 E23.06689
G1 X108.076 Y106.326 E23.08431
G1 X108.049 Y105.985 E23.10137
G1 X108.08 Y105.654 E23.11796
G1 X108.177 Y105.31 E23.13579
G1 X108.298 Y105.049 E23.15014
G1 X108.521 Y104.727 E23.16968
G1 X108.745 Y104.507 E23.18535
G1 X109.041 Y104.301 E23.20334
G1 X109.338 Y104.167 E23.21959
G1 X109.657 Y104.078 E23.23612
G1 X110.015 Y104.049 E23.25404
G1 X110.311 Y104.074 E23.26886
G1 X110.653 Y104.163 E23.28649
G1 X110.98 Y104.315 E23.30448
G1 X111.274 Y104.522 E23.32242
G1 X111.506 Y104.76 E23.339
G1 X111.697 Y105.037 E23.35578
G1 X111.833 Y105.335 E23.37213
G1 X111.924 Y105.674 E23.38964
G1 X111.951 Y106.016 E23.40675
G1 X111.925 Y106.316 E23.42178
G1 X111.836 Y106.656 E23.43931
G1 X111.69 Y106.971 E23.45663
G1 X111.504 Y107.244 E23.47311
G1 X111.266 Y107.485 E23.49001
G1 X110.967 Y107.694 E23.50821
G1 X110.697 Y107.822 E23.52312
G1 X110.343 Y107.922 E23.54147
G1 X109.984 Y107.951 E23.55944
M204 S1000
G0 F7500 X109.785 Y107.932
G1 F3600 E22.75944
G0 F7500 X109.503 Y108.398
G0 X111.618 Y107.927
G0 X112.475 Y105.549
G0 X110.926 Y103.636
G0 X129.383 Y103.616
G0 X129.929 Y108.568
G0 X132.195 Y109.986
G0 X137.886 Y109.999
G0 X137.887 Y115.671
G0 X137.627 Y116.13
G0 X137.37 Y116.308
G0 X137.082 Y116.387
G0 X134.717 Y116.362
G0 X135.477 Y114.058
G0 X133.854 Y112.135
G0 X131.355 Y112.601
G0 X130.523 Y114.943
G0 X131.587 Y116.175
G0 X132.265 Y116.563
G0 X132.688 Y116.635
G0 X133.417 Y116.711
G0 X133.348 Y116.454
M204 S500
G1 F3600 E23.55944
G1 F1312.9 X133.003 Y116.476 E23.57915
G1 F1315.8 X132.679 Y116.455 E23.59761
G1 F1392.1 X132.315 Y116.325 E23.61839
G1 F1500 X132.02 Y116.185 E23.63468
G1 X131.727 Y115.979 E23.65255
G1 X131.509 Y115.758 E23.66804
G1 X131.301 Y115.459 E23.68621
G1 X131.167 Y115.163 E23.70242
G1 X131.076 Y114.826 E23.71983
G1 X131.049 Y114.485 E23.7369
G1 X131.074 Y114.19 E23.75167
G1 X131.177 Y113.81 E23.77131
G1 X131.307 Y113.532 E23.78662
G1 X131.511 Y113.238 E23.80448
G1 X131.745 Y113.007 E23.82088
G1 X132.034 Y112.805 E23.83847
G1 X132.406 Y112.632 E23.85894
G1 X132.821 Y112.558 E23.87997
G1 X133.28 Y112.562 E23.90287
G1 X133.682 Y112.673 E23.92368
G1 X133.98 Y112.815 E23.94015
G1 X134.274 Y113.022 E23.95809
G1 X134.506 Y113.26 E23.97467
G1 X134.697 Y113.537 E23.99145
G1 X134.833 Y113.835 E24.0078
G1 X134.924 Y114.174 E24.02531
G1 X134.952 Y114.499 E24.04158
G1 X134.922 Y114.836 E24.05846
G1 X134.836 Y115.156 E24.07499
G1 X134.691 Y115.471 E24.09229
G1 X134.504 Y115.744 E24.1088
G1 X134.239 Y116.008 E24.12746
G1 X133.959 Y116.199 E24.14437
G1 F1488.8 X133.666 Y116.336 E24.16063
G1 F1379.3 X133.348 Y116.454 E24.17903
M204 S1000
G0 F7500 X133.148 Y116.466
G0 X133.17 Y116.737
G0 X134.841 Y116.447
G0 X134.151 Y116.548
M204 S500
;TYPE:WALL-INNER
G1 F1500 X137.094 Y116.548 E24.32586
G1 X137.439 Y116.454 E24.3437
G1 X137.743 Y116.243 E24.36216
G1 X137.954 Y115.939 E24.38062
G1 X138.048 Y115.594 E24.39846
G1 X138.058 Y109.827 E24.68618
G1 X132.244 Y109.826 E24.97624
G1 X131.555 Y109.681 E25.01137
G1 X130.946 Y109.367 E25.04555
G1 X130.479 Y108.972 E25.07607
G1 X130.066 Y108.482 E25.10804
G1 X129.75 Y107.819 E25.14468
G1 X129.619 Y107.325 E25.17018
G1 X129.56 Y106.93 E25.19011
G1 X129.555 Y103.444 E25.36402
G1 X110.801 Y103.445 E26.29966
G1 F1162.8 X110.354 Y103.56 E26.32937
G1 X110.757 Y103.777 E26.35883
G1 F1500 X110.852 Y103.812 E26.36388
G1 X111.208 Y103.985 E26.38362
G1 X111.516 Y104.198 E26.40231
G1 X111.807 Y104.491 E26.42291
G1 X112.038 Y104.821 E26.44301
G1 X112.206 Y105.181 E26.46283
G1 X112.317 Y105.581 E26.48354
G1 X112.354 Y105.997 E26.50437
G1 X112.318 Y106.402 E26.52466
G1 X112.209 Y106.81 E26.54573
G1 X112.065 Y107.121 E26.56283
G1 X111.806 Y107.512 E26.58622
G1 X111.548 Y107.769 E26.60439
G1 X111.226 Y108.005 E26.62431
G1 X110.826 Y108.204 E26.6466
G1 X110.412 Y108.316 E26.668
G1 X110.003 Y108.351 E26.68848
G1 X109.594 Y108.318 E26.70895
G1 X109.197 Y108.21 E26.72947
G1 X108.837 Y108.044 E26.74925
G1 X108.483 Y107.801 E26.77067
G1 X108.213 Y107.532 E26.78969
G1 X107.961 Y107.178 E26.81137
G1 X107.815 Y106.862 E26.82873
G1 X107.683 Y106.42 E26.85175
G1 X107.647 Y106.004 E26.87258
G1 X107.681 Y105.592 E26.8932
G1 X107.814 Y105.142 E26.91661
G1 X107.956 Y104.836 E26.93344
G1 X108.196 Y104.486 E26.95462
G1 X108.472 Y104.21 E26.97409
G1 X108.825 Y103.96 E26.99567
G1 F1485.1 X109.229 Y103.777 E27.01802
G1 F1140.7 X109.568 Y103.564 E27.04428
G1 X109.184 Y103.448 E27.0706
G1 F1485.1 X90.447 Y103.444 E28.01474
G1 F1500 X90.444 Y106.79 E28.18167
G1 X90.34 Y107.561 E28.22049
G1 X90.01 Y108.348 E28.26306
G1 X89.624 Y108.862 E28.29513
G1 X89.096 Y109.355 E28.33117
G1 X88.725 Y109.539 E28.35183
G1 X88.57 Y109.647 E28.36126
G1 X87.784 Y109.827 E28.40149
G1 X81.942 Y109.827 E28.69295
G1 X81.952 Y115.593 E28.98061
G1 X82.046 Y115.941 E28.9986
G1 X82.284 Y116.275 E29.01906
G1 X82.478 Y116.412 E29.03091
G1 X82.875 Y116.555 E29.05196
G1 X85.85 Y116.554 E29.20038
G1 X85.482 Y116.3 E29.22269
G1 X85.215 Y116.035 E29.24146
G1 X84.958 Y115.673 E29.26361
G1 X84.781 Y115.271 E29.28552
G1 X84.685 Y114.913 E29.30401
G1 X84.646 Y114.499 E29.32476
G1 X84.681 Y114.102 E29.34464
G1 X84.792 Y113.69 E29.36593
G1 X84.958 Y113.332 E29.38562
G1 X85.217 Y112.966 E29.40799
G1 X85.471 Y112.711 E29.42594
G1 X85.817 Y112.465 E29.44712
G1 X86.286 Y112.245 E29.47297
G1 X86.799 Y112.156 E29.49894
G1 X87.309 Y112.156 E29.52439
G1 X87.764 Y112.278 E29.54789
G1 X88.139 Y112.445 E29.56837
G1 X88.539 Y112.722 E29.59264
G1 X88.822 Y113.014 E29.61293
G1 X89.042 Y113.333 E29.63226
G1 X89.189 Y113.644 E29.64943
G1 X89.317 Y114.077 E29.67195
G1 X89.353 Y114.496 E29.69293
G1 X89.319 Y114.907 E29.71351
G1 X89.188 Y115.355 E29.7368
G1 X89.051 Y115.652 E29.75311
G1 X88.804 Y116.015 E29.77502
G1 X88.51 Y116.307 E29.79569
G1 X88.156 Y116.554 E29.81723
G1 X131.852 Y116.548 E31.99723
G1 X131.489 Y116.307 E32.01897
G1 X131.212 Y116.031 E32.03848
G1 X130.96 Y115.674 E32.06028
G1 X130.815 Y115.362 E32.07744
G1 X130.684 Y114.926 E32.10015
G1 X130.646 Y114.504 E32.12129
G1 X130.681 Y114.096 E32.14172
G1 X130.814 Y113.642 E32.16533
G1 X130.963 Y113.328 E32.18266
G1 X131.207 Y112.978 E32.20395
G1 X131.463 Y112.721 E32.22205
G1 X131.815 Y112.469 E32.24365
G1 X132.281 Y112.252 E32.26929
G1 X132.796 Y112.156 E32.29543
G1 X133.31 Y112.156 E32.32107
G1 X133.804 Y112.289 E32.34659
G1 X134.163 Y112.455 E32.36633
G1 X134.522 Y112.704 E32.38812
G1 X134.786 Y112.971 E32.40686
G1 X135.036 Y113.317 E32.42815
G1 X135.206 Y113.681 E32.4482
G1 X135.317 Y114.083 E32.469
G1 X135.352 Y114.5 E32.48988
G1 X135.318 Y114.903 E32.51006
G1 X135.222 Y115.261 E32.52855
G1 X135.053 Y115.65 E32.54971
G1 X134.803 Y116.015 E32.57178
G1 X134.507 Y116.31 E32.59263
G1 X134.151 Y116.548 E32.61399
M204 S1000
G1 F3600 E31.81399
G0 F7500 X134.841 Y116.447
G0 X137.082 Y116.387
G0 X137.37 Y116.308
G0 X137.729 Y116.008
G0 X137.887 Y115.671
G0 X137.886 Y109.999
G0 X131.502 Y109.833
G0 X129.599 Y107.867
G0 X129.383 Y103.616
G0 X110.926 Y103.636
G0 X110.354 Y103.56
M204 S500
G1 F3600 E32.61399
G1 F969.3 X109.998 Y103.546 E32.6415
G1 F960 X109.568 Y103.564 E32.67505
M204 S1000
G0 F7500 X108.975 Y103.781
G0 X110.102 Y103.828
G0 X111.428 Y104.016
G0 X111.576 Y103.804
M204 S500
;TYPE:SKIN
G1 F1500 X111.738 Y103.915 E32.68485
G1 X112.067 Y104.241 E32.70795
G1 X112.358 Y104.655 E32.7332
G1 X112.545 Y105.061 E32.7555
G1 X112.675 Y105.534 E32.77998
G1 X112.715 Y106.021 E32.80435
G1 X112.672 Y106.477 E32.8272
G1 X112.553 Y106.917 E32.84994
