;FLAVOR:Marlin
;TIME:656
;Filament used: 0.604256m
;Layer height: 0.25
;MINX:91.149
;MINY:98.35
;MINZ:0.3
;MAXX:128.851
;MAXY:121.65
;MAXZ:5.05
;Generated with Cura_SteamEngine 5.4.0
M82 ;absolute extrusion mode
SAVE_GCODE_STATE

START_PRINT EXTRUDER_TEMP=230.0 BED_TEMP=60.0

RESTORE_GCODE_STATE
G92 E0
G92 E0
G1 F3600 E-0.8
;LAYER_COUNT:20
;LAYER:0
M107
M204 S1000
G0 F7500 X93.356 Y100.764 Z0.3
;TYPE:SKIRT
G1 F3600 E0
G1 F1500 X93.919 Y100.24 E0.03837
G1 X94.33 Y99.908 E0.06473
G1 X94.776 Y99.595 E0.09191
G1 X95.197 Y99.344 E0.11637
G1 X95.775 Y99.058 E0.14854
G1 X96.159 Y98.895 E0.16935
G1 X96.53 Y98.762 E0.18902
G1 X96.893 Y98.651 E0.20795
G1 X97.287 Y98.552 E0.22822
G1 X97.576 Y98.493 E0.24294
G1 X98.157 Y98.415 E0.27218
G1 X99.027 Y98.357 E0.31568
G1 X99.507 Y98.35 E0.33963
G1 X120.342 Y98.35 E1.3791
G1 X121.188 Y98.363 E1.42131
G1 X121.684 Y98.391 E1.44609
G1 X121.955 Y98.42 E1.45969
G1 X122.404 Y98.489 E1.48236
G1 X122.74 Y98.558 E1.49947
G1 X123.181 Y98.671 E1.52218
G1 X123.627 Y98.815 E1.54556
G1 X123.993 Y98.961 E1.56522
G1 X124.589 Y99.233 E1.59791
G1 X125.288 Y99.642 E1.63831
G1 X125.967 Y100.14 E1.68032
G1 X126.461 Y100.578 E1.71326
G1 X126.945 Y101.098 E1.7487
G1 X127.276 Y101.508 E1.77499
G1 X127.601 Y101.972 E1.80325
G1 X127.845 Y102.379 E1.82693
G1 X128.121 Y102.925 E1.85745
G1 X128.313 Y103.37 E1.88163
G1 X128.469 Y103.842 E1.90643
G1 X128.645 Y104.479 E1.9394
G1 X128.779 Y105.258 E1.97884
G1 X128.843 Y106.149 E2.0234
G1 X128.851 Y113.14 E2.37219
G1 X128.837 Y114.001 E2.41515
G1 X128.799 Y114.618 E2.44599
G1 X128.711 Y115.201 E2.4754
G1 X128.536 Y115.953 E2.51392
G1 X128.294 Y116.667 E2.55153
G1 X127.949 Y117.424 E2.59304
G1 X127.567 Y118.077 E2.63078
G1 X127.119 Y118.696 E2.6689
G1 X126.596 Y119.287 E2.70828
G1 X126.088 Y119.757 E2.7428
G1 X125.679 Y120.088 E2.76905
G1 X125.281 Y120.369 E2.79336
G1 X124.746 Y120.687 E2.82441
G1 X124.265 Y120.925 E2.85118
G1 X123.839 Y121.106 E2.87428
G1 X123.467 Y121.239 E2.89399
G1 X123.107 Y121.349 E2.91277
G1 X122.713 Y121.448 E2.93303
G1 X122.424 Y121.507 E2.94775
G1 X121.843 Y121.585 E2.977
G1 X120.973 Y121.643 E3.0205
G1 X120.493 Y121.65 E3.04445
G1 X99.658 Y121.65 E4.08391
G1 X98.801 Y121.637 E4.12667
G1 X98.122 Y121.587 E4.16064
G1 X97.549 Y121.504 E4.18952
G1 X97.253 Y121.441 E4.20462
G1 X96.816 Y121.327 E4.22715
G1 X96.353 Y121.178 E4.25142
G1 X96.026 Y121.048 E4.26897
G1 X95.334 Y120.728 E4.30701
G1 X94.718 Y120.365 E4.34268
G1 X94.135 Y119.942 E4.37862
G1 X93.768 Y119.637 E4.40243
G1 X93.395 Y119.271 E4.4285
G1 X93.036 Y118.881 E4.45494
G1 X92.727 Y118.498 E4.47949
G1 X92.418 Y118.059 E4.50628
G1 X92.134 Y117.583 E4.53393
G1 X91.859 Y117.027 E4.56488
G1 X91.694 Y116.638 E4.58596
G1 X91.545 Y116.217 E4.60824
G1 X91.444 Y115.879 E4.62584
G1 X91.317 Y115.36 E4.65249
G1 X91.221 Y114.743 E4.68365
G1 X91.157 Y113.85 E4.72831
G1 X91.149 Y106.86 E5.07705
G1 X91.163 Y106 E5.11996
G1 X91.191 Y105.506 E5.14464
G1 X91.221 Y105.235 E5.15825
G1 X91.289 Y104.797 E5.18036
G1 X91.363 Y104.439 E5.1986
G1 X91.507 Y103.89 E5.22691
G1 X91.72 Y103.298 E5.2583
G1 X92.053 Y102.572 E5.29815
G1 X92.438 Y101.916 E5.3361
G1 X92.937 Y101.235 E5.37822
G1 X93.356 Y100.764 E5.40967
G0 F7500 X93.655 Y101.03
G1 F1500 X94.191 Y100.533 E5.44614
G1 X94.56 Y100.235 E5.4698
G1 X94.981 Y99.939 E5.49548
G1 X95.402 Y99.688 E5.51993
G1 X95.931 Y99.426 E5.54938
G1 X96.294 Y99.272 E5.56905
G1 X96.665 Y99.139 E5.58872
G1 X96.991 Y99.039 E5.60573
G1 X97.367 Y98.944 E5.62508
G1 X97.656 Y98.885 E5.63979
G1 X98.184 Y98.814 E5.66637
G1 X99.033 Y98.757 E5.70882
G1 X99.513 Y98.75 E5.73277
G1 X120.336 Y98.75 E6.77164
G1 X121.165 Y98.762 E6.813
G1 X121.641 Y98.789 E6.83679
G1 X121.912 Y98.818 E6.85038
G1 X122.324 Y98.881 E6.87118
G1 X122.66 Y98.95 E6.88829
G1 X123.058 Y99.052 E6.90879
G1 X123.504 Y99.196 E6.93217
G1 X123.827 Y99.325 E6.94952
G1 X124.423 Y99.597 E6.98221
G1 X125.051 Y99.965 E7.01852
G1 X125.73 Y100.463 E7.06053
G1 X126.195 Y100.877 E7.09159
G1 X126.652 Y101.37 E7.12513
G1 X126.949 Y101.738 E7.14872
G1 X127.258 Y102.178 E7.17555
G1 X127.502 Y102.585 E7.19922
G1 X127.754 Y103.085 E7.22716
G1 X127.933 Y103.495 E7.24948
G1 X128.083 Y103.949 E7.27333
G1 X128.259 Y104.586 E7.3063
G1 X128.38 Y105.287 E7.34179
G1 X128.444 Y106.178 E7.38636
G1 X128.451 Y113.134 E7.73339
G1 X128.438 Y113.977 E7.77546
G1 X128.403 Y114.559 E7.80455
G1 X128.321 Y115.11 E7.83234
G1 X128.146 Y115.862 E7.87086
G1 X127.93 Y116.501 E7.90451
G1 X127.585 Y117.258 E7.94601
G1 X127.243 Y117.842 E7.97978
G1 X126.795 Y118.461 E8.0179
G1 X126.324 Y118.993 E8.05335
G1 X125.816 Y119.463 E8.08788
G1 X125.448 Y119.761 E8.1115
G1 X125.05 Y120.042 E8.13581
G1 X124.569 Y120.328 E8.16373
G1 X124.088 Y120.566 E8.1905
G1 X123.704 Y120.729 E8.21131
G1 X123.332 Y120.862 E8.23102
G1 X123.009 Y120.961 E8.24788
G1 X122.633 Y121.056 E8.26723
G1 X122.344 Y121.115 E8.28194
G1 X121.816 Y121.186 E8.30852
G1 X120.967 Y121.243 E8.35097
G1 X120.487 Y121.25 E8.37492
G1 X99.664 Y121.25 E9.41379
G1 X98.83 Y121.238 E9.4554
G1 X98.179 Y121.191 E9.48796
G1 X97.631 Y121.112 E9.51558
G1 X97.354 Y121.054 E9.5297
G1 X96.938 Y120.946 E9.55115
G1 X96.501 Y120.806 E9.57404
G1 X96.174 Y120.676 E9.59159
G1 X95.536 Y120.383 E9.62662
G1 X94.953 Y120.041 E9.66034
G1 X94.391 Y119.634 E9.69496
G1 X94.024 Y119.329 E9.71877
G1 X93.689 Y119 E9.74219
G1 X93.347 Y118.629 E9.76737
G1 X93.054 Y118.267 E9.7906
G1 X92.762 Y117.854 E9.81584
G1 X92.478 Y117.378 E9.84349
G1 X92.227 Y116.871 E9.87171
G1 X92.071 Y116.504 E9.89161
G1 X91.928 Y116.102 E9.9129
G1 X91.832 Y115.783 E9.92952
G1 X91.712 Y115.298 E9.95444
G1 X91.62 Y114.714 E9.98394
G1 X91.556 Y113.821 E10.0286
G1 X91.549 Y106.866 E10.37559
G1 X91.562 Y106.023 E10.41765
G1 X91.589 Y105.55 E10.44129
G1 X91.619 Y105.279 E10.45489
G1 X91.681 Y104.877 E10.47519
G1 X91.75 Y104.54 E10.49235
G1 X91.884 Y104.025 E10.5189
G1 X92.084 Y103.465 E10.54856
G1 X92.417 Y102.739 E10.58841
G1 X92.761 Y102.152 E10.62236
G1 X93.236 Y101.501 E10.66256
G1 X93.655 Y101.03 E10.69401
G0 F7500 X93.954 Y101.296
G1 F1500 X94.462 Y100.827 E10.72851
G1 X94.79 Y100.562 E10.74954
G1 X95.186 Y100.283 E10.77371
G1 X95.607 Y100.032 E10.79816
G1 X96.087 Y99.794 E10.82489
G1 X96.429 Y99.649 E10.84343
G1 X96.8 Y99.516 E10.86309
G1 X97.09 Y99.427 E10.87822
G1 X97.447 Y99.336 E10.8966
G1 X97.736 Y99.277 E10.91132
G1 X98.211 Y99.213 E10.93523
G1 X99.039 Y99.157 E10.97663
G1 X99.519 Y99.15 E11.00058
G1 X120.331 Y99.15 E12.0389
G1 X121.142 Y99.161 E12.07936
G1 X121.598 Y99.187 E12.10215
G1 X121.869 Y99.216 E12.11575
G1 X122.245 Y99.273 E12.13472
G1 X122.561 Y99.337 E12.15081
G1 X122.935 Y99.433 E12.17007
G1 X123.381 Y99.577 E12.19345
G1 X123.661 Y99.689 E12.2085
G1 X124.257 Y99.961 E12.24118
G1 X124.815 Y100.288 E12.27345
G1 X125.464 Y100.762 E12.31354
G1 X125.929 Y101.176 E12.34461
G1 X126.358 Y101.641 E12.37617
G1 X126.622 Y101.968 E12.39714
G1 X126.915 Y102.384 E12.42252
G1 X127.159 Y102.791 E12.4462
G1 X127.387 Y103.245 E12.47154
G1 X127.566 Y103.655 E12.49386
G1 X127.697 Y104.056 E12.51491
G1 X127.873 Y104.693 E12.54788
G1 X127.981 Y105.316 E12.57942
G1 X128.045 Y106.207 E12.62399
G1 X128.051 Y113.128 E12.96928
G1 X128.039 Y113.954 E13.01049
G1 X128.007 Y114.501 E13.03783
G1 X127.931 Y115.019 E13.06395
G1 X127.756 Y115.771 E13.10247
G1 X127.551 Y116.372 E13.13415
G1 X127.239 Y117.057 E13.1717
G1 X126.919 Y117.607 E13.20345
G1 X126.471 Y118.226 E13.24157
G1 X126.052 Y118.699 E13.2731
G1 X125.544 Y119.169 E13.30762
G1 X125.217 Y119.434 E13.32862
G1 X124.819 Y119.715 E13.35293
G1 X124.392 Y119.969 E13.37772
G1 X123.911 Y120.207 E13.40449
G1 X123.569 Y120.352 E13.42302
G1 X123.197 Y120.485 E13.44273
G1 X122.91 Y120.573 E13.45771
G1 X122.553 Y120.664 E13.47609
G1 X122.264 Y120.723 E13.49081
G1 X121.789 Y120.787 E13.51472
G1 X120.961 Y120.843 E13.55612
G1 X120.481 Y120.85 E13.58007
G1 X99.669 Y120.85 E14.61839
G1 X98.858 Y120.839 E14.65885
G1 X98.236 Y120.795 E14.68996
G1 X97.713 Y120.72 E14.71632
G1 X97.436 Y120.662 E14.73044
G1 X97.06 Y120.565 E14.74981
G1 X96.623 Y120.425 E14.77271
G1 X96.34 Y120.312 E14.78791
G1 X95.737 Y120.037 E14.82097
G1 X95.188 Y119.717 E14.85268
G1 X94.626 Y119.31 E14.88729
G1 X94.304 Y119.043 E14.90816
G1 X93.983 Y118.729 E14.93057
G1 X93.641 Y118.358 E14.95574
G1 X93.381 Y118.036 E14.97639
G1 X93.089 Y117.623 E15.00162
G1 X92.836 Y117.2 E15.02621
G1 X92.595 Y116.715 E15.05323
G1 X92.448 Y116.369 E15.07199
G1 X92.311 Y115.986 E15.09228
G1 X92.22 Y115.686 E15.10792
G1 X92.107 Y115.235 E15.13112
G1 X92.019 Y114.685 E15.15891
G1 X91.955 Y113.792 E15.20357
G1 X91.949 Y106.872 E15.54881
G1 X91.961 Y106.046 E15.59003
G1 X91.987 Y105.594 E15.61261
G1 X92.017 Y105.323 E15.62622
G1 X92.073 Y104.956 E15.64474
G1 X92.137 Y104.64 E15.66082
G1 X92.261 Y104.159 E15.68561
G1 X92.448 Y103.631 E15.71355
G1 X92.763 Y102.94 E15.75144
G1 X93.085 Y102.387 E15.78336
G1 X93.535 Y101.767 E15.82158
G1 X93.954 Y101.296 E15.85303
G1 F3600 E15.05303
;MESH:Dremel 2.stl
G0 F7500 X95.577 Y103.259
G0 X96.372 Y103.996
G0 X96.46 Y106.773
G0 X96.671 Y107.519
G0 X97.074 Y108.168
G0 X97.636 Y108.678
G0 X99.669 Y109.584
G0 X99.564 Y108.913
;TYPE:WALL-OUTER
G1 F3600 E15.85303
G1 F1500 X99.076 Y108.922 E15.87739
G1 X98.72 Y108.879 E15.89528
G1 X98.37 Y108.786 E15.91334
G1 X98.08 Y108.664 E15.92904
G1 X97.758 Y108.471 E15.94777
G1 X97.494 Y108.26 E15.96463
G1 X97.266 Y108.024 E15.981
G1 X97.041 Y107.711 E16.00023
G1 X96.88 Y107.4 E16.0177
G1 X96.772 Y107.096 E16.0338
G1 X96.699 Y106.764 E16.05076
G1 X96.676 Y106.404 E16.06876
G1 X96.7 Y106.051 E16.08641
G1 X96.773 Y105.701 E16.10424
G1 X96.878 Y105.408 E16.11977
G1 X97.055 Y105.066 E16.13898
G1 X97.249 Y104.798 E16.15549
G1 X97.508 Y104.528 E16.17416
G1 X97.753 Y104.331 E16.18984
G1 X98.069 Y104.143 E16.20819
G1 X98.403 Y104.005 E16.22622
G1 X98.812 Y103.905 E16.24722
G1 X99.139 Y103.876 E16.2636
G1 X99.521 Y103.896 E16.28268
G1 X99.87 Y103.965 E16.30043
G1 X100.204 Y104.083 E16.3181
G1 X100.463 Y104.212 E16.33254
G1 X100.77 Y104.422 E16.3511
G1 X101.03 Y104.659 E16.36865
G1 X101.241 Y104.911 E16.38505
G1 X101.439 Y105.236 E16.40403
G1 X101.582 Y105.561 E16.42175
G1 X101.673 Y105.891 E16.43883
G1 X101.721 Y106.245 E16.45665
G1 X101.719 Y106.579 E16.47331
G1 X101.666 Y106.933 E16.49117
G1 X101.571 Y107.266 E16.50845
G1 X101.438 Y107.563 E16.52468
G1 X101.24 Y107.888 E16.54367
G1 X101.018 Y108.152 E16.56088
G1 X100.791 Y108.36 E16.57624
G1 X100.482 Y108.575 E16.59502
G1 X100.158 Y108.736 E16.61307
G1 X99.564 Y108.913 E16.64399
G0 F7500 X99.364 Y108.916
G1 F3600 E15.84399
G0 F7500 X99.376 Y109.616
G0 X97.224 Y109.274
G0 X96.338 Y108.429
G0 X96.339 Y111.571
G0 X98.933 Y110.04
G0 X100.81 Y110.872
G0 X101.491 Y111.414
G0 X102 Y112.123
G0 X102.3 Y112.958
G0 X102.358 Y113.811
G0 X102.181 Y114.662
G0 X101.77 Y115.448
G0 X101.18 Y116.069
G0 X100.57 Y116.432
G0 X99.691 Y116.781
G0 X99.586 Y116.111
G1 F3600 E16.64399
G1 F1500 X99.07 Y116.121 E16.66974
G1 X98.703 Y116.075 E16.68819
G1 X98.374 Y115.987 E16.70518
G1 X98.071 Y115.86 E16.72157
G1 X97.758 Y115.671 E16.73982
G1 X97.494 Y115.46 E16.75668
G1 X97.259 Y115.217 E16.77354
G1 X97.041 Y114.911 E16.79229
G1 X96.88 Y114.6 E16.80976
G1 X96.767 Y114.285 E16.82645
G1 X96.7 Y113.968 E16.84262
G1 X96.676 Y113.604 E16.86082
G1 X96.7 Y113.251 E16.87847
G1 X96.773 Y112.901 E16.89631
G1 X96.878 Y112.608 E16.91183
G1 X97.056 Y112.266 E16.93107
G1 X97.247 Y112.001 E16.94737
G1 X97.508 Y111.728 E16.96621
G1 X97.768 Y111.521 E16.98279
G1 X98.055 Y111.351 E16.99943
G1 X98.403 Y111.205 E17.01826
G1 X98.83 Y111.103 E17.04016
G1 X99.153 Y111.076 E17.05633
G1 X99.506 Y111.093 E17.07396
G1 X99.842 Y111.158 E17.09104
G1 X100.204 Y111.283 E17.11015
G1 X100.466 Y111.414 E17.12476
G1 X100.771 Y111.622 E17.14318
G1 X101.016 Y111.844 E17.15967
G1 X101.241 Y112.111 E17.17709
G1 X101.439 Y112.436 E17.19608
G1 X101.582 Y112.761 E17.21379
G1 X101.673 Y113.091 E17.23087
G1 X101.721 Y113.445 E17.24869
G1 X101.719 Y113.779 E17.26536
G1 X101.666 Y114.133 E17.28322
G1 X101.571 Y114.466 E17.30049
G1 X101.438 Y114.763 E17.31673
G1 X101.24 Y115.088 E17.33571
G1 X101.032 Y115.337 E17.3519
G1 X100.77 Y115.577 E17.36963
G1 X100.506 Y115.761 E17.38568
G1 X100.158 Y115.936 E17.40511
G1 X99.586 Y116.111 E17.43496
G0 F7500 X99.386 Y116.114
G1 F3600 E16.63496
G0 F7500 X99.398 Y116.816
G0 X106.891 Y116.781
G0 X106.786 Y116.111
G1 F3600 E17.43496
G1 F1500 X106.257 Y116.12 E17.46135
G1 X105.903 Y116.075 E17.47916
G1 X105.574 Y115.987 E17.49615
G1 X105.28 Y115.864 E17.51205
G1 X104.958 Y115.671 E17.53078
G1 X104.694 Y115.46 E17.54764
G1 X104.447 Y115.201 E17.56549
G1 X104.246 Y114.92 E17.58273
G1 X104.08 Y114.6 E17.60071
G1 X103.973 Y114.303 E17.61646
G1 X103.901 Y113.971 E17.63341
G1 X103.876 Y113.604 E17.65176
G1 F1503.8 X103.901 Y113.251 E17.66938
G1 X103.973 Y112.901 E17.68716
G1 F1500 X104.078 Y112.608 E17.70269
G1 X104.255 Y112.266 E17.7219
G1 X104.447 Y112.001 E17.73823
G1 X104.698 Y111.736 E17.75644
G1 X104.97 Y111.52 E17.77376
G1 X105.255 Y111.351 E17.79029
G1 X105.603 Y111.205 E17.80912
G1 X106.03 Y111.103 E17.83102
G1 X106.353 Y111.076 E17.8472
G1 X106.706 Y111.093 E17.86483
G1 X107.069 Y111.165 E17.88329
G1 X107.377 Y111.272 E17.89956
G1 X107.68 Y111.423 E17.91645
G1 X108.124 Y111.732 E17.94343
G1 X108.441 Y112.111 E17.96808
G1 X108.639 Y112.436 E17.98707
G1 X108.782 Y112.761 E18.00479
G1 X108.873 Y113.091 E18.02186
G1 X108.921 Y113.445 E18.03969
G1 X108.919 Y113.779 E18.05635
G1 X108.866 Y114.133 E18.07421
G1 X108.771 Y114.466 E18.09148
G1 X108.638 Y114.763 E18.10772
G1 X108.44 Y115.088 E18.12671
G1 X108.113 Y115.479 E18.15214
G1 X107.68 Y115.776 E18.17833
G1 X107.364 Y115.934 E18.19596
G1 X106.786 Y116.111 E18.22612
G0 F7500 X106.586 Y116.114
G1 F3600 E17.42612
G0 F7500 X106.598 Y116.816
G0 X107.626 Y116.518
G0 X108.379 Y116.07
G0 X108.97 Y115.448
G0 X109.381 Y114.662
G0 X109.558 Y113.811
G0 X109.5 Y112.958
G0 X109.2 Y112.123
G0 X108.691 Y111.414
G0 X108.021 Y110.88
G0 X106.133 Y110.04
G0 X103.427 Y111.771
G0 X102.802 Y113.302
G0 X100.97 Y110.592
G0 X98.083 Y110.294
G0 X96.339 Y111.571
G0 X96.338 Y108.429
G0 X98.933 Y109.962
G0 X101.685 Y108.845
G0 X102.803 Y106.653
G0 X104.487 Y109.311
G0 X105.161 Y109.494
G0 X106.884 Y109.582
G0 X106.779 Y108.912
G1 F3600 E18.22612
G1 F1500 X106.276 Y108.922 E18.25122
G1 X105.92 Y108.879 E18.26911
G1 X105.57 Y108.786 E18.28717
G1 X105.28 Y108.664 E18.30287
G1 X104.958 Y108.471 E18.3216
G1 X104.702 Y108.268 E18.3379
G1 X104.465 Y108.023 E18.35491
G1 X104.241 Y107.711 E18.37407
G1 X104.08 Y107.4 E18.39154
G1 X103.972 Y107.095 E18.40768
G1 F1503.8 X103.902 Y106.772 E18.42413
G1 X103.876 Y106.404 E18.44249
G1 X103.901 Y106.051 E18.4601
G1 X103.973 Y105.701 E18.47788
G1 F1500 X104.078 Y105.408 E18.49341
G1 X104.255 Y105.066 E18.51262
G1 X104.465 Y104.78 E18.53032
G1 X104.708 Y104.528 E18.54779
G1 X104.968 Y104.321 E18.56437
G1 X105.279 Y104.139 E18.58235
G1 X105.603 Y104.005 E18.59984
G1 X106.013 Y103.905 E18.62089
G1 X106.339 Y103.876 E18.63722
G1 X106.721 Y103.896 E18.65631
G1 X107.069 Y103.965 E18.67401
G1 X107.376 Y104.072 E18.69023
G1 X107.679 Y104.222 E18.70709
G1 X108.113 Y104.519 E18.73333
G1 X108.441 Y104.911 E18.75883
G1 X108.639 Y105.236 E18.77782
G1 X108.782 Y105.561 E18.79553
G1 X108.873 Y105.891 E18.81261
G1 X108.921 Y106.245 E18.83043
G1 X108.919 Y106.579 E18.8471
G1 X108.866 Y106.933 E18.86496
G1 X108.771 Y107.266 E18.88223
G1 X108.638 Y107.563 E18.89847
G1 X108.44 Y107.888 E18.91745
G1 X108.124 Y108.266 E18.94203
G1 X107.702 Y108.562 E18.96775
G1 X107.364 Y108.734 E18.98667
G1 X106.779 Y108.912 E19.01718
G0 F7500 X106.579 Y108.915
G1 F3600 E18.21718
G0 F7500 X106.591 Y109.616
G0 X108.786 Y108.971
G0 X110.003 Y106.653
G0 X111.687 Y109.311
G0 X114.069 Y109.584
G0 X113.964 Y108.913
G1 F3600 E19.01718
G1 F1500 X113.476 Y108.922 E19.04153
G1 X113.129 Y108.88 E19.05897
G1 X112.77 Y108.786 E19.07748
G1 X112.48 Y108.664 E19.09318
G1 X112.158 Y108.471 E19.11191
G1 X111.902 Y108.268 E19.12821
G1 X111.666 Y108.024 E19.14514
G1 X111.441 Y107.711 E19.16437
G1 X111.28 Y107.4 E19.18185
G1 X111.172 Y107.095 E19.19799
G1 F1503.8 X111.102 Y106.772 E19.21443
