;FLAVOR:Marlin
;TIME:2392
;Filament used: 2.02555m
;Layer height: 0.22
;MINX:84.4
;MINY:99
;MINZ:0.3
;MAXX:135.6
;MAXY:121
;MAXZ:20.1
;Generated with Cura_SteamEngine 5.4.0
M82 ;absolute extrusion mode
SAVE_GCODE_STATE

START_PRINT EXTRUDER_TEMP=230.0 BED_TEMP=60.0

RESTORE_GCODE_STATE
G92 E0
G92 E0
G1 F3600 E-0.8
;LAYER_COUNT:91
;LAYER:0
M107
M204 S1000
G0 F7500 X85.535 Y99.995 Z0.3
M204 S500
;TYPE:SKIRT
G1 F3600 E0
G1 F1500 X85.978 Y99.638 E0.02838
G1 X86.471 Y99.355 E0.05674
G1 X86.942 Y99.171 E0.08197
G1 X87.549 Y99.039 E0.11296
G1 X87.908 Y99.01 E0.13093
G1 X88.24 Y99.001 E0.1475
G1 X131.345 Y99 E2.29802
G1 X132.043 Y99.01 E2.33285
G1 X132.64 Y99.07 E2.36278
G1 X133.19 Y99.216 E2.39117
G1 X133.654 Y99.418 E2.41642
G1 X134.135 Y99.72 E2.44475
G1 X134.608 Y100.139 E2.47628
G1 X134.963 Y100.581 E2.50456
G1 X135.246 Y101.075 E2.53297
G1 X135.447 Y101.606 E2.56129
G1 X135.562 Y102.153 E2.58918
G1 X135.59 Y102.509 E2.60699
G1 X135.599 Y102.84 E2.62351
G1 X135.6 Y106.724 E2.81729
G1 X135.59 Y107.445 E2.85326
G1 X135.53 Y108.043 E2.88325
G1 X135.384 Y108.591 E2.91154
G1 X135.153 Y109.111 E2.93993
G1 X134.843 Y109.588 E2.96831
G1 X134.465 Y110.009 E2.99654
G1 X134.093 Y110.317 E3.02063
G1 X133.582 Y110.684 E3.05202
G1 X131.343 Y112.342 E3.19102
G1 X129.229 Y114.005 E3.32521
G1 X127.093 Y115.782 E3.46383
G1 X125.083 Y117.554 E3.59751
G1 X123.054 Y119.446 E3.73592
G1 X122.49 Y119.987 E3.77491
G1 X122.023 Y120.365 E3.80488
G1 X121.53 Y120.646 E3.8332
G1 X120.998 Y120.847 E3.86157
G1 X120.453 Y120.961 E3.88935
G1 X120.107 Y120.989 E3.90667
G1 X119.768 Y120.999 E3.92359
G1 X105.726 Y121 E4.62414
G1 X104.421 Y120.972 E4.68927
G1 X104.016 Y120.938 E4.70954
G1 X103.39 Y120.849 E4.74109
G1 X102.918 Y120.75 E4.76515
G1 X102.272 Y120.567 E4.79864
G1 X101.886 Y120.432 E4.81905
G1 X101.333 Y120.201 E4.84895
G1 X100.96 Y120.016 E4.86972
G1 X100.372 Y119.674 E4.90365
G1 X99.857 Y119.328 E4.93461
G1 X98.696 Y118.458 E5.00699
G1 X96.513 Y116.868 E5.14173
G1 X94.217 Y115.295 E5.28058
G1 X91.968 Y113.845 E5.41408
G1 X89.622 Y112.426 E5.55087
G1 X86.267 Y110.542 E5.74283
G1 X85.793 Y110.228 E5.7712
G1 X85.375 Y109.844 E5.79952
G1 X85.021 Y109.398 E5.82793
G1 X84.743 Y108.902 E5.85629
G1 X84.546 Y108.368 E5.88469
G1 X84.443 Y107.873 E5.90991
G1 X84.412 Y107.503 E5.92844
G1 X84.4 Y107.081 E5.9495
G1 X84.4 Y103.226 E6.14183
G1 X84.409 Y102.561 E6.17501
G1 X84.469 Y101.962 E6.20504
G1 X84.615 Y101.414 E6.23334
G1 X84.845 Y100.895 E6.26166
G1 X85.155 Y100.417 E6.29008
G1 X85.535 Y99.995 E6.31841
M204 S1000
G0 F7500 X85.789 Y100.304
M204 S500
G1 F1500 X86.18 Y99.983 E6.34365
G1 X86.617 Y99.728 E6.36889
G1 X87.088 Y99.544 E6.39412
G1 X87.582 Y99.438 E6.41933
G1 X87.919 Y99.41 E6.4362
G1 X88.24 Y99.401 E6.45222
G1 X131.339 Y99.4 E8.60244
G1 X132.037 Y99.41 E8.63726
G1 X132.54 Y99.457 E8.66247
G1 X133.03 Y99.583 E8.68771
G1 X133.494 Y99.785 E8.71296
G1 X133.92 Y100.057 E8.73817
G1 X134.298 Y100.392 E8.76337
G1 X134.618 Y100.783 E8.78858
G1 X134.873 Y101.22 E8.81382
G1 X135.056 Y101.691 E8.83903
G1 X135.163 Y102.185 E8.86425
G1 X135.19 Y102.52 E8.88102
G1 X135.199 Y102.84 E8.89699
G1 X135.2 Y106.718 E9.09046
G1 X135.19 Y107.439 E9.12644
G1 X135.143 Y107.943 E9.15169
G1 X135.017 Y108.432 E9.17688
G1 X134.816 Y108.896 E9.20211
G1 X134.544 Y109.323 E9.22737
G1 X134.209 Y109.701 E9.25257
G1 X133.859 Y109.992 E9.27528
G1 X133.348 Y110.36 E9.30669
G1 X131.105 Y112.021 E9.44594
G1 X128.973 Y113.697 E9.58124
G1 X126.837 Y115.474 E9.71986
G1 X124.818 Y117.254 E9.85414
G1 X122.781 Y119.153 E9.99308
G1 X122.213 Y119.698 E10.03235
G1 X121.822 Y120.019 E10.05759
G1 X121.385 Y120.273 E10.08281
G1 X120.914 Y120.456 E10.10802
G1 X120.42 Y120.562 E10.13323
G1 X120.095 Y120.589 E10.1495
G1 X119.768 Y120.599 E10.16582
G1 X105.734 Y120.6 E10.86598
G1 X104.453 Y120.573 E10.9299
G1 X104.072 Y120.542 E10.94897
G1 X103.446 Y120.453 E10.98052
G1 X103.027 Y120.365 E11.00188
G1 X102.403 Y120.189 E11.03422
G1 X102.04 Y120.063 E11.05339
G1 X101.51 Y119.842 E11.08204
G1 X101.161 Y119.67 E11.10145
G1 X100.573 Y119.328 E11.13539
G1 X100.097 Y119.008 E11.164
G1 X98.936 Y118.138 E11.23638
G1 X96.739 Y116.538 E11.37198
G1 X94.443 Y114.965 E11.51083
G1 X92.185 Y113.509 E11.64487
G1 X89.818 Y112.077 E11.78289
G1 X86.485 Y110.206 E11.97359
G1 X86.061 Y109.931 E11.9988
G1 X85.686 Y109.592 E12.02402
G1 X85.368 Y109.199 E12.04924
G1 X85.117 Y108.76 E12.07447
G1 X84.938 Y108.287 E12.0997
G1 X84.835 Y107.792 E12.12493
G1 X84.812 Y107.492 E12.13994
G1 X84.8 Y107.07 E12.161
G1 X84.8 Y103.231 E12.35253
G1 X84.809 Y102.566 E12.38571
G1 X84.856 Y102.062 E12.41096
G1 X84.982 Y101.573 E12.43615
G1 X85.183 Y101.109 E12.46138
G1 X85.454 Y100.682 E12.48661
G1 X85.789 Y100.304 E12.51181
M204 S1000
G1 F3600 E11.71181
;MESH:3_Y_Rod_Holder.stl
G0 F7500 X88.414 Y101.935
G0 X88.414 Y103.014
G0 X130.828 Y103.772
G0 X130.828 Y106.228
G0 X119.55 Y106.668
G0 X119.845 Y107.273
M204 S500
;TYPE:WALL-OUTER
G1 F3600 E12.51181
G1 F1500 X119.965 Y107.202 E12.51877
G1 X131.8 Y107.2 E13.10922
G1 X131.8 Y102.8 E13.32874
G1 X88.2 Y102.8 E15.50395
G1 X88.2 Y107.2 E15.72346
G1 X100.054 Y107.2 E16.31486
G1 X100.165 Y107.285 E16.32184
G1 X100.2 Y107.383 E16.32703
G1 X100.201 Y112.535 E16.58406
G1 X100.211 Y112.8 E16.59729
G1 X100.235 Y113.075 E16.61107
G1 X100.282 Y113.367 E16.62582
G1 X100.351 Y113.681 E16.64186
G1 X100.426 Y113.939 E16.65527
G1 X100.525 Y114.217 E16.66999
G1 X100.653 Y114.51 E16.68594
G1 X100.774 Y114.751 E16.69939
G1 X100.933 Y115.021 E16.71503
G1 X101.094 Y115.256 E16.72924
G1 X101.283 Y115.498 E16.74456
G1 X101.466 Y115.707 E16.75842
G1 X101.688 Y115.929 E16.77408
G1 X101.898 Y116.116 E16.78811
G1 X102.129 Y116.296 E16.80272
G1 X102.376 Y116.465 E16.81765
G1 X102.638 Y116.619 E16.83281
G1 X102.883 Y116.744 E16.84653
G1 X103.174 Y116.872 E16.8624
G1 X103.436 Y116.965 E16.87627
G1 X103.729 Y117.053 E16.89153
G1 X104.009 Y117.113 E16.90581
G1 X104.323 Y117.165 E16.92169
G1 X104.591 Y117.19 E16.93512
G1 X104.93 Y117.2 E16.95204
G1 X119.8 Y117.2 E17.69391
G1 X119.8 Y112.907 E17.90809
G1 X119.731 Y112.607 E17.92345
G1 X119.584 Y112.302 E17.94034
G1 X119.343 Y112.062 E17.95731
G1 X119.123 Y111.923 E17.97029
G1 X118.779 Y111.8 E17.98852
G1 X112.174 Y111.8 E18.31804
G1 X112.036 Y112.152 E18.3369
G1 X111.898 Y112.442 E18.35293
G1 X111.751 Y112.7 E18.36774
G1 X111.579 Y112.959 E18.38325
G1 X111.391 Y113.203 E18.39862
G1 X111.184 Y113.437 E18.41421
G1 X110.968 Y113.649 E18.42931
G1 X110.731 Y113.851 E18.44484
G1 X110.467 Y114.045 E18.46119
G1 X110.225 Y114.197 E18.47544
G1 X109.934 Y114.353 E18.49192
G1 X109.675 Y114.47 E18.5061
G1 X109.359 Y114.586 E18.52289
G1 X109.073 Y114.668 E18.53773
G1 X108.786 Y114.73 E18.55238
G1 X108.454 Y114.778 E18.56912
G1 X108.166 Y114.797 E18.58352
G1 X107.852 Y114.798 E18.59918
G1 X107.535 Y114.777 E18.61503
G1 X107.239 Y114.735 E18.62995
G1 X106.917 Y114.666 E18.64638
G1 X106.632 Y114.583 E18.66119
G1 X106.37 Y114.485 E18.67514
G1 X106.056 Y114.348 E18.69223
G1 X105.777 Y114.197 E18.70806
G1 X105.528 Y114.042 E18.72269
G1 X105.27 Y113.852 E18.73868
G1 X105.04 Y113.659 E18.75366
G1 X104.825 Y113.449 E18.76865
G1 X104.615 Y113.212 E18.78445
G1 X104.42 Y112.959 E18.80039
G1 X104.246 Y112.697 E18.81608
G1 X104.1 Y112.441 E18.83078
G1 X103.975 Y112.178 E18.84531
G1 X103.851 Y111.866 E18.86206
G1 X103.756 Y111.567 E18.87771
G1 X103.689 Y111.285 E18.89217
G1 X103.635 Y110.971 E18.90807
G1 X103.608 Y110.682 E18.92255
G1 X103.6 Y110.367 E18.93827
G1 X103.612 Y110.062 E18.9535
G1 X103.65 Y109.74 E18.96967
G1 X103.705 Y109.449 E18.98445
G1 X103.784 Y109.139 E19.00041
G1 X103.882 Y108.852 E19.01554
G1 X104.003 Y108.562 E19.03122
G1 X104.142 Y108.284 E19.04672
G1 X104.295 Y108.026 E19.06169
G1 X104.478 Y107.762 E19.07771
G1 X104.666 Y107.527 E19.09273
G1 X104.872 Y107.302 E19.10795
G1 X105.105 Y107.086 E19.1238
G1 X105.316 Y106.91 E19.13751
G1 X105.594 Y106.716 E19.15442
G1 X105.832 Y106.571 E19.16832
G1 X106.133 Y106.415 E19.18524
G1 X106.407 Y106.297 E19.20012
G1 X106.703 Y106.194 E19.21576
G1 X106.998 Y106.115 E19.23099
G1 X107.4 Y106.03 E19.25149
G1 X107.927 Y106.001 E19.27782
G1 X108.231 Y106.005 E19.29299
G1 X108.537 Y106.032 E19.30832
G1 X108.843 Y106.082 E19.32379
G1 X109.139 Y106.151 E19.33895
G1 X109.449 Y106.246 E19.35513
G1 X109.716 Y106.348 E19.36939
G1 X110.003 Y106.482 E19.38519
G1 X110.263 Y106.626 E19.40002
G1 X110.53 Y106.799 E19.41589
G1 X110.776 Y106.986 E19.4313
G1 X111.01 Y107.19 E19.44679
G1 X111.242 Y107.421 E19.46313
G1 X111.428 Y107.637 E19.47735
G1 X111.618 Y107.893 E19.49325
G1 X111.778 Y108.141 E19.50798
G1 X111.933 Y108.426 E19.52416
G1 X112.056 Y108.694 E19.53887
G1 X112.166 Y108.984 E19.55435
G1 X112.3 Y109.429 E19.57753
G1 X112.372 Y109.899 E19.60126
G1 X112.397 Y110.2 E19.61632
G1 X118.68 Y110.2 E19.92978
G1 X119.004 Y110.127 E19.94635
G1 X119.297 Y109.985 E19.9626
G1 X119.538 Y109.743 E19.97964
G1 X119.677 Y109.523 E19.99262
G1 X119.8 Y109.179 E20.01085
G1 X119.805 Y107.353 E20.10195
G1 X119.845 Y107.273 E20.10641
M204 S1000
G0 F7500 X119.965 Y107.202
G0 X120.026 Y107.202
G1 F3600 E19.30641
G0 F7500 X119.724 Y106.583
G0 X119.167 Y106.929
G0 X118.795 Y109.519
G0 X112.953 Y109.461
G0 X112.646 Y108.448
G0 X112.136 Y107.519
G0 X111.44 Y106.717
G0 X110.602 Y106.083
G0 X109.634 Y105.633
G0 X108.603 Y105.396
G0 X107.546 Y105.381
G0 X106.508 Y105.585
G0 X105.533 Y106.006
G0 X104.671 Y106.616
G0 X103.951 Y107.399
G0 X103.415 Y108.309
G0 X103.078 Y109.316
G0 X102.96 Y110.368
G0 X103.064 Y111.421
G0 X103.387 Y112.428
G0 X103.912 Y113.347
G0 X104.619 Y114.137
G0 X105.475 Y114.761
G0 X106.441 Y115.193
G0 X107.479 Y115.413
G0 X108.537 Y115.412
G0 X109.574 Y115.188
G0 X110.546 Y114.75
G0 X111.399 Y114.12
G0 X112.102 Y113.328
G0 X112.604 Y112.433
G0 X119.125 Y112.82
G0 X119.13 Y116.53
G0 X119.4 Y116.8
M204 S500
;TYPE:WALL-INNER
G1 F3600 E20.10641
G1 F1500 X119.4 Y112.952 E20.29839
G1 X119.253 Y112.537 E20.32035
G1 X118.947 Y112.285 E20.34013
G1 X118.71 Y112.2 E20.35269
G1 X112.455 Y112.2 E20.66475
G1 X112.246 Y112.64 E20.68905
G1 X112.085 Y112.921 E20.70521
G1 X111.912 Y113.182 E20.72083
G1 X111.691 Y113.468 E20.73887
G1 X111.465 Y113.722 E20.75583
G1 X111.228 Y113.953 E20.77234
G1 X110.968 Y114.173 E20.78933
G1 X110.681 Y114.383 E20.80707
G1 X110.415 Y114.549 E20.82272
G1 X110.099 Y114.718 E20.8406
G1 X109.799 Y114.851 E20.85697
G1 X109.47 Y114.97 E20.87442
G1 X109.157 Y115.059 E20.89066
G1 X108.855 Y115.124 E20.90607
G1 X108.482 Y115.177 E20.92486
G1 X108.207 Y115.196 E20.93862
G1 X107.826 Y115.197 E20.95762
G1 X107.479 Y115.173 E20.97498
G1 X107.142 Y115.124 E20.99197
G1 X106.847 Y115.061 E21.00702
G1 X106.492 Y114.958 E21.02546
G1 X106.21 Y114.852 E21.04049
G1 X105.866 Y114.7 E21.05925
G1 X105.565 Y114.537 E21.07633
G1 X105.291 Y114.364 E21.0925
G1 X105.035 Y114.176 E21.10834
G1 X104.795 Y113.976 E21.12393
G1 X104.543 Y113.734 E21.14136
G1 X104.307 Y113.468 E21.1591
G1 X104.111 Y113.214 E21.17511
G1 X103.912 Y112.918 E21.1929
G1 X103.738 Y112.612 E21.21046
G1 X103.612 Y112.346 E21.22515
G1 X103.47 Y111.988 E21.24436
G1 X103.367 Y111.659 E21.26156
G1 X103.295 Y111.354 E21.2772
G1 X103.243 Y111.056 E21.29229
G1 X103.21 Y110.719 E21.30918
G1 X103.2 Y110.352 E21.3275
G1 X103.214 Y110.016 E21.34428
G1 X103.25 Y109.707 E21.3598
G1 X103.317 Y109.351 E21.37787
G1 X103.405 Y109.011 E21.39539
G1 X103.512 Y108.698 E21.41189
G1 X103.627 Y108.421 E21.42686
G1 X103.797 Y108.081 E21.44582
G1 X103.966 Y107.798 E21.46227
G1 X104.166 Y107.512 E21.47968
G1 X104.364 Y107.265 E21.49547
G1 X104.6 Y107.009 E21.51284
G1 X104.849 Y106.779 E21.52975
G1 X105.1 Y106.572 E21.54598
G1 X105.353 Y106.395 E21.56139
G1 X105.647 Y106.216 E21.57856
G1 X105.973 Y106.048 E21.59686
G1 X106.233 Y105.935 E21.611
G1 X106.559 Y105.82 E21.62825
G1 X106.916 Y105.723 E21.6467
G1 X107.331 Y105.636 E21.66786
G1 X107.891 Y105.601 E21.69585
G1 X108.265 Y105.606 E21.71451
G1 X108.557 Y105.631 E21.72913
G1 X108.934 Y105.692 E21.74819
G1 X109.255 Y105.768 E21.76464
G1 X109.592 Y105.872 E21.78224
G1 X109.885 Y105.985 E21.79791
G1 X110.197 Y106.132 E21.81511
G1 X110.48 Y106.29 E21.83128
G1 X110.772 Y106.481 E21.84869
G1 X111.018 Y106.668 E21.86411
G1 X111.292 Y106.906 E21.88222
G1 X111.545 Y107.159 E21.90007
G1 X111.722 Y107.364 E21.91358
G1 X111.954 Y107.676 E21.93298
G1 X112.137 Y107.963 E21.94996
G1 X112.296 Y108.258 E21.96668
G1 X112.43 Y108.552 E21.9828
G1 X112.549 Y108.869 E21.99969
G1 X112.702 Y109.398 E22.02716
G1 X112.762 Y109.8 E22.04744
G1 X118.636 Y109.8 E22.3405
G1 X118.872 Y109.747 E22.35256
G1 X119.061 Y109.655 E22.36305
G1 X119.315 Y109.347 E22.38297
G1 X119.4 Y109.11 E22.39553
G1 X119.4 Y107.307 E22.48548
G1 X119.535 Y107.02 E22.5013
G1 X119.655 Y106.909 E22.50946
G1 X119.927 Y106.8 E22.52408
G1 X131.4 Y106.8 E23.09647
G1 X131.4 Y103.2 E23.27607
G1 X88.6 Y103.2 E25.41137
G1 X88.6 Y106.8 E25.59098
G1 X100 Y106.8 E26.15973
G1 X100.204 Y106.835 E26.17005
G1 X100.374 Y106.929 E26.17975
G1 X100.493 Y107.057 E26.18846
G1 X100.598 Y107.35 E26.20399
G1 X100.601 Y112.521 E26.46198
G1 X100.61 Y112.776 E26.47471
G1 X100.633 Y113.026 E26.48723
G1 X100.675 Y113.292 E26.50067
G1 X100.764 Y113.697 E26.52135
G1 X100.897 Y114.07 E26.54111
G1 X101.066 Y114.457 E26.56218
G1 X101.271 Y114.806 E26.58237
G1 X101.417 Y115.02 E26.5953
G1 X101.591 Y115.243 E26.60941
G1 X101.758 Y115.433 E26.62203
G1 X101.963 Y115.638 E26.63649
G1 X102.154 Y115.808 E26.64925
G1 X102.365 Y115.973 E26.66261
G1 X102.591 Y116.127 E26.67626
G1 X102.83 Y116.268 E26.6901
G1 X103.054 Y116.382 E26.70264
G1 X103.322 Y116.5 E26.71725
G1 X103.56 Y116.585 E26.72986
G1 X103.829 Y116.665 E26.74386
G1 X104.084 Y116.72 E26.75687
G1 X104.481 Y116.786 E26.77695
G1 X104.93 Y116.8 E26.79936
G1 X119.4 Y116.8 E27.52127
M204 S1000
G0 F7500 X119 Y116.4
M204 S500
G1 F1500 X119 Y112.998 E27.691
G1 X118.922 Y112.772 E27.70293
G1 X118.771 Y112.647 E27.71271
G1 X118.642 Y112.6 E27.71956
G1 X112.709 Y112.6 E28.01556
G1 X112.594 Y112.838 E28.02874
G1 X112.419 Y113.141 E28.0462
G1 X112.214 Y113.447 E28.06458
G1 X112.035 Y113.68 E28.07923
G1 X111.746 Y114.007 E28.10101
G1 X111.541 Y114.209 E28.11537
G1 X111.205 Y114.495 E28.13738
G1 X110.895 Y114.721 E28.15652
G1 X110.604 Y114.901 E28.17359
G1 X110.264 Y115.082 E28.19281
G1 X109.937 Y115.226 E28.21063
G1 X109.648 Y115.333 E28.22601
G1 X109.308 Y115.434 E28.2437
G1 X108.924 Y115.518 E28.26331
G1 X108.509 Y115.576 E28.28422
G1 X108.235 Y115.595 E28.29792
G1 X107.799 Y115.596 E28.31967
G1 X107.423 Y115.569 E28.33848
G1 X107.059 Y115.515 E28.35684
G1 X106.696 Y115.435 E28.37538
G1 X106.352 Y115.333 E28.39328
G1 X106.05 Y115.219 E28.40939
G1 X105.677 Y115.053 E28.42976
G1 X105.354 Y114.877 E28.44811
G1 X105.072 Y114.7 E28.46472
G1 X104.792 Y114.494 E28.48206
G1 X104.538 Y114.283 E28.49854
G1 X104.255 Y114.012 E28.51809
G1 X103.995 Y113.719 E28.53763
G1 X103.794 Y113.458 E28.55406
G1 X103.574 Y113.132 E28.57369
G1 X103.41 Y112.848 E28.59005
G1 X103.249 Y112.515 E28.6085
G1 X103.112 Y112.174 E28.62683
G1 X102.977 Y111.751 E28.64899
G1 X102.901 Y111.423 E28.66578
G1 X102.839 Y111.046 E28.68485
G1 X102.808 Y110.691 E28.70262
G1 X102.8 Y110.337 E28.72029
G1 X102.817 Y109.97 E28.73862
G1 X102.853 Y109.661 E28.75414
G1 X102.915 Y109.314 E28.77173
G1 X103.026 Y108.883 E28.79393
G1 X103.119 Y108.608 E28.80841
G1 X103.287 Y108.204 E28.83024
G1 X103.42 Y107.938 E28.84508
G1 X103.636 Y107.571 E28.86632
G1 X103.854 Y107.261 E28.88523
G1 X104.062 Y107.003 E28.90177
G1 X104.328 Y106.716 E28.92129
G1 X104.553 Y106.507 E28.93661
G1 X104.871 Y106.244 E28.9572
G1 X105.178 Y106.032 E28.97581
G1 X105.462 Y105.861 E28.99235
G1 X105.75 Y105.711 E29.00855
G1 X106.074 Y105.568 E29.02622
G1 X106.428 Y105.442 E29.04496
G1 X106.778 Y105.345 E29.06308
G1 X107.262 Y105.242 E29.08777
G1 X107.869 Y105.202 E29.11812
G1 X108.299 Y105.208 E29.13958
G1 X108.664 Y105.242 E29.15786
G1 X109.025 Y105.302 E29.17612
G1 X109.371 Y105.385 E29.19387
G1 X109.668 Y105.475 E29.20936
G1 X110.054 Y105.623 E29.22998
G1 X110.39 Y105.782 E29.24853
G1 X110.697 Y105.954 E29.26608
G1 X111.014 Y106.162 E29.285
G1 X111.26 Y106.349 E29.30042
G1 X111.574 Y106.622 E29.32117
