;FLAVOR:Marlin
;TIME:4729
;Filament used: 5.57247m
;Layer height: 0.2
;MINX:86.5
;MINY:86.5
;MINZ:0.2
;MAXX:133.5
;MAXY:133.5
;MAXZ:40
;Generated with Cura_SteamEngine 5.4.0
M82 ;absolute extrusion mode
SAVE_GCODE_STATE

START_PRINT EXTRUDER_TEMP=210.0 BED_TEMP=60.0

RESTORE_GCODE_STATE
G92 E0
G92 E0
G1 F3600 E-0.8
;LAYER_COUNT:200
;LAYER:0
M107
M204 S1000
G0 F7800 X87.635 Y87.495 Z0.2
M204 S3500
;TYPE:SKIRT
G1 F3600 E0
G1 F2100 X88.078 Y87.138 E0.01892
G1 X88.571 Y86.855 E0.03783
G1 X89.042 Y86.671 E0.05465
G1 X89.649 Y86.539 E0.07531
G1 X90.008 Y86.51 E0.08729
G1 X90.34 Y86.501 E0.09833
G1 X129.245 Y86.5 E1.39232
G1 X129.943 Y86.51 E1.41554
G1 X130.54 Y86.57 E1.43549
G1 X131.09 Y86.716 E1.45442
G1 X131.554 Y86.918 E1.47125
G1 X132.035 Y87.22 E1.49014
G1 X132.508 Y87.639 E1.51116
G1 X132.863 Y88.081 E1.53002
G1 X133.146 Y88.575 E1.54895
G1 X133.347 Y89.106 E1.56784
G1 X133.462 Y89.653 E1.58643
G1 X133.49 Y90.009 E1.5983
G1 X133.499 Y90.34 E1.60932
G1 X133.5 Y129.209 E2.9021
G1 X133.491 Y129.936 E2.92629
G1 X133.433 Y130.533 E2.94624
G1 X133.287 Y131.083 E2.96516
G1 X133.057 Y131.602 E2.98404
G1 X132.748 Y132.08 E3.00298
G1 X132.367 Y132.503 E3.02191
G1 X131.926 Y132.86 E3.04078
G1 X131.432 Y133.144 E3.05973
G1 X130.901 Y133.345 E3.07862
G1 X130.355 Y133.461 E3.09718
G1 X129.992 Y133.49 E3.10929
G1 X129.66 Y133.499 E3.12034
G1 X90.761 Y133.5 E4.41413
G1 X90.063 Y133.491 E4.43734
G1 X89.465 Y133.432 E4.45733
G1 X88.915 Y133.286 E4.47626
G1 X88.395 Y133.055 E4.49518
G1 X87.919 Y132.747 E4.51404
G1 X87.496 Y132.366 E4.53297
G1 X87.139 Y131.923 E4.5519
G1 X86.856 Y131.431 E4.57078
G1 X86.654 Y130.899 E4.5897
G1 X86.539 Y130.353 E4.60826
G1 X86.51 Y129.988 E4.62044
G1 X86.501 Y129.644 E4.63188
G1 X86.5 Y90.726 E5.9263
G1 X86.509 Y90.061 E5.94842
G1 X86.569 Y89.462 E5.96845
G1 X86.715 Y88.914 E5.98731
G1 X86.945 Y88.395 E6.00619
G1 X87.255 Y87.917 E6.02514
G1 X87.635 Y87.495 E6.04403
M204 S1000
G0 F7800 X87.889 Y87.804
M204 S3500
G1 F2100 X88.28 Y87.483 E6.06085
G1 X88.717 Y87.228 E6.07768
G1 X89.188 Y87.044 E6.0945
G1 X89.682 Y86.938 E6.1113
G1 X90.019 Y86.91 E6.12255
G1 X90.34 Y86.901 E6.13323
G1 X129.239 Y86.9 E7.42702
G1 X129.937 Y86.91 E7.45023
G1 X130.44 Y86.957 E7.46704
G1 X130.93 Y87.083 E7.48386
G1 X131.394 Y87.285 E7.5007
G1 X131.82 Y87.557 E7.51751
G1 X132.198 Y87.892 E7.53431
G1 X132.518 Y88.283 E7.55111
G1 X132.773 Y88.72 E7.56794
G1 X132.956 Y89.191 E7.58475
G1 X133.063 Y89.685 E7.60156
G1 X133.09 Y90.02 E7.61274
G1 X133.099 Y90.34 E7.62338
G1 X133.1 Y129.204 E8.916
G1 X133.091 Y129.931 E8.94019
G1 X133.045 Y130.434 E8.95699
G1 X132.92 Y130.924 E8.97381
G1 X132.719 Y131.388 E8.99062
G1 X132.448 Y131.815 E9.00745
G1 X132.113 Y132.194 E9.02427
G1 X131.723 Y132.515 E9.04107
G1 X131.287 Y132.771 E9.05789
G1 X130.816 Y132.954 E9.07469
G1 X130.322 Y133.062 E9.09151
G1 X129.981 Y133.09 E9.10289
G1 X129.66 Y133.099 E9.11357
G1 X90.766 Y133.1 E10.40719
G1 X90.068 Y133.091 E10.43041
G1 X89.564 Y133.044 E10.44724
G1 X89.074 Y132.919 E10.46406
G1 X88.61 Y132.718 E10.48088
G1 X88.184 Y132.447 E10.49768
G1 X87.805 Y132.112 E10.5145
G1 X87.484 Y131.721 E10.53132
G1 X87.229 Y131.285 E10.54812
G1 X87.045 Y130.814 E10.56494
G1 X86.938 Y130.32 E10.58175
G1 X86.91 Y129.977 E10.5932
G1 X86.901 Y129.644 E10.60428
G1 X86.9 Y90.731 E11.89853
G1 X86.909 Y90.066 E11.92065
G1 X86.956 Y89.562 E11.93749
G1 X87.082 Y89.073 E11.95428
G1 X87.283 Y88.609 E11.9711
G1 X87.554 Y88.182 E11.98792
G1 X87.889 Y87.804 E12.00472
M204 S1000
G1 F3600 E11.20472
;MESH:xyzCalibration_cube.stl
G0 F7800 X90.9 Y89.435
G0 X129.7 Y129.7
M204 S3500
;TYPE:WALL-OUTER
G1 F3600 E12.00472
G1 F2100 X129.7 Y90.3 E13.31517
G1 X90.3 Y90.3 E14.62562
G1 X90.3 Y129.7 E15.93607
G1 X129.7 Y129.7 E17.24652
M204 S1000
G0 F7800 X129.7 Y129.5
G0 X129.3 Y129.3
M204 S3500
;TYPE:WALL-INNER
G1 F2100 X129.3 Y90.7 E18.53036
G1 X90.7 Y90.7 E19.8142
G1 X90.7 Y129.3 E21.09804
G1 X129.3 Y129.3 E22.38188
M204 S1000
G0 F7800 X128.94 Y128.94
M204 S3500
;TYPE:SKIN
G1 F2100 X128.94 Y91.06 E23.64178
G1 X91.06 Y91.06 E24.90167
G1 X91.06 Y128.94 E26.16157
G1 X128.94 Y128.94 E27.42146
M204 S1000
G1 F3600 E26.62146
G0 F7800 X129.2 Y128.94
G0 X129.128 Y90.872
G0 X128.595 Y90.8
G0 X128.595 Y91.259
M204 S3500
G1 F3600 E27.42146
G1 F2100 X128.739 Y91.404 E27.42826
M204 S1000
G0 F7800 X128.739 Y91.969
M204 S3500
G1 F2100 X128.029 Y91.259 E27.46165
M204 S1000
G0 F7800 X127.463 Y91.259
M204 S3500
G1 F2100 X128.739 Y92.535 E27.52167
M204 S1000
G0 F7800 X128.739 Y93.101
M204 S3500
G1 F2100 X126.898 Y91.259 E27.60829
M204 S1000
G0 F7800 X126.332 Y91.259
M204 S3500
G1 F2100 X128.739 Y93.666 E27.72151
M204 S1000
G0 F7800 X128.739 Y94.232
M204 S3500
G1 F2100 X125.766 Y91.259 E27.86135
M204 S1000
G0 F7800 X125.201 Y91.259
M204 S3500
G1 F2100 X128.739 Y94.798 E28.02779
M204 S1000
G0 F7800 X128.739 Y95.363
M204 S3500
G1 F2100 X124.635 Y91.259 E28.22083
M204 S1000
G0 F7800 X124.069 Y91.259
M204 S3500
G1 F2100 X128.739 Y95.929 E28.44049
M204 S1000
G0 F7800 X128.739 Y96.495
M204 S3500
G1 F2100 X123.503 Y91.259 E28.68678
M204 S1000
G0 F7800 X122.938 Y91.259
M204 S3500
G1 F2100 X128.739 Y97.061 E28.95966
M204 S1000
G0 F7800 X128.739 Y97.626
M204 S3500
G1 F2100 X122.372 Y91.259 E29.25915
M204 S1000
G0 F7800 X121.806 Y91.259
M204 S3500
G1 F2100 X128.739 Y98.192 E29.58525
M204 S1000
G0 F7800 X128.739 Y98.758
M204 S3500
G1 F2100 X121.241 Y91.259 E29.93796
M204 S1000
G0 F7800 X120.675 Y91.259
M204 S3500
G1 F2100 X128.739 Y99.323 E30.31726
M204 S1000
G0 F7800 X128.739 Y99.889
M204 S3500
G1 F2100 X120.109 Y91.259 E30.72319
M204 S1000
G0 F7800 X119.544 Y91.259
M204 S3500
G1 F2100 X128.739 Y100.455 E31.15572
M204 S1000
G0 F7800 X128.739 Y101.02
M204 S3500
G1 F2100 X118.978 Y91.259 E31.61485
M204 S1000
G0 F7800 X118.412 Y91.259
M204 S3500
G1 F2100 X128.739 Y101.586 E32.1006
M204 S1000
G0 F7800 X128.739 Y102.152
M204 S3500
G1 F2100 X117.847 Y91.259 E32.61295
M204 S1000
G0 F7800 X117.281 Y91.259
M204 S3500
G1 F2100 X128.739 Y102.717 E33.1519
M204 S1000
G0 F7800 X128.739 Y103.283
M204 S3500
G1 F2100 X116.715 Y91.259 E33.71747
M204 S1000
G0 F7800 X116.15 Y91.259
M204 S3500
G1 F2100 X128.739 Y103.849 E34.30964
M204 S1000
G0 F7800 X128.739 Y104.414
M204 S3500
G1 F2100 X115.584 Y91.259 E34.92841
M204 S1000
G0 F7800 X115.018 Y91.259
M204 S3500
G1 F2100 X128.739 Y104.98 E35.57381
M204 S1000
G0 F7800 X128.739 Y105.546
M204 S3500
G1 F2100 X114.453 Y91.259 E36.2458
M204 S1000
G0 F7800 X113.887 Y91.259
M204 S3500
G1 F2100 X128.739 Y106.111 E36.94439
M204 S1000
G0 F7800 X128.739 Y106.677
M204 S3500
G1 F2100 X113.321 Y91.259 E37.66961
M204 S1000
G0 F7800 X112.755 Y91.259
M204 S3500
G1 F2100 X128.739 Y107.243 E38.42145
M204 S1000
G0 F7800 X128.739 Y107.809
M204 S3500
G1 F2100 X112.19 Y91.259 E39.19988
M204 S1000
G0 F7800 X111.624 Y91.259
M204 S3500
G1 F2100 X128.739 Y108.374 E40.00492
M204 S1000
G0 F7800 X128.739 Y108.94
M204 S3500
G1 F2100 X111.058 Y91.259 E40.83658
M204 S1000
G0 F7800 X110.493 Y91.259
M204 S3500
G1 F2100 X128.739 Y109.506 E41.69484
M204 S1000
G0 F7800 X128.739 Y110.071
M204 S3500
G1 F2100 X109.927 Y91.259 E42.5797
M204 S1000
G0 F7800 X109.361 Y91.259
M204 S3500
G1 F2100 X128.739 Y110.637 E43.49118
M204 S1000
G0 F7800 X128.739 Y111.203
M204 S3500
G1 F2100 X108.796 Y91.259 E44.42926
M204 S1000
G0 F7800 X108.23 Y91.259
M204 S3500
G1 F2100 X128.739 Y111.768 E45.39394
M204 S1000
G0 F7800 X128.739 Y112.334
M204 S3500
G1 F2100 X107.664 Y91.259 E46.38525
M204 S1000
G0 F7800 X107.099 Y91.259
M204 S3500
G1 F2100 X128.739 Y112.9 E47.40315
M204 S1000
G0 F7800 X128.739 Y113.465
M204 S3500
G1 F2100 X106.533 Y91.259 E48.44765
M204 S1000
G0 F7800 X105.967 Y91.259
M204 S3500
G1 F2100 X128.739 Y114.031 E49.51878
M204 S1000
G0 F7800 X128.739 Y114.597
M204 S3500
G1 F2100 X105.402 Y91.259 E50.6165
M204 S1000
G0 F7800 X104.836 Y91.259
M204 S3500
G1 F2100 X128.739 Y115.162 E51.74082
M204 S1000
G0 F7800 X128.739 Y115.728
M204 S3500
G1 F2100 X104.27 Y91.259 E52.89177
M204 S1000
G0 F7800 X103.704 Y91.259
M204 S3500
G1 F2100 X128.739 Y116.294 E54.06934
M204 S1000
G0 F7800 X128.739 Y116.86
M204 S3500
G1 F2100 X103.139 Y91.259 E55.27351
M204 S1000
G0 F7800 X102.573 Y91.259
M204 S3500
G1 F2100 X128.739 Y117.425 E56.50428
M204 S1000
G0 F7800 X128.739 Y117.991
M204 S3500
G1 F2100 X102.007 Y91.259 E57.76167
M204 S1000
G0 F7800 X101.442 Y91.259
M204 S3500
G1 F2100 X128.739 Y118.557 E59.04566
M204 S1000
G0 F7800 X128.739 Y119.122
M204 S3500
G1 F2100 X100.876 Y91.259 E60.35625
M204 S1000
G0 F7800 X100.31 Y91.259
M204 S3500
G1 F2100 X128.739 Y119.688 E61.69346
M204 S1000
G0 F7800 X128.739 Y120.254
M204 S3500
G1 F2100 X99.745 Y91.259 E63.05728
M204 S1000
G0 F7800 X99.179 Y91.259
M204 S3500
G1 F2100 X128.739 Y120.819 E64.44769
M204 S1000
G0 F7800 X128.739 Y121.385
M204 S3500
G1 F2100 X98.613 Y91.259 E65.86472
M204 S1000
G0 F7800 X98.048 Y91.259
M204 S3500
G1 F2100 X128.739 Y121.951 E67.30836
M204 S1000
G0 F7800 X128.739 Y122.516
M204 S3500
G1 F2100 X97.482 Y91.259 E68.77859
M204 S1000
G0 F7800 X96.916 Y91.259
M204 S3500
G1 F2100 X128.739 Y123.082 E70.27545
M204 S1000
G0 F7800 X128.739 Y123.648
M204 S3500
G1 F2100 X96.351 Y91.259 E71.7989
M204 S1000
G0 F7800 X95.785 Y91.259
M204 S3500
G1 F2100 X128.739 Y124.213 E73.34896
M204 S1000
G0 F7800 X128.739 Y124.779
M204 S3500
G1 F2100 X95.219 Y91.259 E74.92564
M204 S1000
G0 F7800 X94.654 Y91.259
M204 S3500
G1 F2100 X128.739 Y125.345 E76.52891
M204 S1000
G0 F7800 X128.739 Y125.91
M204 S3500
G1 F2100 X94.088 Y91.259 E78.15879
M204 S1000
G0 F7800 X93.522 Y91.259
M204 S3500
G1 F2100 X128.739 Y126.476 E79.81529
M204 S1000
G0 F7800 X128.739 Y127.042
M204 S3500
G1 F2100 X92.956 Y91.259 E81.49841
M204 S1000
G0 F7800 X92.391 Y91.259
M204 S3500
G1 F2100 X128.739 Y127.608 E83.20813
M204 S1000
G0 F7800 X128.739 Y128.173
M204 S3500
G1 F2100 X91.825 Y91.259 E84.94445
M204 S1000
G0 F7800 X91.259 Y91.259
M204 S3500
G1 F2100 X128.739 Y128.739 E86.7074
M204 S1000
G0 F7800 X128.173 Y128.739
M204 S3500
G1 F2100 X91.259 Y91.825 E88.44372
M204 S1000
G0 F7800 X91.259 Y92.391
M204 S3500
G1 F2100 X127.608 Y128.739 E90.15344
M204 S1000
G0 F7800 X127.042 Y128.739
M204 S3500
G1 F2100 X91.259 Y92.956 E91.83657
M204 S1000
G0 F7800 X91.259 Y93.522
M204 S3500
G1 F2100 X126.476 Y128.739 E93.49306
M204 S1000
G0 F7800 X125.91 Y128.739
M204 S3500
G1 F2100 X91.259 Y94.088 E95.12294
M204 S1000
G0 F7800 X91.259 Y94.654
M204 S3500
G1 F2100 X125.345 Y128.739 E96.72622
M204 S1000
G0 F7800 X124.779 Y128.739
M204 S3500
G1 F2100 X91.259 Y95.219 E98.3029
M204 S1000
G0 F7800 X91.259 Y95.785
M204 S3500
G1 F2100 X124.213 Y128.739 E99.85295
M204 S1000
G0 F7800 X123.648 Y128.739
M204 S3500
G1 F2100 X91.259 Y96.351 E101.37641
M204 S1000
G0 F7800 X91.259 Y96.916
M204 S3500
G1 F2100 X123.082 Y128.739 E102.87326
M204 S1000
G0 F7800 X122.516 Y128.739
M204 S3500
G1 F2100 X91.259 Y97.482 E104.3435
M204 S1000
G0 F7800 X91.259 Y98.048
M204 S3500
G1 F2100 X121.951 Y128.739 E105.78713
M204 S1000
G0 F7800 X121.385 Y128.739
M204 S3500
G1 F2100 X91.259 Y98.613 E107.20417
M204 S1000
G0 F7800 X91.259 Y99.179
M204 S3500
G1 F2100 X120.819 Y128.739 E108.59458
M204 S1000
G0 F7800 X120.254 Y128.739
M204 S3500
G1 F2100 X91.259 Y99.745 E109.95839
M204 S1000
G0 F7800 X91.259 Y100.31
M204 S3500
G1 F2100 X119.688 Y128.739 E111.2956
M204 S1000
G0 F7800 X119.122 Y128.739
M204 S3500
G1 F2100 X91.259 Y100.876 E112.60619
M204 S1000
G0 F7800 X91.259 Y101.442
M204 S3500
G1 F2100 X118.557 Y128.739 E113.89018
M204 S1000
G0 F7800 X117.991 Y128.739
M204 S3500
G1 F2100 X91.259 Y102.007 E115.14758
M204 S1000
G0 F7800 X91.259 Y102.573
M204 S3500
G1 F2100 X117.425 Y128.739 E116.37834
M204 S1000
G0 F7800 X116.86 Y128.739
M204 S3500
G1 F2100 X91.259 Y103.139 E117.58251
M204 S1000
G0 F7800 X91.259 Y103.704
M204 S3500
G1 F2100 X116.294 Y128.739 E118.76008
M204 S1000
G0 F7800 X115.728 Y128.739
M204 S3500
G1 F2100 X91.259 Y104.27 E119.91103
M204 S1000
G0 F7800 X91.259 Y104.836
M204 S3500
G1 F2100 X115.162 Y128.739 E121.03535
M204 S1000
G0 F7800 X114.597 Y128.739
M204 S3500
G1 F2100 X91.259 Y105.402 E122.13308
M204 S1000
G0 F7800 X91.259 Y105.967
M204 S3500
G1 F2100 X114.031 Y128.739 E123.2042
M204 S1000
G0 F7800 X113.465 Y128.739
M204 S3500
G1 F2100 X91.259 Y106.533 E124.24871
M204 S1000
G0 F7800 X91.259 Y107.099
M204 S3500
G1 F2100 X112.9 Y128.739 E125.26661
M204 S1000
G0 F7800 X112.334 Y128.739
M204 S3500
G1 F2100 X91.259 Y107.664 E126.25791
M204 S1000
G0 F7800 X91.259 Y108.23
M204 S3500
G1 F2100 X111.768 Y128.739 E127.22259
M204 S1000
G0 F7800 X111.203 Y128.739
M204 S3500
G1 F2100 X91.259 Y108.796 E128.16067
M204 S1000
G0 F7800 X91.259 Y109.361
M204 S3500
G1 F2100 X110.637 Y128.739 E129.07215
M204 S1000
G0 F7800 X110.071 Y128.739
M204 S3500
G1 F2100 X91.259 Y109.927 E129.95701
M204 S1000
G0 F7800 X91.259 Y110.493
M204 S3500
G1 F2100 X109.506 Y128.739 E130.81527
M204 S1000
G0 F7800 X108.94 Y128.739
M204 S3500
G1 F2100 X91.259 Y111.058 E131.64693
M204 S1000
G0 F7800 X91.259 Y111.624
M204 S3500
G1 F2100 X108.374 Y128.739 E132.45197
M204 S1000
G0 F7800 X107.809 Y128.739
M204 S3500
G1 F2100 X91.259 Y112.19 E133.23041
M204 S1000
G0 F7800 X91.259 Y112.755
M204 S3500
G1 F2100 X107.243 Y128.739 E133.98225
M204 S1000
G0 F7800 X106.677 Y128.739
M204 S3500
G1 F2100 X91.259 Y113.321 E134.70746
M204 S1000
G0 F7800 X91.259 Y113.887
M204 S3500
G1 F2100 X106.111 Y128.739 E135.40605
M204 S1000
G0 F7800 X105.546 Y128.739
M204 S3500
G1 F2100 X91.259 Y114.453 E136.07805
M204 S1000
G0 F7800 X91.259 Y115.018
M204 S3500
G1 F2100 X104.98 Y128.739 E136.72344
M204 S1000
G0 F7800 X104.414 Y128.739
M204 S3500
G1 F2100 X91.259 Y115.584 E137.34221
M204 S1000
G0 F7800 X91.259 Y116.15
M204 S3500
G1 F2100 X103.849 Y128.739 E137.93438
M204 S1000
G0 F7800 X103.283 Y128.739
M204 S3500
G1 F2100 X91.259 Y116.715 E138.49996
M204 S1000
G0 F7800 X91.259 Y117.281
M204 S3500
G1 F2100 X102.717 Y128.739 E139.0389
M204 S1000
G0 F7800 X102.152 Y128.739
M204 S3500
G1 F2100 X91.259 Y117.847 E139.55125
M204 S1000
G0 F7800 X91.259 Y118.412
M204 S3500
G1 F2100 X101.586 Y128.739 E140.037
M204 S1000
G0 F7800 X101.02 Y128.739
M204 S3500
G1 F2100 X91.259 Y118.978 E140.49613
M204 S1000
G0 F7800 X91.259 Y119.544
M204 S3500
G1 F2100 X100.455 Y128.739 E140.92866
M204 S1000
G0 F7800 X99.889 Y128.739
M204 S3500
G1 F2100 X91.259 Y120.109 E141.33459
M204 S1000
G0 F7800 X91.259 Y120.675
M204 S3500
G1 F2100 X99.323 Y128.739 E141.7139
M204 S1000
G0 F7800 X98.758 Y128.739
M204 S3500
G1 F2100 X91.259 Y121.241 E142.0666
M204 S1000
G0 F7800 X91.259 Y121.806
M204 S3500
G1 F2100 X98.192 Y128.739 E142.39271
M204 S1000
G0 F7800 X97.626 Y128.739
M204 S3500
G1 F2100 X91.259 Y122.372 E142.69219
M204 S1000
G0 F7800 X91.259 Y122.938
M204 S3500
G1 F2100 X97.061 Y128.739 E142.96508
M204 S1000
G0 F7800 X96.495 Y128.739
M204 S3500
G1 F2100 X91.259 Y123.503 E143.21136
M204 S1000
G0 F7800 X91.259 Y124.069
M204 S3500
G1 F2100 X95.929 Y128.739 E143.43103
M204 S1000
G0 F7800 X95.363 Y128.739
M204 S3500
G1 F2100 X91.259 Y124.635 E143.62407
M204 S1000
G0 F7800 X91.259 Y125.201
M204 S3500
G1 F2100 X94.798 Y128.739 E143.79051
M204 S1000
G0 F7800 X94.232 Y128.739
M204 S3500
G1 F2100 X91.259 Y125.766 E143.93035
M204 S1000
G0 F7800 X91.259 Y126.332
M204 S3500
G1 F2100 X93.666 Y128.739 E144.04356
M204 S1000
G0 F7800 X93.101 Y128.739
M204 S3500
G1 F2100 X91.259 Y126.898 E144.13018
M204 S1000
G0 F7800 X91.259 Y127.463
M204 S3500
G1 F2100 X92.535 Y128.739 E144.1902
M204 S1000
G0 F7800 X91.969 Y128.739
M204 S3500
G1 F2100 X91.259 Y128.029 E144.2236
M204 S1000
G0 F7800 X91.259 Y128.595
M204 S3500
G1 F2100 X91.404 Y128.739 E144.23039
M104 S210
M204 S1000
G1 F3600 E143.43039
;MESH:NONMESH
G0 F300 X91.404 Y128.739 Z0.4
G0 F7800 X91.404 Y129.2
G0 X90.872 Y129.128
G0 X90.514 Y90.514
G0 X90.514 Y89.435
G0 X87.889 Y87.804
;TIME_ELAPSED:143.863238
;LAYER:1
M106 S51
M204 S3500
;TYPE:SKIRT
G1 F3600 E144.23039
G1 F2100 X88.28 Y87.483 E144.24722
G1 X88.717 Y87.228 E144.26405
G1 X89.188 Y87.044 E144.28087
G1 X89.682 Y86.938 E144.29767
G1 X90.019 Y86.91 E144.30892
G1 X90.34 Y86.901 E144.3196
G1 X129.239 Y86.9 E145.61339
G1 X129.937 Y86.91 E145.6366
G1 X130.44 Y86.957 E145.65341
