;FLAVOR:Marlin
;TIME:658
;Filament used: 0.6079m
;Layer height: 0.25
;MINX:91.1
;MINY:98.3
;MINZ:0.3
;MAXX:128.9
;MAXY:121.7
;MAXZ:5.05
;Generated with Cura_SteamEngine 5.4.0
M82 ;absolute extrusion mode
SAVE_GCODE_STATE

START_PRINT EXTRUDER_TEMP=230.0 BED_TEMP=60.0

RESTORE_GCODE_STATE
G92 E0
G92 E0
G1 F3600 E-0.8
;LAYER_COUNT:20
;LAYER:0
M107
M204 S1000
G0 F7500 X93.473 Y100.575 Z0.3
;TYPE:SKIRT
G1 F3600 E0
G1 F1500 X93.808 Y100.263 E0.02284
G1 X94.142 Y99.986 E0.04449
G1 X94.591 Y99.665 E0.07202
G1 X94.988 Y99.417 E0.09538
G1 X95.291 Y99.248 E0.11269
G1 X95.893 Y98.95 E0.1462
G1 X96.525 Y98.711 E0.17991
G1 X97.162 Y98.537 E0.21285
G1 X97.465 Y98.47 E0.22833
G1 X98.019 Y98.377 E0.25636
G1 X98.467 Y98.331 E0.27883
G1 X99.208 Y98.303 E0.31582
G1 X120.355 Y98.3 E1.37085
G1 X121.204 Y98.313 E1.41321
G1 X121.569 Y98.339 E1.43147
G1 X122.212 Y98.415 E1.46377
G1 X122.609 Y98.485 E1.48388
G1 X122.976 Y98.571 E1.50269
G1 X123.284 Y98.658 E1.51866
G1 X123.892 Y98.862 E1.55065
G1 X124.581 Y99.173 E1.58837
G1 X125.132 Y99.491 E1.62011
G1 X125.42 Y99.676 E1.63718
G1 X125.84 Y99.975 E1.6629
G1 X126.174 Y100.246 E1.68436
G1 X126.615 Y100.663 E1.71464
G1 X126.932 Y101.002 E1.7378
G1 X127.186 Y101.305 E1.75752
G1 X127.533 Y101.789 E1.78724
G1 X127.781 Y102.187 E1.81063
G1 X127.951 Y102.488 E1.82788
G1 X128.187 Y102.959 E1.85416
G1 X128.365 Y103.375 E1.87674
G1 X128.53 Y103.865 E1.90253
G1 X128.658 Y104.333 E1.92674
G1 X128.727 Y104.644 E1.94263
G1 X128.823 Y105.217 E1.97161
G1 X128.869 Y105.663 E1.99398
G1 X128.897 Y106.4 E2.03078
G1 X128.9 Y113.159 E2.36799
G1 X128.886 Y114.01 E2.41045
G1 X128.861 Y114.455 E2.43269
G1 X128.795 Y115.005 E2.46032
G1 X128.733 Y115.34 E2.47732
G1 X128.632 Y115.771 E2.4994
G1 X128.542 Y116.088 E2.51584
G1 X128.356 Y116.648 E2.54528
G1 X128.065 Y117.305 E2.58113
G1 X127.703 Y117.942 E2.61769
G1 X127.513 Y118.239 E2.63528
G1 X127.233 Y118.631 E2.65931
G1 X126.951 Y118.978 E2.68162
G1 X126.575 Y119.376 E2.70893
G1 X126.187 Y119.741 E2.73551
G1 X125.896 Y119.985 E2.75446
G1 X125.435 Y120.317 E2.7828
G1 X125.018 Y120.58 E2.8074
G1 X124.711 Y120.751 E2.82493
G1 X124.105 Y121.051 E2.85866
G1 X123.508 Y121.279 E2.89055
G1 X122.836 Y121.464 E2.92532
G1 X122.535 Y121.53 E2.94069
G1 X121.981 Y121.623 E2.96872
G1 X121.533 Y121.669 E2.99119
G1 X120.792 Y121.697 E3.02818
G1 X99.645 Y121.7 E4.08321
G1 X98.796 Y121.687 E4.12557
G1 X98.431 Y121.661 E4.14383
G1 X97.788 Y121.585 E4.17613
G1 X97.391 Y121.516 E4.19623
G1 X97.022 Y121.429 E4.21515
G1 X96.701 Y121.338 E4.23179
G1 X96.148 Y121.154 E4.26087
G1 X95.416 Y120.826 E4.30089
G1 X94.88 Y120.517 E4.33176
G1 X94.574 Y120.321 E4.34989
G1 X94.195 Y120.052 E4.37307
G1 X93.803 Y119.735 E4.39822
G1 X93.432 Y119.384 E4.4237
G1 X93.117 Y119.052 E4.44654
G1 X92.901 Y118.802 E4.46302
G1 X92.662 Y118.493 E4.48251
G1 X92.45 Y118.186 E4.50112
G1 X92.213 Y117.805 E4.52351
G1 X92.049 Y117.511 E4.5403
G1 X91.75 Y116.907 E4.57393
G1 X91.511 Y116.275 E4.60764
G1 X91.337 Y115.638 E4.64058
G1 X91.27 Y115.335 E4.65606
G1 X91.199 Y114.91 E4.67756
G1 X91.158 Y114.556 E4.69534
G1 X91.105 Y113.678 E4.73922
G1 X91.1 Y106.846 E5.08007
G1 X91.113 Y106.002 E5.12219
G1 X91.141 Y105.526 E5.14597
G1 X91.203 Y105.009 E5.17195
G1 X91.263 Y104.683 E5.18849
G1 X91.373 Y104.214 E5.21252
G1 X91.463 Y103.897 E5.22896
G1 X91.642 Y103.356 E5.25739
G1 X91.971 Y102.621 E5.29757
G1 X92.289 Y102.07 E5.32931
G1 X92.476 Y101.779 E5.34656
G1 X92.762 Y101.377 E5.37118
G1 X93.067 Y101.003 E5.39526
G1 X93.473 Y100.575 E5.42469
G0 F7500 X93.746 Y100.868
G1 F1500 X94.081 Y100.556 E5.44753
G1 X94.375 Y100.311 E5.46662
G1 X94.803 Y100.004 E5.4929
G1 X95.183 Y99.766 E5.51527
G1 X95.469 Y99.606 E5.53162
G1 X96.036 Y99.324 E5.56321
G1 X96.631 Y99.097 E5.59498
G1 X97.248 Y98.928 E5.6269
G1 X97.551 Y98.861 E5.64238
G1 X98.061 Y98.775 E5.66818
G1 X98.482 Y98.731 E5.6893
G1 X99.208 Y98.703 E5.72555
G1 X120.349 Y98.7 E6.78028
G1 X121.176 Y98.712 E6.82154
G1 X121.522 Y98.736 E6.83884
G1 X122.144 Y98.809 E6.87009
G1 X122.518 Y98.874 E6.88903
G1 X122.868 Y98.956 E6.90696
G1 X123.157 Y99.037 E6.92194
G1 X123.765 Y99.241 E6.95393
G1 X124.381 Y99.52 E6.98767
G1 X124.916 Y99.828 E7.01847
G1 X125.188 Y100.002 E7.03458
G1 X125.588 Y100.286 E7.05905
G1 X125.922 Y100.557 E7.08051
G1 X126.323 Y100.937 E7.10807
G1 X126.625 Y101.259 E7.1301
G1 X126.879 Y101.562 E7.14982
G1 X127.194 Y102.001 E7.17678
G1 X127.433 Y102.383 E7.19926
G1 X127.593 Y102.667 E7.21552
G1 X127.829 Y103.138 E7.2418
G1 X127.986 Y103.503 E7.26163
G1 X128.144 Y103.971 E7.28627
G1 X128.267 Y104.42 E7.3095
G1 X128.336 Y104.731 E7.32539
G1 X128.425 Y105.259 E7.3521
G1 X128.469 Y105.679 E7.37317
G1 X128.497 Y106.4 E7.40917
G1 X128.5 Y113.153 E7.74608
G1 X128.487 Y113.988 E7.78774
G1 X128.464 Y114.408 E7.80873
G1 X128.402 Y114.933 E7.8351
G1 X128.344 Y115.249 E7.85113
G1 X128.247 Y115.662 E7.8723
G1 X128.162 Y115.962 E7.88785
G1 X127.976 Y116.522 E7.91729
G1 X127.7 Y117.142 E7.95115
G1 X127.366 Y117.727 E7.98476
G1 X127.187 Y118.007 E8.00134
G1 X126.922 Y118.379 E8.02412
G1 X126.66 Y118.703 E8.04491
G1 X126.284 Y119.101 E8.07223
G1 X125.929 Y119.435 E8.09655
G1 X125.662 Y119.66 E8.11396
G1 X125.201 Y119.992 E8.14231
G1 X124.822 Y120.231 E8.16466
G1 X124.533 Y120.393 E8.18119
G1 X123.962 Y120.677 E8.21301
G1 X123.365 Y120.905 E8.24489
G1 X122.75 Y121.073 E8.2767
G1 X122.449 Y121.139 E8.29207
G1 X121.939 Y121.225 E8.31787
G1 X121.518 Y121.269 E8.33899
G1 X120.792 Y121.297 E8.37524
G1 X99.651 Y121.3 E9.42997
G1 X98.824 Y121.288 E9.47123
G1 X98.478 Y121.264 E9.48853
G1 X97.856 Y121.191 E9.51978
G1 X97.482 Y121.126 E9.53872
G1 X97.131 Y121.044 E9.5567
G1 X96.827 Y120.958 E9.57246
G1 X96.274 Y120.774 E9.60154
G1 X95.616 Y120.479 E9.63752
G1 X95.08 Y120.17 E9.66838
G1 X94.806 Y119.995 E9.6846
G1 X94.427 Y119.726 E9.70779
G1 X94.078 Y119.444 E9.73017
G1 X93.707 Y119.093 E9.75565
G1 X93.42 Y118.79 E9.77648
G1 X93.204 Y118.54 E9.79296
G1 X92.991 Y118.265 E9.81031
G1 X92.789 Y117.974 E9.82799
G1 X92.562 Y117.61 E9.84939
G1 X92.407 Y117.333 E9.86522
G1 X92.124 Y116.764 E9.89693
G1 X91.897 Y116.169 E9.9287
G1 X91.728 Y115.552 E9.96062
G1 X91.661 Y115.249 E9.9761
G1 X91.596 Y114.863 E9.99563
G1 X91.557 Y114.532 E10.01226
G1 X91.505 Y113.678 E10.05494
G1 X91.5 Y106.852 E10.39549
G1 X91.512 Y106.025 E10.43675
G1 X91.538 Y105.574 E10.45929
G1 X91.597 Y105.081 E10.48406
G1 X91.653 Y104.774 E10.49963
G1 X91.758 Y104.323 E10.52273
G1 X91.843 Y104.023 E10.53829
G1 X92.022 Y103.482 E10.56672
G1 X92.318 Y102.821 E10.60285
G1 X92.626 Y102.286 E10.63365
G1 X92.802 Y102.011 E10.64994
G1 X93.088 Y101.609 E10.67455
G1 X93.357 Y101.278 E10.69583
G1 X93.746 Y100.868 E10.72403
G0 F7500 X94.019 Y101.161
G1 F1500 X94.354 Y100.849 E10.74687
G1 X94.608 Y100.636 E10.76341
G1 X95.016 Y100.343 E10.78847
G1 X95.379 Y100.115 E10.80985
G1 X95.648 Y99.964 E10.82524
G1 X96.179 Y99.698 E10.85487
G1 X96.774 Y99.471 E10.88665
G1 X97.334 Y99.319 E10.9156
G1 X97.637 Y99.252 E10.93108
G1 X98.103 Y99.173 E10.95466
G1 X98.498 Y99.131 E10.97448
G1 X99.208 Y99.103 E11.00993
G1 X120.344 Y99.1 E12.0644
G1 X121.149 Y99.111 E12.10457
G1 X121.476 Y99.133 E12.12092
G1 X122.076 Y99.203 E12.15106
G1 X122.428 Y99.264 E12.16888
G1 X122.76 Y99.341 E12.18588
G1 X123.049 Y99.422 E12.20086
G1 X123.601 Y99.606 E12.22989
G1 X124.182 Y99.867 E12.26166
G1 X124.701 Y100.165 E12.29152
G1 X124.957 Y100.328 E12.30666
G1 X125.337 Y100.597 E12.32989
G1 X125.647 Y100.847 E12.34976
G1 X126.031 Y101.211 E12.37616
G1 X126.333 Y101.533 E12.39818
G1 X126.554 Y101.796 E12.41532
G1 X126.855 Y102.214 E12.44102
G1 X127.085 Y102.58 E12.46258
G1 X127.236 Y102.847 E12.47789
G1 X127.462 Y103.297 E12.50301
G1 X127.607 Y103.632 E12.52122
G1 X127.758 Y104.077 E12.54467
G1 X127.876 Y104.507 E12.56691
G1 X127.945 Y104.818 E12.5828
G1 X128.027 Y105.301 E12.60725
G1 X128.069 Y105.695 E12.62701
G1 X128.097 Y106.4 E12.66222
G1 X128.1 Y113.147 E12.99882
G1 X128.088 Y113.967 E13.03974
G1 X128.067 Y114.361 E13.05942
G1 X128.008 Y114.861 E13.08454
G1 X127.954 Y115.158 E13.0996
G1 X127.862 Y115.553 E13.11984
G1 X127.782 Y115.836 E13.13451
G1 X127.596 Y116.396 E13.16395
G1 X127.335 Y116.978 E13.19577
G1 X127.029 Y117.512 E13.22647
G1 X126.861 Y117.775 E13.24204
G1 X126.61 Y118.128 E13.26365
G1 X126.369 Y118.428 E13.28285
G1 X125.993 Y118.826 E13.31017
G1 X125.671 Y119.129 E13.33223
G1 X125.404 Y119.354 E13.34965
G1 X124.988 Y119.654 E13.37524
G1 X124.626 Y119.882 E13.39658
G1 X124.354 Y120.035 E13.41215
G1 X123.819 Y120.303 E13.442
G1 X123.222 Y120.531 E13.47388
G1 X122.664 Y120.682 E13.50272
G1 X122.363 Y120.748 E13.5181
G1 X121.897 Y120.827 E13.54168
G1 X121.502 Y120.869 E13.5615
G1 X120.792 Y120.897 E13.59695
G1 X99.656 Y120.9 E14.65143
G1 X98.851 Y120.889 E14.69159
G1 X98.524 Y120.867 E14.70794
G1 X97.924 Y120.797 E14.73808
G1 X97.572 Y120.736 E14.7559
G1 X97.24 Y120.659 E14.7729
G1 X96.953 Y120.578 E14.78778
G1 X96.4 Y120.394 E14.81686
G1 X95.815 Y120.132 E14.84884
G1 X95.295 Y119.833 E14.87876
G1 X95.038 Y119.669 E14.89397
G1 X94.659 Y119.4 E14.91716
G1 X94.353 Y119.153 E14.93678
G1 X93.982 Y118.802 E14.96226
G1 X93.723 Y118.529 E14.98103
G1 X93.52 Y118.294 E14.99653
G1 X93.319 Y118.036 E15.01284
G1 X93.128 Y117.762 E15.02951
G1 X92.911 Y117.414 E15.04997
G1 X92.765 Y117.154 E15.06485
G1 X92.498 Y116.621 E15.09459
G1 X92.271 Y116.026 E15.12636
G1 X92.119 Y115.466 E15.15531
G1 X92.052 Y115.163 E15.17079
G1 X91.993 Y114.815 E15.1884
G1 X91.956 Y114.507 E15.20388
G1 X91.905 Y113.678 E15.24531
G1 X91.9 Y106.857 E15.58561
G1 X91.911 Y106.047 E15.62603
G1 X91.935 Y105.621 E15.64732
G1 X91.991 Y105.152 E15.67088
G1 X92.043 Y104.864 E15.68548
G1 X92.143 Y104.432 E15.7076
G1 X92.223 Y104.149 E15.72228
G1 X92.402 Y103.608 E15.75071
G1 X92.665 Y103.02 E15.78284
G1 X92.963 Y102.501 E15.8127
G1 X93.128 Y102.242 E15.82802
G1 X93.399 Y101.86 E15.85139
G1 X93.647 Y101.553 E15.87108
G1 X94.019 Y101.161 E15.89804
G1 F3600 E15.09804
;MESH:Dremel bit holder.stl
G0 F7500 X95.511 Y103.259
G0 X96.31 Y103.991
G0 X96.512 Y106.786
G0 X96.721 Y107.508
G0 X97.126 Y108.152
G0 X97.621 Y108.597
G0 X99.487 Y109.561
G0 X99.459 Y108.862
;TYPE:WALL-OUTER
G1 F3600 E15.89804
G1 F1500 X99.107 Y108.873 E15.91561
G1 X98.79 Y108.841 E15.9315
G1 X98.438 Y108.755 E15.94958
G1 X98.127 Y108.632 E15.96627
G1 X97.818 Y108.455 E15.98403
G1 X97.54 Y108.236 E16.00169
G1 X97.313 Y108.003 E16.01792
G1 X97.099 Y107.708 E16.0361
G1 X96.949 Y107.431 E16.05182
G1 X96.81 Y107.054 E16.07186
G1 X96.75 Y106.76 E16.08683
G1 X96.725 Y106.433 E16.10319
G1 X96.753 Y106.024 E16.12365
G1 X96.825 Y105.699 E16.14025
G1 X96.938 Y105.393 E16.15653
G1 X97.106 Y105.08 E16.17425
G1 X97.31 Y104.801 E16.19149
G1 X97.532 Y104.571 E16.20744
G1 X97.802 Y104.358 E16.2246
G1 X98.102 Y104.182 E16.24195
G1 X98.428 Y104.047 E16.25956
G1 X98.771 Y103.963 E16.27717
G1 X99.098 Y103.927 E16.29359
G1 X99.466 Y103.939 E16.31196
G1 X99.796 Y103.997 E16.32867
G1 X100.1 Y104.093 E16.34458
G1 X100.419 Y104.243 E16.36216
G1 X100.73 Y104.453 E16.38089
G1 X100.968 Y104.666 E16.39682
G1 X101.202 Y104.945 E16.41499
G1 X101.395 Y105.258 E16.43333
G1 X101.532 Y105.568 E16.45024
G1 X101.621 Y105.882 E16.46652
G1 X101.67 Y106.235 E16.4843
G1 X101.67 Y106.575 E16.50127
G1 X101.622 Y106.908 E16.51805
G1 X101.527 Y107.244 E16.53547
G1 X101.378 Y107.577 E16.55367
G1 X101.222 Y107.829 E16.56846
G1 X100.984 Y108.117 E16.5871
G1 X100.706 Y108.364 E16.60565
G1 X100.445 Y108.542 E16.62141
G1 X100.1 Y108.706 E16.64047
G1 X99.788 Y108.803 E16.65677
G1 X99.459 Y108.862 E16.67345
G0 F7500 X99.259 Y108.868
G1 F3600 E15.87345
G0 F7500 X99.287 Y109.569
G0 X99.52 Y110.501
G0 X100.364 Y110.709
G0 X101.115 Y111.142
G0 X101.717 Y111.763
G0 X102.127 Y112.532
G0 X102.307 Y113.36
G0 X102.25 Y114.24
G0 X101.948 Y115.069
G0 X101.448 Y115.758
G0 X100.767 Y116.295
G0 X99.599 Y116.748
G0 X99.477 Y116.06
G1 F3600 E16.67345
G1 F1500 X99.107 Y116.073 E16.69192
G1 X98.766 Y116.037 E16.70903
G1 X98.44 Y115.956 E16.72578
G1 X98.103 Y115.82 E16.74392
G1 X97.803 Y115.645 E16.76124
G1 X97.548 Y115.444 E16.77744
G1 X97.303 Y115.192 E16.79498
G1 X97.103 Y114.916 E16.81198
G1 X96.942 Y114.618 E16.82888
G1 X96.81 Y114.254 E16.8482
G1 X96.748 Y113.941 E16.86412
G1 X96.725 Y113.604 E16.88097
G1 X96.753 Y113.224 E16.89998
G1 X96.818 Y112.925 E16.91524
G1 X96.943 Y112.583 E16.93341
G1 X97.101 Y112.288 E16.95011
G1 X97.31 Y112.001 E16.96782
G1 X97.544 Y111.761 E16.98454
G1 X97.815 Y111.55 E17.00168
G1 X98.103 Y111.381 E17.01834
G1 X98.404 Y111.255 E17.03462
G1 X98.771 Y111.163 E17.05349
G1 X99.097 Y111.127 E17.06985
G1 X99.45 Y111.137 E17.08747
G1 X99.796 Y111.197 E17.10499
G1 X100.125 Y111.303 E17.12224
G1 X100.449 Y111.46 E17.1402
G1 X100.73 Y111.653 E17.15721
G1 X100.974 Y111.872 E17.17356
G1 X101.187 Y112.123 E17.18999
G1 X101.384 Y112.436 E17.20844
G1 X101.532 Y112.768 E17.22657
G1 X101.621 Y113.082 E17.24286
G1 X101.67 Y113.435 E17.26064
G1 X101.67 Y113.775 E17.2776
G1 X101.622 Y114.108 E17.29438
G1 X101.527 Y114.444 E17.3118
G1 X101.378 Y114.777 E17.33001
G1 X101.223 Y115.028 E17.34472
G1 X100.986 Y115.315 E17.36329
G1 X100.706 Y115.564 E17.38199
G1 X100.445 Y115.742 E17.39775
G1 X100.1 Y115.906 E17.41681
G1 X99.787 Y116.003 E17.43315
G1 X99.477 Y116.06 E17.44888
G0 F7500 X99.277 Y116.067
G1 F3600 E16.64888
G0 F7500 X99.305 Y116.769
G0 X106.799 Y116.748
G0 X106.677 Y116.06
G1 F3600 E17.44888
G1 F1500 X106.307 Y116.073 E17.46735
G1 X105.966 Y116.037 E17.48446
G1 X105.64 Y115.956 E17.50122
G1 X105.303 Y115.82 E17.51935
G1 X105.018 Y115.655 E17.53578
G1 X104.74 Y115.436 E17.55343
G1 X104.513 Y115.203 E17.56966
G1 X104.299 Y114.908 E17.58784
G1 X104.137 Y114.604 E17.60503
G1 X104.019 Y114.282 E17.62214
G1 X103.952 Y113.966 E17.63825
G1 X103.925 Y113.633 E17.65492
G1 F1503.8 X103.954 Y113.224 E17.67533
G1 X104.018 Y112.925 E17.69054
G1 F1500 X104.143 Y112.583 E17.70871
G1 X104.301 Y112.288 E17.72541
G1 X104.51 Y112.001 E17.74312
G1 X104.744 Y111.761 E17.75984
G1 X104.993 Y111.565 E17.77565
G1 X105.303 Y111.381 E17.79364
G1 X105.604 Y111.255 E17.80992
G1 X105.971 Y111.163 E17.82879
G1 X106.297 Y111.127 E17.84516
G1 X106.65 Y111.137 E17.86277
G1 X107.02 Y111.203 E17.88152
G1 X107.292 Y111.291 E17.89579
G1 X107.646 Y111.461 E17.91538
G1 X107.934 Y111.657 E17.93276
G1 X108.174 Y111.872 E17.94884
G1 X108.387 Y112.123 E17.96526
G1 X108.584 Y112.436 E17.98371
G1 X108.732 Y112.768 E18.00184
G1 X108.821 Y113.082 E18.01813
G1 X108.87 Y113.435 E18.03591
G1 X108.87 Y113.775 E18.05287
G1 X108.822 Y114.108 E18.06966
G1 X108.727 Y114.444 E18.08708
G1 X108.578 Y114.777 E18.10528
G1 X108.423 Y115.028 E18.11999
G1 X108.166 Y115.336 E18.14001
G1 X107.908 Y115.564 E18.15718
G1 X107.649 Y115.738 E18.17275
G1 X107.323 Y115.897 E18.19085
G1 X106.987 Y116.003 E18.20842
G1 X106.677 Y116.06 E18.22415
G0 F7500 X106.477 Y116.067
G1 F3600 E17.42415
G0 F7500 X106.505 Y116.769
G0 X107.576 Y116.487
G0 X108.312 Y116.06
G0 X108.933 Y115.415
G0 X109.325 Y114.673
G0 X109.509 Y113.807
G0 X109.447 Y112.947
G0 X109.147 Y112.13
G0 X108.636 Y111.428
G0 X107.95 Y110.897
G0 X107.16 Y110.579
G0 X106.757 Y110.515
G0 X106.687 Y109.561
G0 X106.659 Y108.862
G1 F3600 E18.22415
G1 F1500 X106.307 Y108.873 E18.24172
G1 X105.99 Y108.841 E18.25761
G1 X105.638 Y108.755 E18.27569
G1 X105.327 Y108.632 E18.29238
G1 X105.017 Y108.454 E18.31021
G1 X104.758 Y108.253 E18.32657
G1 X104.511 Y108.001 E18.34417
G1 X104.311 Y107.728 E18.36106
G1 X104.137 Y107.404 E18.3794
G1 X104.019 Y107.082 E18.39651
G1 X103.952 Y106.766 E18.41263
G1 X103.925 Y106.433 E18.4293
G1 F1503.8 X103.954 Y106.024 E18.4497
G1 X104.018 Y105.725 E18.46492
G1 F1500 X104.143 Y105.383 E18.48309
G1 X104.303 Y105.084 E18.50001
G1 X104.51 Y104.801 E18.5175
G1 X104.744 Y104.561 E18.53422
G1 X105.015 Y104.35 E18.55136
G1 X105.327 Y104.169 E18.56935
G1 X105.628 Y104.048 E18.58554
G1 X105.958 Y103.964 E18.60252
G1 X106.323 Y103.927 E18.62083
G1 X106.666 Y103.939 E18.63795
G1 X106.996 Y103.997 E18.65467
G1 X107.317 Y104.101 E18.6715
G1 X107.617 Y104.244 E18.68808
G1 X107.934 Y104.457 E18.70714
G1 X108.168 Y104.666 E18.72279
G1 X108.402 Y104.945 E18.74096
G1 X108.595 Y105.258 E18.7593
