; generated by PrusaSlicer 2.6.1+win64 on 2023-10-31 at 08:57:24 UTC


;
;

;
;

;
;
; 

; external perimeters extrusion width = 0.40mm
; perimeters extrusion width = 0.40mm
; infill extrusion width = 0.40mm
; solid infill extrusion width = 0.40mm
; top infill extrusion width = 0.40mm
; first layer extrusion width = 0.40mm

M190 S70 ; set bed temperature and wait for it to be reached
M104 S235 ; set temperature
;TYPE:Custom
SAVE_GCODE_STATE NAME=start-gcode


START_PRINT EXTRUDER_TEMP=235 BED_TEMP=70


RESTORE_GCODE_STATE NAME=start-gcode
M109 S235 ; set temperature and wait for it to be reached
G21 ; set units to millimeters
G90 ; use absolute coordinates
M82 ; use absolute distances for extrusion
G92 E0 ; reset extrusion distance
; Filament gcode
M107 ; disable fan
;LAYER_CHANGE
;Z:0.3
;HEIGHT:0.3
G1 Z.3 F7800 ; move to next layer (0)
G1 E-2 F2400 ; retract
G92 E0 ; reset extrusion distance
M204 S2500 ; adjust acceleration
G1 X52.466 Y60.092 F7800 ; move to first skirt point
G1 E2 F2400 ;  ; unretract
M204 S2000 ; adjust acceleration
;TYPE:Skirt/Brim
;WIDTH:0.4
G1 F1800
G1 X53.411 Y59.299 E2.05164 ; skirt
G1 X111.6 Y18.672 E5.0224 ; skirt
G1 X112.972 Y17.925 E5.08779 ; skirt
G1 X115.199 Y17.344 E5.18413 ; skirt
G1 X117.491 Y17.554 E5.28048 ; skirt
G1 X119.827 Y18.713 E5.38964 ; skirt
G1 X121.423 Y20.37 E5.48594 ; skirt
G1 X122.16 Y21.816 E5.55388 ; skirt
G1 X168.389 Y148.698 E11.20675 ; skirt
G1 X168.733 Y149.888 E11.2586 ; skirt
G1 X168.973 Y151.198 E11.31435 ; skirt
G1 X169.252 Y154.618 E11.45799 ; skirt
G1 X169.268 Y157.468 E11.57729 ; skirt
G1 X169.103 Y160.376 E11.69922 ; skirt
G1 X168.31 Y166.533 E11.95908 ; skirt
G1 X167.379 Y170.748 E12.13977 ; skirt
G1 X166.624 Y172.987 E12.23868 ; skirt
G1 X165.788 Y174.572 E12.31369 ; skirt
G1 X165.287 Y175.274 E12.34979 ; skirt
G1 X164.014 Y176.616 E12.42722 ; skirt
G1 X149.864 Y187.89 E13.18456 ; skirt
G1 X147.045 Y189.997 E13.33188 ; skirt
G1 X144.16 Y191.675 E13.47159 ; skirt
G1 X142.449 Y192.342 E13.54846 ; skirt
G1 X141.798 Y192.497 E13.57647 ; skirt
G1 X139.534 Y192.64 E13.67143 ; skirt
G1 X66.794 Y184.759 E16.73417 ; skirt
G1 X65.907 Y184.601 E16.77188 ; skirt
G1 X47.954 Y180.147 E17.54618 ; skirt
G1 X45.849 Y179.216 E17.64253 ; skirt
G1 X44.321 Y177.803 E17.72965 ; skirt
G1 X43.784 Y177.122 E17.76595 ; skirt
G1 X42.847 Y175.514 E17.84386 ; skirt
G1 X42.182 Y173.886 E17.91747 ; skirt
G1 X41.863 Y172.887 E17.96137 ; skirt
G1 X41.122 Y169.536 E18.10503 ; skirt
G1 X40.77 Y166.502 E18.23289 ; skirt
G1 X40.747 Y162.884 E18.38434 ; skirt
G1 X50.404 Y64.293 E22.53114 ; skirt
G1 X51.02 Y62.076 E22.62746 ; skirt
G1 X52.431 Y60.14 E22.72774 ; skirt
M204 S2500 ; adjust acceleration
G1 X52.696 Y60.336 F7800 ; move to first skirt point
M204 S2000 ; adjust acceleration
G1 F1800
G1 X53.603 Y59.574 E22.77733 ; skirt
G1 X111.792 Y18.947 E25.74809 ; skirt
G1 X113.111 Y18.23 E25.81093 ; skirt
G1 X115.284 Y17.674 E25.90482 ; skirt
G1 X117.514 Y17.909 E25.99869 ; skirt
G1 X119.629 Y18.984 E26.098 ; skirt
G1 X121.177 Y20.606 E26.19186 ; skirt
G1 X121.845 Y21.931 E26.25397 ; skirt
G1 X168.066 Y148.791 E31.90586 ; skirt
G1 X168.41 Y149.981 E31.95771 ; skirt
G1 X168.639 Y151.225 E32.01066 ; skirt
G1 X168.918 Y154.645 E32.1543 ; skirt
G1 X168.933 Y157.467 E32.27243 ; skirt
G1 X168.768 Y160.355 E32.39352 ; skirt
G1 X167.983 Y166.461 E32.65122 ; skirt
G1 X167.052 Y170.676 E32.83191 ; skirt
G1 X166.309 Y172.872 E32.92895 ; skirt
G1 X165.515 Y174.377 E33.00018 ; skirt
G1 X165.014 Y175.079 E33.03628 ; skirt
G1 X163.805 Y176.354 E33.10983 ; skirt
G1 X149.655 Y187.628 E33.86717 ; skirt
G1 X146.844 Y189.728 E34.01405 ; skirt
G1 X143.996 Y191.382 E34.15191 ; skirt
G1 X142.371 Y192.016 E34.22493 ; skirt
G1 X141.72 Y192.171 E34.25294 ; skirt
G1 X139.571 Y192.306 E34.34308 ; skirt
G1 X66.831 Y184.425 E37.40582 ; skirt
G1 X65.987 Y184.276 E37.4417 ; skirt
G1 X48.034 Y179.822 E38.216 ; skirt
G1 X45.988 Y178.905 E38.30985 ; skirt
G1 X44.585 Y177.595 E38.3902 ; skirt
G1 X44.048 Y176.914 E38.4265 ; skirt
G1 X43.158 Y175.387 E38.50049 ; skirt
G1 X42.493 Y173.759 E38.5741 ; skirt
G1 X42.19 Y172.811 E38.61576 ; skirt
G1 X41.456 Y169.498 E38.75781 ; skirt
G1 X41.104 Y166.464 E38.88567 ; skirt
G1 X41.083 Y162.887 E39.03541 ; skirt
G1 X50.738 Y64.326 E43.18095 ; skirt
G1 X51.348 Y62.168 E43.27482 ; skirt
G1 X52.661 Y60.384 E43.36754 ; skirt
; printing object Christmas_2021_Series_1_Deer_Line_rt.stl id:0 copy 0
G1 E41.36754 F2400 ; retract
G92 E0 ; reset extrusion distance
M204 S2500 ; adjust acceleration
G1 X101.923 Y118.528 F7800 ; move to first perimeter point
G1 E2 F2400 ;  ; unretract
M204 S2000 ; adjust acceleration
;TYPE:Perimeter
;WIDTH:0.4
G1 F1800
G1 X101.678 Y118.747 E2.01376 ; perimeter
G1 X100.913 Y119.084 E2.04875 ; perimeter
G1 X98.615 Y119.624 E2.14757 ; perimeter
G1 X98.378 Y119.739 E2.1586 ; perimeter
G1 X98.468 Y118.717 E2.20155 ; perimeter
G1 X98.604 Y118.239 E2.22235 ; perimeter
G1 X98.746 Y118.06 E2.23191 ; perimeter
G1 X98.94 Y117.945 E2.24135 ; perimeter
G1 X99.392 Y117.789 E2.26137 ; perimeter
G1 X99.957 Y117.738 E2.28512 ; perimeter
G1 X101.106 Y117.978 E2.33426 ; perimeter
G1 X101.528 Y118.171 E2.35368 ; perimeter
G1 X101.7 Y118.299 E2.36265 ; perimeter
G1 X101.881 Y118.485 E2.37351 ; perimeter
M204 S2500 ; adjust acceleration
G1 X102.214 Y118.717 F7800 ; move to first perimeter point
M204 S2000 ; adjust acceleration
G1 F1800
G1 X101.863 Y119.032 E2.39325 ; perimeter
G1 X101.02 Y119.403 E2.4318 ; perimeter
G1 X98.692 Y119.951 E2.53191 ; perimeter
G1 X98.295 Y120.17 E2.55089 ; perimeter
G1 X97.991 Y120.471 E2.5688 ; perimeter
G1 X97.886 Y120.358 E2.57526 ; perimeter
G1 X98.005 Y120.028 E2.58994 ; perimeter
G1 X98.072 Y119.469 E2.61351 ; perimeter
G1 X98.143 Y118.566 E2.65143 ; perimeter
G1 X98.303 Y118.078 E2.67293 ; perimeter
G1 X98.522 Y117.803 E2.68765 ; perimeter
G1 X98.898 Y117.579 E2.70597 ; perimeter
G1 X99.42 Y117.433 E2.72866 ; perimeter
G1 X99.982 Y117.401 E2.75222 ; perimeter
G1 X101.174 Y117.65 E2.80319 ; perimeter
G1 X101.679 Y117.871 E2.82627 ; perimeter
G1 X102.037 Y118.139 E2.84499 ; perimeter
G1 X102.197 Y118.335 E2.85558 ; perimeter
G1 X102.277 Y118.522 E2.86409 ; perimeter
G1 X102.232 Y118.66 E2.87017 ; perimeter
M204 S2500 ; adjust acceleration
G1 X102.505 Y118.907 F7800 ; move to first perimeter point
M204 S2000 ; adjust acceleration
G1 F1800
G1 X102.047 Y119.318 E2.89593 ; perimeter
G1 X101.127 Y119.723 E2.93801 ; perimeter
G1 X98.769 Y120.278 E3.03941 ; perimeter
G1 X98.531 Y120.409 E3.05078 ; perimeter
G1 X98.065 Y120.871 E3.07825 ; perimeter
G1 X97.96 Y121.141 E3.09038 ; perimeter
G1 X97.84 Y120.841 E3.10391 ; perimeter
G1 X97.712 Y120.644 E3.11374 ; perimeter
G1 X97.445 Y120.512 E3.12621 ; perimeter
G1 X97.17 Y120.506 E3.13772 ; perimeter
G1 X97.561 Y120.247 E3.15735 ; perimeter
G1 X97.672 Y119.987 E3.16918 ; perimeter
G1 X97.737 Y119.443 E3.19211 ; perimeter
G1 X97.812 Y118.499 E3.23175 ; perimeter
G1 X98.003 Y117.916 E3.25743 ; perimeter
G1 X98.297 Y117.546 E3.27721 ; perimeter
G1 X98.765 Y117.268 E3.3 ; perimeter
G1 X99.364 Y117.1 E3.32604 ; perimeter
G1 X100.007 Y117.063 E3.353 ; perimeter
G1 X101.395 Y117.353 E3.41236 ; perimeter
G1 X101.829 Y117.571 E3.43269 ; perimeter
G1 X102.247 Y117.877 E3.45438 ; perimeter
G1 X102.564 Y118.273 E3.47561 ; perimeter
G1 X102.625 Y118.537 E3.48695 ; perimeter
G1 X102.524 Y118.849 E3.50068 ; perimeter
G1 E1.50068 F2400 ; retract
G92 E0 ; reset extrusion distance
M204 S2500 ; adjust acceleration
G1 X89.742 Y120.858 F7800 ; move to first perimeter point
G1 E2 F2400 ;  ; unretract
M204 S2000 ; adjust acceleration
;WIDTH:0.398425
G1 F1800
G1 X89.679 Y120.645 E2.00925 ; perimeter
G1 X89.565 Y120.495 E2.0171 ; perimeter
;WIDTH:0.439118
G1 X89.419 Y120.335 E2.02722 ; perimeter
;WIDTH:0.479812
G1 X89.272 Y120.175 E2.03848 ; perimeter
;WIDTH:0.520506
G1 X89.125 Y120.014 E2.05088 ; perimeter
G1 X89.155 Y120.019 E2.05261 ; perimeter
;WIDTH:0.51138
G1 X89.434 Y120.134 E2.06943 ; perimeter
;WIDTH:0.473728
G1 X89.714 Y120.249 E2.08488 ; perimeter
;WIDTH:0.436076
G1 X89.993 Y120.364 E2.09887 ; perimeter
;WIDTH:0.398425
G1 X89.864 Y120.505 E2.10683 ; perimeter
G1 X89.762 Y120.801 E2.11987 ; perimeter
G1 E.11987 F2400 ; retract
G92 E0 ; reset extrusion distance
M204 S2500 ; adjust acceleration
G1 X87.703 Y119.172 F7800 ; move to first perimeter point
G1 E2 F2400 ;  ; unretract
M204 S2000 ; adjust acceleration
;WIDTH:0.354851
G1 F1800
G1 X86.841 Y118.841 E2.03345 ; perimeter
;WIDTH:0.372557
G1 X85.683 Y118.387 E2.08126 ; perimeter
;WIDTH:0.421028
G1 X85.617 Y118.336 E2.08497 ; perimeter
;WIDTH:0.4695
G1 X85.551 Y118.284 E2.08922 ; perimeter
;WIDTH:0.517971
G1 X85.485 Y118.233 E2.09394 ; perimeter
;WIDTH:0.566443
G1 X85.418 Y118.181 E2.09925 ; perimeter
;WIDTH:0.614915
G1 X85.352 Y118.13 E2.10498 ; perimeter
G1 X85.436 Y118.123 E2.11077 ; perimeter
;WIDTH:0.566443
G1 X85.519 Y118.115 E2.11599 ; perimeter
;WIDTH:0.517971
G1 X85.602 Y118.107 E2.12071 ; perimeter
;WIDTH:0.4695
G1 X85.686 Y118.1 E2.12497 ; perimeter
;WIDTH:0.421028
G1 X85.769 Y118.092 E2.12868 ; perimeter
;WIDTH:0.403571
G1 X86.18 Y118.199 E2.14665 ; perimeter
G1 X86.973 Y118.584 E2.18394 ; perimeter
;WIDTH:0.354851
G1 X87.657 Y119.135 E2.21576 ; perimeter
M204 S2500 ; adjust acceleration
G1 X89.005 Y119.938 F7800 ; move to first perimeter point
M204 S2000 ; adjust acceleration
;WIDTH:0.531843
G1 F1800
G1 X88.97 Y119.93 E2.21785 ; perimeter
;WIDTH:0.519994
G1 X88.624 Y119.818 E2.23852 ; perimeter
;WIDTH:0.479996
G1 X88.278 Y119.707 E2.25736 ; perimeter
;WIDTH:0.439998
G1 X87.932 Y119.595 E2.2744 ; perimeter
;WIDTH:0.4
G1 X84.394 Y118.237 E2.43304 ; perimeter
G1 X83.84 Y117.938 E2.45939 ; perimeter
G1 X83.677 Y117.773 E2.4691 ; perimeter
G1 X84.268 Y117.725 E2.49392 ; perimeter
G1 X85.389 Y117.685 E2.54088 ; perimeter
G1 X86.273 Y117.867 E2.57866 ; perimeter
G1 X87.146 Y118.32 E2.61983 ; perimeter
G1 X88.188 Y119.162 E2.67591 ; perimeter
;WIDTH:0.439998
G1 X88.453 Y119.411 E2.69295 ; perimeter
;WIDTH:0.479996
G1 X88.717 Y119.661 E2.7118 ; perimeter
;WIDTH:0.519994
G1 X88.964 Y119.894 E2.7311 ; perimeter
G1 E.7311 F2400 ; retract
G92 E0 ; reset extrusion distance
M204 S2500 ; adjust acceleration
G1 X82.719 Y117.391 F7800 ; move to first perimeter point
G1 E2 F2400 ;  ; unretract
M204 S2000 ; adjust acceleration
;WIDTH:0.352331
G1 F1800
G1 X82.522 Y117.425 E2.00718 ; perimeter
G1 X82.112 Y117.715 E2.02522 ; perimeter
G1 X82.483 Y116.901 E2.05735 ; perimeter
G1 X82.613 Y117.237 E2.07029 ; perimeter
G1 X82.685 Y117.342 E2.07486 ; perimeter
G1 E.07486 F2400 ; retract
G92 E0 ; reset extrusion distance
M204 S2500 ; adjust acceleration
G1 X76.84 Y140.569 F7800 ; move to first perimeter point
G1 E2 F2400 ;  ; unretract
M204 S2000 ; adjust acceleration
;WIDTH:0.4
G1 F1800
G1 X76.367 Y139.079 E2.06544 ; perimeter
G1 X76.141 Y138.066 E2.10889 ; perimeter
G1 X76.424 Y138.253 E2.12309 ; perimeter
G1 X76.592 Y138.252 E2.13012 ; perimeter
G1 X76.982 Y138.002 E2.14951 ; perimeter
G1 X76.844 Y140.509 E2.25461 ; perimeter
M204 S2500 ; adjust acceleration
G1 X76.629 Y138.556 F7800 ; move to first perimeter point
M204 S2000 ; adjust acceleration
;WIDTH:0.410897
G1 F1800
G1 X76.564 Y138.593 E2.25784 ; perimeter
G1 X76.629 Y138.631 E2.26109 ; perimeter
G1 X76.651 Y138.593 E2.26299 ; perimeter
G1 E.26299 F2400 ; retract
G92 E0 ; reset extrusion distance
M204 S2500 ; adjust acceleration
G1 X72.204 Y153.089 F7800 ; move to first perimeter point
G1 E2 F2400 ;  ; unretract
M204 S2000 ; adjust acceleration
;WIDTH:0.4
G1 F1800
G1 X72.97 Y154.115 E2.0536 ; perimeter
;WIDTH:0.403906
G1 X73.536 Y154.992 E2.0978 ; perimeter
;WIDTH:0.420968
G1 X73.557 Y155.072 E2.10148 ; perimeter
;WIDTH:0.469601
G1 X73.579 Y155.153 E2.10572 ; perimeter
;WIDTH:0.518233
G1 X73.601 Y155.233 E2.11042 ; perimeter
;WIDTH:0.566866
G1 X73.622 Y155.314 E2.11566 ; perimeter
;WIDTH:0.615499
G1 X73.644 Y155.394 E2.12136 ; perimeter
G1 X73.573 Y155.35 E2.1271 ; perimeter
;WIDTH:0.566866
G1 X73.502 Y155.306 E2.13233 ; perimeter
;WIDTH:0.518233
G1 X73.431 Y155.263 E2.13703 ; perimeter
;WIDTH:0.469601
G1 X73.36 Y155.219 E2.14125 ; perimeter
;WIDTH:0.420968
G1 X73.29 Y155.175 E2.14493 ; perimeter
;WIDTH:0.403906
G1 X72.983 Y154.811 E2.16509 ; perimeter
G1 X72.569 Y154.46 E2.18807 ; perimeter
;WIDTH:0.4
G1 X71.46 Y153.514 E2.24909 ; perimeter
G1 X71.965 Y153.448 E2.27041 ; perimeter
G1 X72.198 Y153.148 E2.28631 ; perimeter
M204 S2500 ; adjust acceleration
G1 X72.24 Y153.655 F7800 ; move to first perimeter point
M204 S2000 ; adjust acceleration
;WIDTH:0.435123
G1 F1800
G1 X72.171 Y153.696 E2.29002 ; perimeter
G1 X72.24 Y153.736 E2.29371 ; perimeter
G1 X72.263 Y153.696 E2.29584 ; perimeter
G1 E.29584 F2400 ; retract
G92 E0 ; reset extrusion distance
M204 S2500 ; adjust acceleration
G1 X70.664 Y165.007 F7800 ; move to first perimeter point
G1 E2 F2400 ;  ; unretract
M204 S2000 ; adjust acceleration
;WIDTH:0.361719
G1 F1800
G1 X71.353 Y165.438 E2.03014 ; perimeter
G1 X70.637 Y165.501 E2.0568 ; perimeter
G1 X70.749 Y165.29 E2.06566 ; perimeter
G1 X70.681 Y165.065 E2.07438 ; perimeter
G1 E.07438 F2400 ; retract
G92 E0 ; reset extrusion distance
M204 S2500 ; adjust acceleration
G1 X64.585 Y174.911 F7800 ; move to first perimeter point
G1 E2 F2400 ;  ; unretract
M204 S2000 ; adjust acceleration
;WIDTH:0.520583
G1 F1800
G1 X65.928 Y176.515 E2.11903 ; perimeter
G1 X64.335 Y175.432 E2.22864 ; perimeter
G1 X64.597 Y175.161 E2.25009 ; perimeter
G1 X64.588 Y174.97 E2.26097 ; perimeter
G1 E.26097 F2400 ; retract
G92 E0 ; reset extrusion distance
M204 S2500 ; adjust acceleration
G1 X49.232 Y170.148 F7800 ; move to first perimeter point
G1 E2 F2400 ;  ; unretract
M204 S2000 ; adjust acceleration
;WIDTH:0.461276
G1 F1800
G1 X49.185 Y171.631 E2.07345 ; perimeter
G1 X48.994 Y171.16 E2.09861 ; perimeter
G1 X48.761 Y170.188 E2.14809 ; perimeter
G1 X49.034 Y170.238 E2.16183 ; perimeter
G1 X49.178 Y170.173 E2.16965 ; perimeter
G1 E.16965 F2400 ; retract
G92 E0 ; reset extrusion distance
M204 S2500 ; adjust acceleration
G1 X71.932 Y152.947 F7800 ; move to first perimeter point
G1 E2 F2400 ;  ; unretract
M204 S2000 ; adjust acceleration
;TYPE:External perimeter
;WIDTH:0.4
G1 F1800
G1 X71.726 Y153.212 E2.01405 ; perimeter
;WIDTH:0.442293
G1 X71.647 Y153.239 E2.01799 ; perimeter
;WIDTH:0.484586
G1 X71.568 Y153.266 E2.02237 ; perimeter
;WIDTH:0.52688
G1 X71.489 Y153.293 E2.02719 ; perimeter
G1 X71.073 Y153.023 E2.0558 ; perimeter
;WIDTH:0.484258
G1 X70.658 Y152.752 E2.08176 ; perimeter
;WIDTH:0.441636
G1 X70.615 Y152.725 E2.08415 ; perimeter
;WIDTH:0.439
G1 X69.699 Y152.171 E2.13417 ; perimeter
;WIDTH:0.418722
G1 X69.296 Y151.945 E2.15459 ; perimeter
;WIDTH:0.416814
G1 X68.095 Y151.31 E2.21431 ; perimeter
G1 X66.842 Y150.864 E2.27277 ; perimeter
;WIDTH:0.420583
G1 X66.733 Y150.833 E2.2778 ; perimeter
G1 X65.689 Y150.718 E2.32446 ; perimeter
;WIDTH:0.403707
G1 X64.868 Y150.83 E2.35953 ; perimeter
;WIDTH:0.416658
G1 X64.459 Y150.92 E2.37793 ; perimeter
;WIDTH:0.436413
G1 X63.615 Y151.329 E2.42145 ; perimeter
G1 X62.894 Y151.864 E2.46311 ; perimeter
;WIDTH:0.446984
G1 X62.586 Y152.237 E2.48619 ; perimeter
;WIDTH:0.473802
G1 X62.278 Y152.61 E2.51089 ; perimeter
G1 X61.944 Y153.201 E2.54556 ; perimeter
;WIDTH:0.471599
G1 X61.812 Y153.48 E2.56124 ; perimeter
;WIDTH:0.494206
G1 X61.548 Y154.399 E2.6125 ; perimeter
G1 X61.469 Y154.941 E2.64186 ; perimeter
;WIDTH:0.485637
G1 X61.423 Y155.493 E2.67096 ; perimeter
G1 X61.462 Y156.54 E2.72601 ; perimeter
;WIDTH:0.451027
G1 X61.705 Y157.83 E2.78931 ; perimeter
;WIDTH:0.435843
G1 X61.805 Y158.111 E2.80313 ; perimeter
;WIDTH:0.424737
G1 X62.226 Y159.101 E2.85148 ; perimeter
G1 X62.416 Y159.381 E2.86669 ; perimeter
;WIDTH:0.407674
G1 X63.097 Y160.251 E2.914 ; perimeter
G1 X63.269 Y160.403 E2.92383 ; perimeter
;WIDTH:0.424435
G1 X64.32 Y161.217 E2.98353 ; perimeter
G1 X65.071 Y161.711 E3.0239 ; perimeter
;WIDTH:0.411479
G1 X65.091 Y161.723 E3.02491 ; perimeter
;WIDTH:0.423035
G1 X69.982 Y164.655 E3.28 ; perimeter
;WIDTH:0.421127
G1 X70.393 Y165.074 E3.30612 ; perimeter
;WIDTH:0.4
