
; ### Ellis' Pressure Advance / Linear Advance Calibration Tool ###
;
; Original Marlin linear advance calibration tool by Sineos [https://github.com/Sineos]
; Heavily modified/rewritten by Andrew Ellis [https://github.com/AndrewEllis93]
;
; -------------------------------------------
; Generated: Sat Oct 21 2023 19:07:18 GMT+0200 (Central European Summer Time)
; -------------------------------------------
;
; Advanced Mode: false
;
; Printer:
;  - Firmware: klipper
;  - Bed Shape: Rect
;  - Bed Size X: 210 mm
;  - Bed Size Y: 210 mm
;  - Origin Bed Center: false
;  - Travel Speed: 120 mm/s
;  - Nozzle Diameter: 0.4 mm
;  - Filament Diameter: 1.75 mm
;  - Extrusion Multiplier: 0.98
;
; Retraction / Z Hop:
;  - Retraction Distance: 0.5 mm
;  - Retract Speed: 35 mm/s
;  - Unretract Speed: 35 mm/s
;  - Z Hop Enable: false
;
; First Layer Settings:
;  - First Layer Height: 0.25 mm
;  - First Layer Printing Speed: 30 mm/s
;  - First Layer Fan Speed: 0%
;  - Anchor Option: anchor_frame
;
; Print Settings:
;  - Layer Height: 0.2 mm
;  - Print Speed: 60 mm/s
;  - Acceleration: 1500 mm/s^2
;  - Fan Speed: 100%
;
; Pressure Advance Stepping:
;  - PA Start Value: 0
;  - PA End Value: 0.08
;  - PA Increment: 0.005
;
; Start / End G-code:
;  - Hotend Temp: 210C
;  - Bed Temp: 60C
;  - Don't Add G28: false
;  - Don't Add Heating G-Codes: false
;
; Calculated Values:
;  - Print Size X: 84.72 mm
;  - Print Size Y: 53.99 mm
;  - Number of Patterns to Print: 17
;  - PA Values: 0, 0.005, 0.01, 0.015, 0.02, 0.025, 0.03, 0.035, 0.04, 0.045, 0.05, 0.055, 0.06, 0.065, 0.07, 0.075, 0.08
;
; Prepare printing
;
G28 ; Home all axes
M190 S60 ; Set & wait for bed temp
M109 S210 ; Set & wait for hotend temp
M190 S60 ; Set & wait for bed temp
M109 S200 ; Set & wait for hotend temp
PRINT_START ; Start macro
; START_PRINT ; Start macro (alternate / official start macro name)
G21 ; Millimeter units
G90 ; Absolute XYZ
M83 ; Relative E
G92 E0 ; Reset extruder distance
G21 ; Millimeter units
G90 ; Absolute XYZ
M83 ; Relative E
G92 E0 ; Reset extruder distance
;
;  Begin printing
;
M106 S0 ; Set fan speed
SET_VELOCITY_LIMIT ACCEL=1500 ; Set printing acceleration
G1 E-0.5 F2100 ; Retract
G0 Z5 F7200 ; Z raise
G0 X62.6417 Y78.0068 F7200 ; Move to start position
G0 Z0.25 F7200 ; Move to start layer height
G1 E0.5 F2100 ; Un-retract
SET_PRESSURE_ADVANCE ADVANCE=0 ; Set pressure advance to start value
M117 PA 0
G1 X62.6417 Y120.4332 E2.1882 F1800 ; Draw perimeter (up)
G1 X147.3583 Y120.4332 E4.36937 F1800 ; Draw perimeter (right)
G1 X147.3583 Y78.0068 E2.1882 F1800 ; Draw perimeter (down)
G1 X62.6417 Y78.0068 E4.36937 F1800 ; Draw perimeter (left)
G0 X63.148 Y78.5131 F7200 ; Step inwards to print next perimeter
G1 X63.148 Y119.9269 E2.13597 F1800 ; Draw perimeter (up)
G1 X146.852 Y119.9269 E4.31714 F1800 ; Draw perimeter (right)
G1 X146.852 Y78.5131 E2.13597 F1800 ; Draw perimeter (down)
G1 X63.148 Y78.5131 E4.31714 F1800 ; Draw perimeter (left)
G0 X63.6544 Y79.0195 F7200 ; Step inwards to print next perimeter
G1 X63.6544 Y119.4205 E2.08374 F1800 ; Draw perimeter (up)
G1 X146.3456 Y119.4205 E4.26491 F1800 ; Draw perimeter (right)
G1 X146.3456 Y79.0195 E2.08374 F1800 ; Draw perimeter (down)
G1 X63.6544 Y79.0195 E4.26491 F1800 ; Draw perimeter (left)
G0 X64.1607 Y79.5258 F7200 ; Step inwards to print next perimeter
G1 X64.1607 Y118.9142 E2.0315 F1800 ; Draw perimeter (up)
G1 X145.8393 Y118.9142 E4.21268 F1800 ; Draw perimeter (right)
G1 X145.8393 Y79.5258 E2.0315 F1800 ; Draw perimeter (down)
G1 X64.1607 Y79.5258 E4.21268 F1800 ; Draw perimeter (left)
G1 E-0.5 F2100 ; Retract
G0 X62.6417 Y120.9396 F7200 ; Move to box start
G1 E0.5 F2100 ; Un-retract
G1 X62.6417 Y132.4459 E0.59346 F1800 ; Draw perimeter (up)
G1 X126.8962 Y132.4459 E3.31401 F1800 ; Draw perimeter (right)
G1 X126.8962 Y120.9396 E0.59346 F1800 ; Draw perimeter (down)
G1 X62.6417 Y120.9396 E3.31401 F1800 ; Draw perimeter (left)
G0 X63.148 Y121.4459 F7200 ; Step inwards to print next perimeter
G1 X63.148 Y131.9396 E0.54122 F1800 ; Draw perimeter (up)
G1 X126.3898 Y131.9396 E3.26178 F1800 ; Draw perimeter (right)
G1 X126.3898 Y121.4459 E0.54122 F1800 ; Draw perimeter (down)
G1 X63.148 Y121.4459 E3.26178 F1800 ; Draw perimeter (left)
G0 X63.6544 Y121.9523 F7200 ; Step inwards to print next perimeter
G1 X63.6544 Y131.4332 E0.48899 F1800 ; Draw perimeter (up)
G1 X125.8835 Y131.4332 E3.20955 F1800 ; Draw perimeter (right)
G1 X125.8835 Y121.9523 E0.48899 F1800 ; Draw perimeter (down)
G1 X63.6544 Y121.9523 E3.20955 F1800 ; Draw perimeter (left)
G0 X64.1607 Y122.4586 F7200 ; Step inwards to print next perimeter
G1 X64.1607 Y130.9269 E0.43676 F1800 ; Draw perimeter (up)
G1 X125.3771 Y130.9269 E3.15732 F1800 ; Draw perimeter (right)
G1 X125.3771 Y122.4586 E0.43676 F1800 ; Draw perimeter (down)
G1 X64.1607 Y122.4586 E3.15732 F1800 ; Draw perimeter (left)
G0 X64.5341 Y122.8319 F7200 ; Move to fill start
G0 X65.2502 Y122.8319 F7200 ; Move
G1 X64.5341 Y123.548 E0.05223 F1800 ; Fill
G0 X64.5341 Y124.2641 F7200 ; Move
G1 X65.9663 Y122.8319 E0.10446 F1800 ; Fill
G0 X66.6823 Y122.8319 F7200 ; Move
G1 X64.5341 Y124.9802 E0.15669 F1800 ; Fill
G0 X64.5341 Y125.6963 F7200 ; Move
G1 X67.3984 Y122.8319 E0.20893 F1800 ; Fill
G0 X68.1145 Y122.8319 F7200 ; Move
G1 X64.5341 Y126.4124 E0.26116 F1800 ; Fill
G0 X64.5341 Y127.1285 F7200 ; Move
G1 X68.8306 Y122.8319 E0.31339 F1800 ; Fill
G0 X69.5467 Y122.8319 F7200 ; Move
G1 X64.5341 Y127.8445 E0.36562 F1800 ; Fill
G0 X64.5341 Y128.5606 F7200 ; Move
G1 X70.2628 Y122.8319 E0.41785 F1800 ; Fill
G0 X70.9789 Y122.8319 F7200 ; Move
G1 X64.5341 Y129.2767 E0.47008 F1800 ; Fill
G0 X64.5341 Y129.9928 F7200 ; Move
G1 X71.6949 Y122.8319 E0.52231 F1800 ; Fill
G0 X72.411 Y122.8319 F7200 ; Move
G1 X64.6894 Y130.5535 E0.56321 F1800 ; Fill
G0 X65.4055 Y130.5535 F7200 ; Move
G1 X73.1271 Y122.8319 E0.56321 F1800 ; Fill
G0 X73.8432 Y122.8319 F7200 ; Move
G1 X66.1216 Y130.5535 E0.56321 F1800 ; Fill
G0 X66.8377 Y130.5535 F7200 ; Move
G1 X74.5593 Y122.8319 E0.56321 F1800 ; Fill
G0 X75.2754 Y122.8319 F7200 ; Move
G1 X67.5538 Y130.5535 E0.56321 F1800 ; Fill
G0 X68.2699 Y130.5535 F7200 ; Move
G1 X75.9915 Y122.8319 E0.56321 F1800 ; Fill
G0 X76.7076 Y122.8319 F7200 ; Move
G1 X68.986 Y130.5535 E0.56321 F1800 ; Fill
G0 X69.7021 Y130.5535 F7200 ; Move
G1 X77.4236 Y122.8319 E0.56321 F1800 ; Fill
G0 X78.1397 Y122.8319 F7200 ; Move
G1 X70.4181 Y130.5535 E0.56321 F1800 ; Fill
G0 X71.1342 Y130.5535 F7200 ; Move
G1 X78.8558 Y122.8319 E0.56321 F1800 ; Fill
G0 X79.5719 Y122.8319 F7200 ; Move
G1 X71.8503 Y130.5535 E0.56321 F1800 ; Fill
G0 X72.5664 Y130.5535 F7200 ; Move
G1 X80.288 Y122.8319 E0.56321 F1800 ; Fill
G0 X81.0041 Y122.8319 F7200 ; Move
G1 X73.2825 Y130.5535 E0.56321 F1800 ; Fill
G0 X73.9986 Y130.5535 F7200 ; Move
G1 X81.7202 Y122.8319 E0.56321 F1800 ; Fill
G0 X82.4362 Y122.8319 F7200 ; Move
G1 X74.7147 Y130.5535 E0.56321 F1800 ; Fill
G0 X75.4307 Y130.5535 F7200 ; Move
G1 X83.1523 Y122.8319 E0.56321 F1800 ; Fill
G0 X83.8684 Y122.8319 F7200 ; Move
G1 X76.1468 Y130.5535 E0.56321 F1800 ; Fill
G0 X76.8629 Y130.5535 F7200 ; Move
G1 X84.5845 Y122.8319 E0.56321 F1800 ; Fill
G0 X85.3006 Y122.8319 F7200 ; Move
G1 X77.579 Y130.5535 E0.56321 F1800 ; Fill
G0 X78.2951 Y130.5535 F7200 ; Move
G1 X86.0167 Y122.8319 E0.56321 F1800 ; Fill
G0 X86.7328 Y122.8319 F7200 ; Move
G1 X79.0112 Y130.5535 E0.56321 F1800 ; Fill
G0 X79.7273 Y130.5535 F7200 ; Move
G1 X87.4488 Y122.8319 E0.56321 F1800 ; Fill
G0 X88.1649 Y122.8319 F7200 ; Move
G1 X80.4433 Y130.5535 E0.56321 F1800 ; Fill
G0 X81.1594 Y130.5535 F7200 ; Move
G1 X88.881 Y122.8319 E0.56321 F1800 ; Fill
G0 X89.5971 Y122.8319 F7200 ; Move
G1 X81.8755 Y130.5535 E0.56321 F1800 ; Fill
G0 X82.5916 Y130.5535 F7200 ; Move
G1 X90.3132 Y122.8319 E0.56321 F1800 ; Fill
G0 X91.0293 Y122.8319 F7200 ; Move
G1 X83.3077 Y130.5535 E0.56321 F1800 ; Fill
G0 X84.0238 Y130.5535 F7200 ; Move
G1 X91.7454 Y122.8319 E0.56321 F1800 ; Fill
G0 X92.4615 Y122.8319 F7200 ; Move
G1 X84.7399 Y130.5535 E0.56321 F1800 ; Fill
G0 X85.456 Y130.5535 F7200 ; Move
G1 X93.1775 Y122.8319 E0.56321 F1800 ; Fill
G0 X93.8936 Y122.8319 F7200 ; Move
G1 X86.172 Y130.5535 E0.56321 F1800 ; Fill
G0 X86.8881 Y130.5535 F7200 ; Move
G1 X94.6097 Y122.8319 E0.56321 F1800 ; Fill
G0 X95.3258 Y122.8319 F7200 ; Move
G1 X87.6042 Y130.5535 E0.56321 F1800 ; Fill
G0 X88.3203 Y130.5535 F7200 ; Move
G1 X96.0419 Y122.8319 E0.56321 F1800 ; Fill
G0 X96.758 Y122.8319 F7200 ; Move
G1 X89.0364 Y130.5535 E0.56321 F1800 ; Fill
G0 X89.7525 Y130.5535 F7200 ; Move
G1 X97.4741 Y122.8319 E0.56321 F1800 ; Fill
G0 X98.1901 Y122.8319 F7200 ; Move
G1 X90.4686 Y130.5535 E0.56321 F1800 ; Fill
G0 X91.1846 Y130.5535 F7200 ; Move
G1 X98.9062 Y122.8319 E0.56321 F1800 ; Fill
G0 X99.6223 Y122.8319 F7200 ; Move
G1 X91.9007 Y130.5535 E0.56321 F1800 ; Fill
G0 X92.6168 Y130.5535 F7200 ; Move
G1 X100.3384 Y122.8319 E0.56321 F1800 ; Fill
G0 X101.0545 Y122.8319 F7200 ; Move
G1 X93.3329 Y130.5535 E0.56321 F1800 ; Fill
G0 X94.049 Y130.5535 F7200 ; Move
G1 X101.7706 Y122.8319 E0.56321 F1800 ; Fill
G0 X102.4867 Y122.8319 F7200 ; Move
G1 X94.7651 Y130.5535 E0.56321 F1800 ; Fill
G0 X95.4812 Y130.5535 F7200 ; Move
G1 X103.2027 Y122.8319 E0.56321 F1800 ; Fill
G0 X103.9188 Y122.8319 F7200 ; Move
G1 X96.1972 Y130.5535 E0.56321 F1800 ; Fill
G0 X96.9133 Y130.5535 F7200 ; Move
G1 X104.6349 Y122.8319 E0.56321 F1800 ; Fill
G0 X105.351 Y122.8319 F7200 ; Move
G1 X97.6294 Y130.5535 E0.56321 F1800 ; Fill
G0 X98.3455 Y130.5535 F7200 ; Move
G1 X106.0671 Y122.8319 E0.56321 F1800 ; Fill
G0 X106.7832 Y122.8319 F7200 ; Move
G1 X99.0616 Y130.5535 E0.56321 F1800 ; Fill
G0 X99.7777 Y130.5535 F7200 ; Move
G1 X107.4993 Y122.8319 E0.56321 F1800 ; Fill
G0 X108.2154 Y122.8319 F7200 ; Move
G1 X100.4938 Y130.5535 E0.56321 F1800 ; Fill
G0 X101.2099 Y130.5535 F7200 ; Move
G1 X108.9314 Y122.8319 E0.56321 F1800 ; Fill
G0 X109.6475 Y122.8319 F7200 ; Move
G1 X101.9259 Y130.5535 E0.56321 F1800 ; Fill
G0 X102.642 Y130.5535 F7200 ; Move
G1 X110.3636 Y122.8319 E0.56321 F1800 ; Fill
G0 X111.0797 Y122.8319 F7200 ; Move
G1 X103.3581 Y130.5535 E0.56321 F1800 ; Fill
G0 X104.0742 Y130.5535 F7200 ; Move
G1 X111.7958 Y122.8319 E0.56321 F1800 ; Fill
G0 X112.5119 Y122.8319 F7200 ; Move
G1 X104.7903 Y130.5535 E0.56321 F1800 ; Fill
G0 X105.5064 Y130.5535 F7200 ; Move
G1 X113.228 Y122.8319 E0.56321 F1800 ; Fill
G0 X113.944 Y122.8319 F7200 ; Move
G1 X106.2225 Y130.5535 E0.56321 F1800 ; Fill
G0 X106.9385 Y130.5535 F7200 ; Move
G1 X114.6601 Y122.8319 E0.56321 F1800 ; Fill
G0 X115.3762 Y122.8319 F7200 ; Move
G1 X107.6546 Y130.5535 E0.56321 F1800 ; Fill
G0 X108.3707 Y130.5535 F7200 ; Move
G1 X116.0923 Y122.8319 E0.56321 F1800 ; Fill
G0 X116.8084 Y122.8319 F7200 ; Move
G1 X109.0868 Y130.5535 E0.56321 F1800 ; Fill
G0 X109.8029 Y130.5535 F7200 ; Move
G1 X117.5245 Y122.8319 E0.56321 F1800 ; Fill
G0 X118.2406 Y122.8319 F7200 ; Move
G1 X110.519 Y130.5535 E0.56321 F1800 ; Fill
G0 X111.2351 Y130.5535 F7200 ; Move
G1 X118.9566 Y122.8319 E0.56321 F1800 ; Fill
G0 X119.6727 Y122.8319 F7200 ; Move
G1 X111.9511 Y130.5535 E0.56321 F1800 ; Fill
G0 X112.6672 Y130.5535 F7200 ; Move
G1 X120.3888 Y122.8319 E0.56321 F1800 ; Fill
G0 X121.1049 Y122.8319 F7200 ; Move
G1 X113.3833 Y130.5535 E0.56321 F1800 ; Fill
G0 X114.0994 Y130.5535 F7200 ; Move
G1 X121.821 Y122.8319 E0.56321 F1800 ; Fill
G0 X122.5371 Y122.8319 F7200 ; Move
G1 X114.8155 Y130.5535 E0.56321 F1800 ; Fill
G0 X115.5316 Y130.5535 F7200 ; Move
G1 X123.2532 Y122.8319 E0.56321 F1800 ; Fill
G0 X123.9693 Y122.8319 F7200 ; Move
G1 X116.2477 Y130.5535 E0.56321 F1800 ; Fill
G0 X116.9638 Y130.5535 F7200 ; Move
G1 X124.6853 Y122.8319 E0.56321 F1800 ; Fill
G0 X125.0038 Y123.2296 F7200 ; Move
G1 X117.6798 Y130.5535 E0.53421 F1800 ; Fill
G0 X118.3959 Y130.5535 F7200 ; Move
G1 X125.0038 Y123.9457 E0.48198 F1800 ; Fill
G0 X125.0038 Y124.6617 F7200 ; Move
G1 X119.112 Y130.5535 E0.42975 F1800 ; Fill
G0 X119.8281 Y130.5535 F7200 ; Move
G1 X125.0038 Y125.3778 E0.37751 F1800 ; Fill
G0 X125.0038 Y126.0939 F7200 ; Move
G1 X120.5442 Y130.5535 E0.32528 F1800 ; Fill
G0 X121.2603 Y130.5535 F7200 ; Move
G1 X125.0038 Y126.81 E0.27305 F1800 ; Fill
G0 X125.0038 Y127.5261 F7200 ; Move
G1 X121.9764 Y130.5535 E0.22082 F1800 ; Fill
G0 X122.6924 Y130.5535 F7200 ; Move
G1 X125.0038 Y128.2422 E0.16859 F1800 ; Fill
G0 X125.0038 Y128.9583 F7200 ; Move
G1 X123.4085 Y130.5535 E0.11636 F1800 ; Fill
G0 X124.1246 Y130.5535 F7200 ; Move
G1 X125.0038 Y129.6744 E0.06413 F1800 ; Fill
G0 X125.0038 Y130.3904 F7200 ; Move
G1 X124.8407 Y130.5535 E0.0119 F1800 ; Fill
G0 Z0.25 F7200 ; Move to layer height
G1 E-0.5 F2100 ; Retract
G0 X67.2384 Y79.8992 F7200 ; Move to pattern start

G1 E0.5 F2100 ; Un-retract
SET_PRESSURE_ADVANCE ADVANCE=0 ; Set pressure advance
M117 PA 0
G1 X86.5592 Y99.22 E1.10311 F1800 ; Print pattern wall
G1 X67.2384 Y118.5408 E1.10311 F1800 ; Print pattern wall
G1 E-0.5 F2100 ; Retract
G0 X67.8141 Y79.8992 F7200 ; Move to start next pattern wall
G1 E0.5 F2100 ; Un-retract
G1 X87.1349 Y99.22 E1.10311 F1800 ; Print pattern wall
G1 X67.8141 Y118.5408 E1.10311 F1800 ; Print pattern wall
G1 E-0.5 F2100 ; Retract
G0 X68.3898 Y79.8992 F7200 ; Move to start next pattern wall
G1 E0.5 F2100 ; Un-retract
G1 X87.7106 Y99.22 E1.10311 F1800 ; Print pattern wall
G1 X68.3898 Y118.5408 E1.10311 F1800 ; Print pattern wall
G1 E-0.5 F2100 ; Retract
G0 X70.8398 Y79.8992 F7200 ; Move to next pattern
G1 E0.5 F2100 ; Un-retract
SET_PRESSURE_ADVANCE ADVANCE=0.005 ; Set pressure advance
M117 PA 0.005
G1 X90.1606 Y99.22 E1.10311 F1800 ; Print pattern wall
G1 X70.8398 Y118.5408 E1.10311 F1800 ; Print pattern wall
G1 E-0.5 F2100 ; Retract
G0 X71.4155 Y79.8992 F7200 ; Move to start next pattern wall
G1 E0.5 F2100 ; Un-retract
G1 X90.7363 Y99.22 E1.10311 F1800 ; Print pattern wall
G1 X71.4155 Y118.5408 E1.10311 F1800 ; Print pattern wall
G1 E-0.5 F2100 ; Retract
G0 X71.9912 Y79.8992 F7200 ; Move to start next pattern wall
G1 E0.5 F2100 ; Un-retract
G1 X91.312 Y99.22 E1.10311 F1800 ; Print pattern wall
G1 X71.9912 Y118.5408 E1.10311 F1800 ; Print pattern wall
G1 E-0.5 F2100 ; Retract
G0 X74.4412 Y79.8992 F7200 ; Move to next pattern
G1 E0.5 F2100 ; Un-retract
SET_PRESSURE_ADVANCE ADVANCE=0.01 ; Set pressure advance
M117 PA 0.01
G1 X93.762 Y99.22 E1.10311 F1800 ; Print pattern wall
G1 X74.4412 Y118.5408 E1.10311 F1800 ; Print pattern wall
G1 E-0.5 F2100 ; Retract
G0 X75.0169 Y79.8992 F7200 ; Move to start next pattern wall
G1 E0.5 F2100 ; Un-retract
G1 X94.3377 Y99.22 E1.10311 F1800 ; Print pattern wall
G1 X75.0169 Y118.5408 E1.10311 F1800 ; Print pattern wall
G1 E-0.5 F2100 ; Retract
G0 X75.5926 Y79.8992 F7200 ; Move to start next pattern wall
G1 E0.5 F2100 ; Un-retract
G1 X94.9134 Y99.22 E1.10311 F1800 ; Print pattern wall
G1 X75.5926 Y118.5408 E1.10311 F1800 ; Print pattern wall
G1 E-0.5 F2100 ; Retract
G0 X78.0426 Y79.8992 F7200 ; Move to next pattern
G1 E0.5 F2100 ; Un-retract
SET_PRESSURE_ADVANCE ADVANCE=0.015 ; Set pressure advance
M117 PA 0.015
G1 X97.3634 Y99.22 E1.10311 F1800 ; Print pattern wall
G1 X78.0426 Y118.5408 E1.10311 F1800 ; Print pattern wall
G1 E-0.5 F2100 ; Retract
G0 X78.6183 Y79.8992 F7200 ; Move to start next pattern wall
G1 E0.5 F2100 ; Un-retract
G1 X97.9391 Y99.22 E1.10311 F1800 ; Print pattern wall
G1 X78.6183 Y118.5408 E1.10311 F1800 ; Print pattern wall
G1 E-0.5 F2100 ; Retract
G0 X79.194 Y79.8992 F7200 ; Move to start next pattern wall
G1 E0.5 F2100 ; Un-retract
G1 X98.5148 Y99.22 E1.10311 F1800 ; Print pattern wall
G1 X79.194 Y118.5408 E1.10311 F1800 ; Print pattern wall
G1 E-0.5 F2100 ; Retract
G0 X81.644 Y79.8992 F7200 ; Move to next pattern
G1 E0.5 F2100 ; Un-retract
SET_PRESSURE_ADVANCE ADVANCE=0.02 ; Set pressure advance
M117 PA 0.02
G1 X100.9648 Y99.22 E1.10311 F1800 ; Print pattern wall
G1 X81.644 Y118.5408 E1.10311 F1800 ; Print pattern wall
G1 E-0.5 F2100 ; Retract
G0 X82.2197 Y79.8992 F7200 ; Move to start next pattern wall
G1 E0.5 F2100 ; Un-retract
G1 X101.5405 Y99.22 E1.10311 F1800 ; Print pattern wall
G1 X82.2197 Y118.5408 E1.10311 F1800 ; Print pattern wall
G1 E-0.5 F2100 ; Retract
G0 X82.7954 Y79.8992 F7200 ; Move to start next pattern wall
G1 E0.5 F2100 ; Un-retract
G1 X102.1162 Y99.22 E1.10311 F1800 ; Print pattern wall
G1 X82.7954 Y118.5408 E1.10311 F1800 ; Print pattern wall
G1 E-0.5 F2100 ; Retract
G0 X85.2454 Y79.8992 F7200 ; Move to next pattern
G1 E0.5 F2100 ; Un-retract
SET_PRESSURE_ADVANCE ADVANCE=0.025 ; Set pressure advance
M117 PA 0.025
G1 X104.5662 Y99.22 E1.10311 F1800 ; Print pattern wall
G1 X85.2454 Y118.5408 E1.10311 F1800 ; Print pattern wall
G1 E-0.5 F2100 ; Retract
G0 X85.8211 Y79.8992 F7200 ; Move to start next pattern wall
G1 E0.5 F2100 ; Un-retract
G1 X105.1419 Y99.22 E1.10311 F1800 ; Print pattern wall
G1 X85.8211 Y118.5408 E1.10311 F1800 ; Print pattern wall
G1 E-0.5 F2100 ; Retract
G0 X86.3968 Y79.8992 F7200 ; Move to start next pattern wall
G1 E0.5 F2100 ; Un-retract
G1 X105.7176 Y99.22 E1.10311 F1800 ; Print pattern wall
G1 X86.3968 Y118.5408 E1.10311 F1800 ; Print pattern wall
G1 E-0.5 F2100 ; Retract
G0 X88.8468 Y79.8992 F7200 ; Move to next pattern
G1 E0.5 F2100 ; Un-retract
SET_PRESSURE_ADVANCE ADVANCE=0.03 ; Set pressure advance
M117 PA 0.03
G1 X108.1676 Y99.22 E1.10311 F1800 ; Print pattern wall
G1 X88.8468 Y118.5408 E1.10311 F1800 ; Print pattern wall
G1 E-0.5 F2100 ; Retract
G0 X89.4225 Y79.8992 F7200 ; Move to start next pattern wall
G1 E0.5 F2100 ; Un-retract
G1 X108.7433 Y99.22 E1.10311 F1800 ; Print pattern wall
G1 X89.4225 Y118.5408 E1.10311 F1800 ; Print pattern wall
G1 E-0.5 F2100 ; Retract
G0 X89.9981 Y79.8992 F7200 ; Move to start next pattern wall
G1 E0.5 F2100 ; Un-retract
G1 X109.319 Y99.22 E1.10311 F1800 ; Print pattern wall
G1 X89.9981 Y118.5408 E1.10311 F1800 ; Print pattern wall
G1 E-0.5 F2100 ; Retract
G0 X92.4481 Y79.8992 F7200 ; Move to next pattern
G1 E0.5 F2100 ; Un-retract
SET_PRESSURE_ADVANCE ADVANCE=0.035 ; Set pressure advance
M117 PA 0.035
G1 X111.769 Y99.22 E1.10311 F1800 ; Print pattern wall
G1 X92.4481 Y118.5408 E1.10311 F1800 ; Print pattern wall
G1 E-0.5 F2100 ; Retract
G0 X93.0238 Y79.8992 F7200 ; Move to start next pattern wall
G1 E0.5 F2100 ; Un-retract
G1 X112.3447 Y99.22 E1.10311 F1800 ; Print pattern wall
G1 X93.0238 Y118.5408 E1.10311 F1800 ; Print pattern wall
G1 E-0.5 F2100 ; Retract
G0 X93.5995 Y79.8992 F7200 ; Move to start next pattern wall
G1 E0.5 F2100 ; Un-retract
G1 X112.9204 Y99.22 E1.10311 F1800 ; Print pattern wall
G1 X93.5995 Y118.5408 E1.10311 F1800 ; Print pattern wall
G1 E-0.5 F2100 ; Retract
G0 X96.0495 Y79.8992 F7200 ; Move to next pattern
G1 E0.5 F2100 ; Un-retract
SET_PRESSURE_ADVANCE ADVANCE=0.04 ; Set pressure advance
M117 PA 0.04
G1 X115.3704 Y99.22 E1.10311 F1800 ; Print pattern wall
G1 X96.0495 Y118.5408 E1.10311 F1800 ; Print pattern wall
G1 E-0.5 F2100 ; Retract
G0 X96.6252 Y79.8992 F7200 ; Move to start next pattern wall
G1 E0.5 F2100 ; Un-retract
G1 X115.9461 Y99.22 E1.10311 F1800 ; Print pattern wall
G1 X96.6252 Y118.5408 E1.10311 F1800 ; Print pattern wall
G1 E-0.5 F2100 ; Retract
G0 X97.2009 Y79.8992 F7200 ; Move to start next pattern wall
G1 E0.5 F2100 ; Un-retract
G1 X116.5218 Y99.22 E1.10311 F1800 ; Print pattern wall
G1 X97.2009 Y118.5408 E1.10311 F1800 ; Print pattern wall
G1 E-0.5 F2100 ; Retract
G0 X99.6509 Y79.8992 F7200 ; Move to next pattern
G1 E0.5 F2100 ; Un-retract
SET_PRESSURE_ADVANCE ADVANCE=0.045 ; Set pressure advance
M117 PA 0.045
G1 X118.9718 Y99.22 E1.10311 F1800 ; Print pattern wall
G1 X99.6509 Y118.5408 E1.10311 F1800 ; Print pattern wall
G1 E-0.5 F2100 ; Retract
G0 X100.2266 Y79.8992 F7200 ; Move to start next pattern wall
G1 E0.5 F2100 ; Un-retract
G1 X119.5475 Y99.22 E1.10311 F1800 ; Print pattern wall
G1 X100.2266 Y118.5408 E1.10311 F1800 ; Print pattern wall
G1 E-0.5 F2100 ; Retract
G0 X100.8023 Y79.8992 F7200 ; Move to start next pattern wall
G1 E0.5 F2100 ; Un-retract
G1 X120.1232 Y99.22 E1.10311 F1800 ; Print pattern wall
G1 X100.8023 Y118.5408 E1.10311 F1800 ; Print pattern wall
G1 E-0.5 F2100 ; Retract
G0 X103.2523 Y79.8992 F7200 ; Move to next pattern
G1 E0.5 F2100 ; Un-retract
SET_PRESSURE_ADVANCE ADVANCE=0.05 ; Set pressure advance
M117 PA 0.05
G1 X122.5732 Y99.22 E1.10311 F1800 ; Print pattern wall
G1 X103.2523 Y118.5408 E1.10311 F1800 ; Print pattern wall
G1 E-0.5 F2100 ; Retract
G0 X103.828 Y79.8992 F7200 ; Move to start next pattern wall
G1 E0.5 F2100 ; Un-retract
G1 X123.1489 Y99.22 E1.10311 F1800 ; Print pattern wall
G1 X103.828 Y118.5408 E1.10311 F1800 ; Print pattern wall
G1 E-0.5 F2100 ; Retract
G0 X104.4037 Y79.8992 F7200 ; Move to start next pattern wall
G1 E0.5 F2100 ; Un-retract
G1 X123.7246 Y99.22 E1.10311 F1800 ; Print pattern wall
G1 X104.4037 Y118.5408 E1.10311 F1800 ; Print pattern wall
G1 E-0.5 F2100 ; Retract
G0 X106.8537 Y79.8992 F7200 ; Move to next pattern
G1 E0.5 F2100 ; Un-retract
SET_PRESSURE_ADVANCE ADVANCE=0.055 ; Set pressure advance
M117 PA 0.055
G1 X126.1746 Y99.22 E1.10311 F1800 ; Print pattern wall
G1 X106.8537 Y118.5408 E1.10311 F1800 ; Print pattern wall
G1 E-0.5 F2100 ; Retract
G0 X107.4294 Y79.8992 F7200 ; Move to start next pattern wall
G1 E0.5 F2100 ; Un-retract
G1 X126.7502 Y99.22 E1.10311 F1800 ; Print pattern wall
G1 X107.4294 Y118.5408 E1.10311 F1800 ; Print pattern wall
G1 E-0.5 F2100 ; Retract
G0 X108.0051 Y79.8992 F7200 ; Move to start next pattern wall
G1 E0.5 F2100 ; Un-retract
G1 X127.3259 Y99.22 E1.10311 F1800 ; Print pattern wall
G1 X108.0051 Y118.5408 E1.10311 F1800 ; Print pattern wall
G1 E-0.5 F2100 ; Retract
G0 X110.4551 Y79.8992 F7200 ; Move to next pattern
G1 E0.5 F2100 ; Un-retract
SET_PRESSURE_ADVANCE ADVANCE=0.06 ; Set pressure advance
M117 PA 0.06
G1 X129.7759 Y99.22 E1.10311 F1800 ; Print pattern wall
G1 X110.4551 Y118.5408 E1.10311 F1800 ; Print pattern wall
G1 E-0.5 F2100 ; Retract
G0 X111.0308 Y79.8992 F7200 ; Move to start next pattern wall
G1 E0.5 F2100 ; Un-retract
G1 X130.3516 Y99.22 E1.10311 F1800 ; Print pattern wall
G1 X111.0308 Y118.5408 E1.10311 F1800 ; Print pattern wall
G1 E-0.5 F2100 ; Retract
G0 X111.6065 Y79.8992 F7200 ; Move to start next pattern wall
G1 E0.5 F2100 ; Un-retract
G1 X130.9273 Y99.22 E1.10311 F1800 ; Print pattern wall
G1 X111.6065 Y118.5408 E1.10311 F1800 ; Print pattern wall
G1 E-0.5 F2100 ; Retract
G0 X114.0565 Y79.8992 F7200 ; Move to next pattern
G1 E0.5 F2100 ; Un-retract
SET_PRESSURE_ADVANCE ADVANCE=0.065 ; Set pressure advance
M117 PA 0.065
G1 X133.3773 Y99.22 E1.10311 F1800 ; Print pattern wall
G1 X114.0565 Y118.5408 E1.10311 F1800 ; Print pattern wall
G1 E-0.5 F2100 ; Retract
G0 X114.6322 Y79.8992 F7200 ; Move to start next pattern wall
G1 E0.5 F2100 ; Un-retract
G1 X133.953 Y99.22 E1.10311 F1800 ; Print pattern wall
G1 X114.6322 Y118.5408 E1.10311 F1800 ; Print pattern wall
G1 E-0.5 F2100 ; Retract
G0 X115.2079 Y79.8992 F7200 ; Move to start next pattern wall
G1 E0.5 F2100 ; Un-retract
G1 X134.5287 Y99.22 E1.10311 F1800 ; Print pattern wall
G1 X115.2079 Y118.5408 E1.10311 F1800 ; Print pattern wall
G1 E-0.5 F2100 ; Retract
G0 X117.6579 Y79.8992 F7200 ; Move to next pattern
G1 E0.5 F2100 ; Un-retract
SET_PRESSURE_ADVANCE ADVANCE=0.07 ; Set pressure advance
M117 PA 0.07
G1 X136.9787 Y99.22 E1.10311 F1800 ; Print pattern wall
G1 X117.6579 Y118.5408 E1.10311 F1800 ; Print pattern wall
G1 E-0.5 F2100 ; Retract
G0 X118.2336 Y79.8992 F7200 ; Move to start next pattern wall
G1 E0.5 F2100 ; Un-retract
G1 X137.5544 Y99.22 E1.10311 F1800 ; Print pattern wall
G1 X118.2336 Y118.5408 E1.10311 F1800 ; Print pattern wall
G1 E-0.5 F2100 ; Retract
G0 X118.8093 Y79.8992 F7200 ; Move to start next pattern wall
G1 E0.5 F2100 ; Un-retract
G1 X138.1301 Y99.22 E1.10311 F1800 ; Print pattern wall
G1 X118.8093 Y118.5408 E1.10311 F1800 ; Print pattern wall
G1 E-0.5 F2100 ; Retract
G0 X121.2593 Y79.8992 F7200 ; Move to next pattern
G1 E0.5 F2100 ; Un-retract
SET_PRESSURE_ADVANCE ADVANCE=0.075 ; Set pressure advance
M117 PA 0.075
G1 X140.5801 Y99.22 E1.10311 F1800 ; Print pattern wall
G1 X121.2593 Y118.5408 E1.10311 F1800 ; Print pattern wall
G1 E-0.5 F2100 ; Retract
G0 X121.835 Y79.8992 F7200 ; Move to start next pattern wall
G1 E0.5 F2100 ; Un-retract
G1 X141.1558 Y99.22 E1.10311 F1800 ; Print pattern wall
G1 X121.835 Y118.5408 E1.10311 F1800 ; Print pattern wall
G1 E-0.5 F2100 ; Retract
G0 X122.4107 Y79.8992 F7200 ; Move to start next pattern wall
G1 E0.5 F2100 ; Un-retract
G1 X141.7315 Y99.22 E1.10311 F1800 ; Print pattern wall
G1 X122.4107 Y118.5408 E1.10311 F1800 ; Print pattern wall
G1 E-0.5 F2100 ; Retract
G0 X124.8607 Y79.8992 F7200 ; Move to next pattern
G1 E0.5 F2100 ; Un-retract
SET_PRESSURE_ADVANCE ADVANCE=0.08 ; Set pressure advance
M117 PA 0.08
G1 X144.1815 Y99.22 E1.10311 F1800 ; Print pattern wall
G1 X124.8607 Y118.5408 E1.10311 F1800 ; Print pattern wall
G1 E-0.5 F2100 ; Retract
G0 X125.4364 Y79.8992 F7200 ; Move to start next pattern wall
G1 E0.5 F2100 ; Un-retract
G1 X144.7572 Y99.22 E1.10311 F1800 ; Print pattern wall
G1 X125.4364 Y118.5408 E1.10311 F1800 ; Print pattern wall
G1 E-0.5 F2100 ; Retract
G0 X126.0121 Y79.8992 F7200 ; Move to start next pattern wall
G1 E0.5 F2100 ; Un-retract
G1 X145.3329 Y99.22 E1.10311 F1800 ; Print pattern wall
G1 X126.0121 Y118.5408 E1.10311 F1800 ; Print pattern wall
G1 E-0.5 F2100 ; Retract
G0 X67.2384 Y79.8992 F7200 ; Move back to start position
G1 E0.5 F2100 ; Un-retract
M106 S255 ; Set fan speed
G0 Z0.45 F7200 ; Move to layer height
SET_PRESSURE_ADVANCE ADVANCE=0 ; Set pressure advance to start value for numbering
M117 PA 0
G1 E-0.5 F2100 ; Retract
G0 X63.9217 Y121.8832 F7200 ; Move
G1 E0.5 F2100 ; Un-retract
G1 X65.9217 Y121.8832 E0.06634 F1800 ; Glyph: 0
G1 X67.9217 Y121.8832 E0.06634 F1800 ; Glyph: 0
G1 X67.9217 Y123.8832 E0.06634 F1800 ; Glyph: 0
G1 X65.9217 Y123.8832 E0.06634 F1800 ; Glyph: 0
G1 X63.9217 Y123.8832 E0.06634 F1800 ; Glyph: 0
G1 X63.9217 Y121.8832 E0.06634 F1800 ; Glyph: 0
G1 E-0.5 F2100 ; Retract
G0 X71.1245 Y121.8832 F7200 ; Move
G1 E0.5 F2100 ; Un-retract
G1 X73.1245 Y121.8832 E0.06634 F1800 ; Glyph: 0
G1 X75.1245 Y121.8832 E0.06634 F1800 ; Glyph: 0
G1 X75.1245 Y123.8832 E0.06634 F1800 ; Glyph: 0
G1 X73.1245 Y123.8832 E0.06634 F1800 ; Glyph: 0
G1 X71.1245 Y123.8832 E0.06634 F1800 ; Glyph: 0
G1 X71.1245 Y121.8832 E0.06634 F1800 ; Glyph: 0
G1 E-0.5 F2100 ; Retract
G0 X75.1245 Y124.8832 F7200 ; Move
G1 E0.5 F2100 ; Un-retract
G1 X74.3745 Y124.8832 E0.02488 F1800 ; Glyph: .
G1 E-0.5 F2100 ; Retract
G0 X71.1245 Y125.8832 F7200 ; Move
G1 E0.5 F2100 ; Un-retract
G1 X73.1245 Y125.8832 E0.06634 F1800 ; Glyph: 0
G1 X75.1245 Y125.8832 E0.06634 F1800 ; Glyph: 0
G1 X75.1245 Y127.8832 E0.06634 F1800 ; Glyph: 0
G1 X73.1245 Y127.8832 E0.06634 F1800 ; Glyph: 0
G1 X71.1245 Y127.8832 E0.06634 F1800 ; Glyph: 0
G1 X71.1245 Y125.8832 E0.06634 F1800 ; Glyph: 0
G1 E-0.5 F2100 ; Retract
G0 X71.1245 Y128.8832 F7200 ; Move
G1 E0.5 F2100 ; Un-retract
G1 X73.1245 Y128.8832 E0.06634 F1800 ; Glyph: 1
G1 X75.1245 Y128.8832 E0.06634 F1800 ; Glyph: 1
G1 E-0.5 F2100 ; Retract
G0 X78.3273 Y121.8832 F7200 ; Move
G1 E0.5 F2100 ; Un-retract
G1 X80.3273 Y121.8832 E0.06634 F1800 ; Glyph: 0
G1 X82.3273 Y121.8832 E0.06634 F1800 ; Glyph: 0
G1 X82.3273 Y123.8832 E0.06634 F1800 ; Glyph: 0
G1 X80.3273 Y123.8832 E0.06634 F1800 ; Glyph: 0
G1 X78.3273 Y123.8832 E0.06634 F1800 ; Glyph: 0
G1 X78.3273 Y121.8832 E0.06634 F1800 ; Glyph: 0
G1 E-0.5 F2100 ; Retract
G0 X82.3273 Y124.8832 F7200 ; Move
G1 E0.5 F2100 ; Un-retract
G1 X81.5773 Y124.8832 E0.02488 F1800 ; Glyph: .
G1 E-0.5 F2100 ; Retract
G0 X78.3273 Y125.8832 F7200 ; Move
G1 E0.5 F2100 ; Un-retract
G1 X80.3273 Y125.8832 E0.06634 F1800 ; Glyph: 0
G1 X82.3273 Y125.8832 E0.06634 F1800 ; Glyph: 0
G1 X82.3273 Y127.8832 E0.06634 F1800 ; Glyph: 0
G1 X80.3273 Y127.8832 E0.06634 F1800 ; Glyph: 0
G1 X78.3273 Y127.8832 E0.06634 F1800 ; Glyph: 0
G1 X78.3273 Y125.8832 E0.06634 F1800 ; Glyph: 0
G1 E-0.5 F2100 ; Retract
G0 X78.3273 Y128.8832 F7200 ; Move
G1 E0.5 F2100 ; Un-retract
G1 X78.3273 Y130.8832 E0.06634 F1800 ; Glyph: 2
G1 X80.3273 Y130.8832 E0.06634 F1800 ; Glyph: 2
G1 X80.3273 Y128.8832 E0.06634 F1800 ; Glyph: 2
G1 X82.3273 Y128.8832 E0.06634 F1800 ; Glyph: 2
G1 X82.3273 Y130.8832 E0.06634 F1800 ; Glyph: 2
G1 E-0.5 F2100 ; Retract
G0 X85.5301 Y121.8832 F7200 ; Move
G1 E0.5 F2100 ; Un-retract
G1 X87.5301 Y121.8832 E0.06634 F1800 ; Glyph: 0
G1 X89.5301 Y121.8832 E0.06634 F1800 ; Glyph: 0
G1 X89.5301 Y123.8832 E0.06634 F1800 ; Glyph: 0
G1 X87.5301 Y123.8832 E0.06634 F1800 ; Glyph: 0
G1 X85.5301 Y123.8832 E0.06634 F1800 ; Glyph: 0
G1 X85.5301 Y121.8832 E0.06634 F1800 ; Glyph: 0
G1 E-0.5 F2100 ; Retract
G0 X89.5301 Y124.8832 F7200 ; Move
G1 E0.5 F2100 ; Un-retract
G1 X88.7801 Y124.8832 E0.02488 F1800 ; Glyph: .
G1 E-0.5 F2100 ; Retract
G0 X85.5301 Y125.8832 F7200 ; Move
G1 E0.5 F2100 ; Un-retract
G1 X87.5301 Y125.8832 E0.06634 F1800 ; Glyph: 0
G1 X89.5301 Y125.8832 E0.06634 F1800 ; Glyph: 0
G1 X89.5301 Y127.8832 E0.06634 F1800 ; Glyph: 0
G1 X87.5301 Y127.8832 E0.06634 F1800 ; Glyph: 0
G1 X85.5301 Y127.8832 E0.06634 F1800 ; Glyph: 0
G1 X85.5301 Y125.8832 E0.06634 F1800 ; Glyph: 0
G1 E-0.5 F2100 ; Retract
G0 X85.5301 Y128.8832 F7200 ; Move
G1 E0.5 F2100 ; Un-retract
G1 X85.5301 Y130.8832 E0.06634 F1800 ; Glyph: 3
G1 X87.5301 Y130.8832 E0.06634 F1800 ; Glyph: 3
G1 X87.5301 Y128.8832 E0.06634 F1800 ; Glyph: 3
G0 X87.5301 Y130.8832 F7200 ; Move
G1 X89.5301 Y130.8832 E0.06634 F1800 ; Glyph: 3
G1 X89.5301 Y128.8832 E0.06634 F1800 ; Glyph: 3
G1 E-0.5 F2100 ; Retract
G0 X92.7329 Y121.8832 F7200 ; Move
G1 E0.5 F2100 ; Un-retract
G1 X94.7329 Y121.8832 E0.06634 F1800 ; Glyph: 0
G1 X96.7329 Y121.8832 E0.06634 F1800 ; Glyph: 0
G1 X96.7329 Y123.8832 E0.06634 F1800 ; Glyph: 0
G1 X94.7329 Y123.8832 E0.06634 F1800 ; Glyph: 0
G1 X92.7329 Y123.8832 E0.06634 F1800 ; Glyph: 0
G1 X92.7329 Y121.8832 E0.06634 F1800 ; Glyph: 0
G1 E-0.5 F2100 ; Retract
G0 X96.7329 Y124.8832 F7200 ; Move
G1 E0.5 F2100 ; Un-retract
G1 X95.9829 Y124.8832 E0.02488 F1800 ; Glyph: .
G1 E-0.5 F2100 ; Retract
G0 X92.7329 Y125.8832 F7200 ; Move
G1 E0.5 F2100 ; Un-retract
G1 X94.7329 Y125.8832 E0.06634 F1800 ; Glyph: 0
G1 X96.7329 Y125.8832 E0.06634 F1800 ; Glyph: 0
G1 X96.7329 Y127.8832 E0.06634 F1800 ; Glyph: 0
G1 X94.7329 Y127.8832 E0.06634 F1800 ; Glyph: 0
G1 X92.7329 Y127.8832 E0.06634 F1800 ; Glyph: 0
G1 X92.7329 Y125.8832 E0.06634 F1800 ; Glyph: 0
G1 E-0.5 F2100 ; Retract
G0 X92.7329 Y130.8832 F7200 ; Move
G1 E0.5 F2100 ; Un-retract
G1 X94.7329 Y130.8832 E0.06634 F1800 ; Glyph: 4
G1 X96.7329 Y130.8832 E0.06634 F1800 ; Glyph: 4
G0 X94.7329 Y130.8832 F7200 ; Move
G1 X94.7329 Y128.8832 E0.06634 F1800 ; Glyph: 4
G1 X92.7329 Y128.8832 E0.06634 F1800 ; Glyph: 4
G1 E-0.5 F2100 ; Retract
G0 X99.9357 Y121.8832 F7200 ; Move
G1 E0.5 F2100 ; Un-retract
G1 X101.9357 Y121.8832 E0.06634 F1800 ; Glyph: 0
G1 X103.9357 Y121.8832 E0.06634 F1800 ; Glyph: 0
G1 X103.9357 Y123.8832 E0.06634 F1800 ; Glyph: 0
G1 X101.9357 Y123.8832 E0.06634 F1800 ; Glyph: 0
G1 X99.9357 Y123.8832 E0.06634 F1800 ; Glyph: 0
G1 X99.9357 Y121.8832 E0.06634 F1800 ; Glyph: 0
G1 E-0.5 F2100 ; Retract
G0 X103.9357 Y124.8832 F7200 ; Move
G1 E0.5 F2100 ; Un-retract
G1 X103.1857 Y124.8832 E0.02488 F1800 ; Glyph: .
G1 E-0.5 F2100 ; Retract
G0 X99.9357 Y125.8832 F7200 ; Move
G1 E0.5 F2100 ; Un-retract
G1 X101.9357 Y125.8832 E0.06634 F1800 ; Glyph: 0
G1 X103.9357 Y125.8832 E0.06634 F1800 ; Glyph: 0
G1 X103.9357 Y127.8832 E0.06634 F1800 ; Glyph: 0
G1 X101.9357 Y127.8832 E0.06634 F1800 ; Glyph: 0
G1 X99.9357 Y127.8832 E0.06634 F1800 ; Glyph: 0
G1 X99.9357 Y125.8832 E0.06634 F1800 ; Glyph: 0
G1 E-0.5 F2100 ; Retract
G0 X99.9357 Y130.8832 F7200 ; Move
G1 E0.5 F2100 ; Un-retract
G1 X99.9357 Y128.8832 E0.06634 F1800 ; Glyph: 5
G1 X101.9357 Y128.8832 E0.06634 F1800 ; Glyph: 5
G1 X101.9357 Y130.8832 E0.06634 F1800 ; Glyph: 5
G1 X103.9357 Y130.8832 E0.06634 F1800 ; Glyph: 5
G1 X103.9357 Y128.8832 E0.06634 F1800 ; Glyph: 5
G1 E-0.5 F2100 ; Retract
G0 X107.1384 Y121.8832 F7200 ; Move
G1 E0.5 F2100 ; Un-retract
G1 X109.1384 Y121.8832 E0.06634 F1800 ; Glyph: 0
G1 X111.1384 Y121.8832 E0.06634 F1800 ; Glyph: 0
G1 X111.1384 Y123.8832 E0.06634 F1800 ; Glyph: 0
G1 X109.1384 Y123.8832 E0.06634 F1800 ; Glyph: 0
G1 X107.1384 Y123.8832 E0.06634 F1800 ; Glyph: 0
G1 X107.1384 Y121.8832 E0.06634 F1800 ; Glyph: 0
G1 E-0.5 F2100 ; Retract
G0 X111.1384 Y124.8832 F7200 ; Move
G1 E0.5 F2100 ; Un-retract
G1 X110.3884 Y124.8832 E0.02488 F1800 ; Glyph: .
G1 E-0.5 F2100 ; Retract
G0 X107.1384 Y125.8832 F7200 ; Move
G1 E0.5 F2100 ; Un-retract
G1 X109.1384 Y125.8832 E0.06634 F1800 ; Glyph: 0
G1 X111.1384 Y125.8832 E0.06634 F1800 ; Glyph: 0
G1 X111.1384 Y127.8832 E0.06634 F1800 ; Glyph: 0
G1 X109.1384 Y127.8832 E0.06634 F1800 ; Glyph: 0
G1 X107.1384 Y127.8832 E0.06634 F1800 ; Glyph: 0
G1 X107.1384 Y125.8832 E0.06634 F1800 ; Glyph: 0
G1 E-0.5 F2100 ; Retract
G0 X107.1384 Y130.8832 F7200 ; Move
G1 E0.5 F2100 ; Un-retract
G1 X107.1384 Y128.8832 E0.06634 F1800 ; Glyph: 6
G1 X109.1384 Y128.8832 E0.06634 F1800 ; Glyph: 6
G1 X111.1384 Y128.8832 E0.06634 F1800 ; Glyph: 6
G1 X111.1384 Y130.8832 E0.06634 F1800 ; Glyph: 6
G1 X109.1384 Y130.8832 E0.06634 F1800 ; Glyph: 6
G1 X109.1384 Y128.8832 E0.06634 F1800 ; Glyph: 6
G1 E-0.5 F2100 ; Retract
G0 X114.3412 Y121.8832 F7200 ; Move
G1 E0.5 F2100 ; Un-retract
G1 X116.3412 Y121.8832 E0.06634 F1800 ; Glyph: 0
G1 X118.3412 Y121.8832 E0.06634 F1800 ; Glyph: 0
G1 X118.3412 Y123.8832 E0.06634 F1800 ; Glyph: 0
G1 X116.3412 Y123.8832 E0.06634 F1800 ; Glyph: 0
G1 X114.3412 Y123.8832 E0.06634 F1800 ; Glyph: 0
G1 X114.3412 Y121.8832 E0.06634 F1800 ; Glyph: 0
G1 E-0.5 F2100 ; Retract
G0 X118.3412 Y124.8832 F7200 ; Move
G1 E0.5 F2100 ; Un-retract
G1 X117.5912 Y124.8832 E0.02488 F1800 ; Glyph: .
G1 E-0.5 F2100 ; Retract
G0 X114.3412 Y125.8832 F7200 ; Move
G1 E0.5 F2100 ; Un-retract
G1 X116.3412 Y125.8832 E0.06634 F1800 ; Glyph: 0
G1 X118.3412 Y125.8832 E0.06634 F1800 ; Glyph: 0
G1 X118.3412 Y127.8832 E0.06634 F1800 ; Glyph: 0
G1 X116.3412 Y127.8832 E0.06634 F1800 ; Glyph: 0
G1 X114.3412 Y127.8832 E0.06634 F1800 ; Glyph: 0
G1 X114.3412 Y125.8832 E0.06634 F1800 ; Glyph: 0
G1 E-0.5 F2100 ; Retract
G0 X114.3412 Y128.8832 F7200 ; Move
G1 E0.5 F2100 ; Un-retract
G1 X114.3412 Y130.8832 E0.06634 F1800 ; Glyph: 7
G1 X116.3412 Y130.8832 E0.06634 F1800 ; Glyph: 7
G1 X118.3412 Y130.8832 E0.06634 F1800 ; Glyph: 7
G1 E-0.5 F2100 ; Retract
G0 X121.544 Y121.8832 F7200 ; Move
G1 E0.5 F2100 ; Un-retract
G1 X123.544 Y121.8832 E0.06634 F1800 ; Glyph: 0
G1 X125.544 Y121.8832 E0.06634 F1800 ; Glyph: 0
G1 X125.544 Y123.8832 E0.06634 F1800 ; Glyph: 0
G1 X123.544 Y123.8832 E0.06634 F1800 ; Glyph: 0
G1 X121.544 Y123.8832 E0.06634 F1800 ; Glyph: 0
G1 X121.544 Y121.8832 E0.06634 F1800 ; Glyph: 0
G1 E-0.5 F2100 ; Retract
G0 X125.544 Y124.8832 F7200 ; Move
G1 E0.5 F2100 ; Un-retract
G1 X124.794 Y124.8832 E0.02488 F1800 ; Glyph: .
G1 E-0.5 F2100 ; Retract
G0 X121.544 Y125.8832 F7200 ; Move
G1 E0.5 F2100 ; Un-retract
G1 X123.544 Y125.8832 E0.06634 F1800 ; Glyph: 0
G1 X125.544 Y125.8832 E0.06634 F1800 ; Glyph: 0
G1 X125.544 Y127.8832 E0.06634 F1800 ; Glyph: 0
G1 X123.544 Y127.8832 E0.06634 F1800 ; Glyph: 0
G1 X121.544 Y127.8832 E0.06634 F1800 ; Glyph: 0
G1 X121.544 Y125.8832 E0.06634 F1800 ; Glyph: 0
G1 E-0.5 F2100 ; Retract
G0 X121.544 Y128.8832 F7200 ; Move
G1 E0.5 F2100 ; Un-retract
G1 X123.544 Y128.8832 E0.06634 F1800 ; Glyph: 8
G1 X125.544 Y128.8832 E0.06634 F1800 ; Glyph: 8
G1 X125.544 Y130.8832 E0.06634 F1800 ; Glyph: 8
G1 X123.544 Y130.8832 E0.06634 F1800 ; Glyph: 8
G1 X121.544 Y130.8832 E0.06634 F1800 ; Glyph: 8
G1 X121.544 Y128.8832 E0.06634 F1800 ; Glyph: 8
G0 X123.544 Y128.8832 F7200 ; Move
G1 X123.544 Y130.8832 E0.06634 F1800 ; Glyph: 8
G1 E-0.5 F2100 ; Retract
G0 X65.346 Y78.0068 F7200 ; Move to pattern start

G1 E0.5 F2100 ; Un-retract
SET_PRESSURE_ADVANCE ADVANCE=0 ; Set pressure advance
M117 PA 0
G1 X86.5592 Y99.22 E0.99515 F3600 ; Print pattern wall
G1 X65.346 Y120.4332 E0.99515 F3600 ; Print pattern wall
G1 E-0.5 F2100 ; Retract
G0 X65.9217 Y78.0068 F7200 ; Move to start next pattern wall
G1 E0.5 F2100 ; Un-retract
G1 X87.1349 Y99.22 E0.99515 F3600 ; Print pattern wall
G1 X65.9217 Y120.4332 E0.99515 F3600 ; Print pattern wall
G1 E-0.5 F2100 ; Retract
G0 X66.4974 Y78.0068 F7200 ; Move to start next pattern wall
G1 E0.5 F2100 ; Un-retract
G1 X87.7106 Y99.22 E0.99515 F3600 ; Print pattern wall
G1 X66.4974 Y120.4332 E0.99515 F3600 ; Print pattern wall
G1 E-0.5 F2100 ; Retract
G0 X68.9474 Y78.0068 F7200 ; Move to next pattern
G1 E0.5 F2100 ; Un-retract
SET_PRESSURE_ADVANCE ADVANCE=0.005 ; Set pressure advance
M117 PA 0.005
G1 X90.1606 Y99.22 E0.99515 F3600 ; Print pattern wall
G1 X68.9474 Y120.4332 E0.99515 F3600 ; Print pattern wall
G1 E-0.5 F2100 ; Retract
G0 X69.5231 Y78.0068 F7200 ; Move to start next pattern wall
G1 E0.5 F2100 ; Un-retract
G1 X90.7363 Y99.22 E0.99515 F3600 ; Print pattern wall
G1 X69.5231 Y120.4332 E0.99515 F3600 ; Print pattern wall
G1 E-0.5 F2100 ; Retract
G0 X70.0988 Y78.0068 F7200 ; Move to start next pattern wall
G1 E0.5 F2100 ; Un-retract
G1 X91.312 Y99.22 E0.99515 F3600 ; Print pattern wall
G1 X70.0988 Y120.4332 E0.99515 F3600 ; Print pattern wall
G1 E-0.5 F2100 ; Retract
G0 X72.5488 Y78.0068 F7200 ; Move to next pattern
G1 E0.5 F2100 ; Un-retract
SET_PRESSURE_ADVANCE ADVANCE=0.01 ; Set pressure advance
M117 PA 0.01
G1 X93.762 Y99.22 E0.99515 F3600 ; Print pattern wall
G1 X72.5488 Y120.4332 E0.99515 F3600 ; Print pattern wall
G1 E-0.5 F2100 ; Retract
G0 X73.1245 Y78.0068 F7200 ; Move to start next pattern wall
G1 E0.5 F2100 ; Un-retract
G1 X94.3377 Y99.22 E0.99515 F3600 ; Print pattern wall
G1 X73.1245 Y120.4332 E0.99515 F3600 ; Print pattern wall
G1 E-0.5 F2100 ; Retract
G0 X73.7002 Y78.0068 F7200 ; Move to start next pattern wall
G1 E0.5 F2100 ; Un-retract
G1 X94.9134 Y99.22 E0.99515 F3600 ; Print pattern wall
G1 X73.7002 Y120.4332 E0.99515 F3600 ; Print pattern wall
G1 E-0.5 F2100 ; Retract
G0 X76.1502 Y78.0068 F7200 ; Move to next pattern
G1 E0.5 F2100 ; Un-retract
SET_PRESSURE_ADVANCE ADVANCE=0.015 ; Set pressure advance
M117 PA 0.015
G1 X97.3634 Y99.22 E0.99515 F3600 ; Print pattern wall
G1 X76.1502 Y120.4332 E0.99515 F3600 ; Print pattern wall
G1 E-0.5 F2100 ; Retract
G0 X76.7259 Y78.0068 F7200 ; Move to start next pattern wall
G1 E0.5 F2100 ; Un-retract
G1 X97.9391 Y99.22 E0.99515 F3600 ; Print pattern wall
G1 X76.7259 Y120.4332 E0.99515 F3600 ; Print pattern wall
G1 E-0.5 F2100 ; Retract
G0 X77.3016 Y78.0068 F7200 ; Move to start next pattern wall
G1 E0.5 F2100 ; Un-retract
G1 X98.5148 Y99.22 E0.99515 F3600 ; Print pattern wall
G1 X77.3016 Y120.4332 E0.99515 F3600 ; Print pattern wall
G1 E-0.5 F2100 ; Retract
G0 X79.7516 Y78.0068 F7200 ; Move to next pattern
G1 E0.5 F2100 ; Un-retract
SET_PRESSURE_ADVANCE ADVANCE=0.02 ; Set pressure advance
M117 PA 0.02
G1 X100.9648 Y99.22 E0.99515 F3600 ; Print pattern wall
G1 X79.7516 Y120.4332 E0.99515 F3600 ; Print pattern wall
G1 E-0.5 F2100 ; Retract
G0 X80.3273 Y78.0068 F7200 ; Move to start next pattern wall
G1 E0.5 F2100 ; Un-retract
G1 X101.5405 Y99.22 E0.99515 F3600 ; Print pattern wall
G1 X80.3273 Y120.4332 E0.99515 F3600 ; Print pattern wall
G1 E-0.5 F2100 ; Retract
G0 X80.903 Y78.0068 F7200 ; Move to start next pattern wall
G1 E0.5 F2100 ; Un-retract
G1 X102.1162 Y99.22 E0.99515 F3600 ; Print pattern wall
G1 X80.903 Y120.4332 E0.99515 F3600 ; Print pattern wall
G1 E-0.5 F2100 ; Retract
G0 X83.353 Y78.0068 F7200 ; Move to next pattern
G1 E0.5 F2100 ; Un-retract
SET_PRESSURE_ADVANCE ADVANCE=0.025 ; Set pressure advance
M117 PA 0.025
G1 X104.5662 Y99.22 E0.99515 F3600 ; Print pattern wall
G1 X83.353 Y120.4332 E0.99515 F3600 ; Print pattern wall
G1 E-0.5 F2100 ; Retract
G0 X83.9287 Y78.0068 F7200 ; Move to start next pattern wall
G1 E0.5 F2100 ; Un-retract
G1 X105.1419 Y99.22 E0.99515 F3600 ; Print pattern wall
G1 X83.9287 Y120.4332 E0.99515 F3600 ; Print pattern wall
G1 E-0.5 F2100 ; Retract
G0 X84.5044 Y78.0068 F7200 ; Move to start next pattern wall
G1 E0.5 F2100 ; Un-retract
G1 X105.7176 Y99.22 E0.99515 F3600 ; Print pattern wall
G1 X84.5044 Y120.4332 E0.99515 F3600 ; Print pattern wall
G1 E-0.5 F2100 ; Retract
G0 X86.9544 Y78.0068 F7200 ; Move to next pattern
G1 E0.5 F2100 ; Un-retract
SET_PRESSURE_ADVANCE ADVANCE=0.03 ; Set pressure advance
M117 PA 0.03
G1 X108.1676 Y99.22 E0.99515 F3600 ; Print pattern wall
G1 X86.9544 Y120.4332 E0.99515 F3600 ; Print pattern wall
G1 E-0.5 F2100 ; Retract
G0 X87.5301 Y78.0068 F7200 ; Move to start next pattern wall
G1 E0.5 F2100 ; Un-retract
G1 X108.7433 Y99.22 E0.99515 F3600 ; Print pattern wall
G1 X87.5301 Y120.4332 E0.99515 F3600 ; Print pattern wall
G1 E-0.5 F2100 ; Retract
G0 X88.1058 Y78.0068 F7200 ; Move to start next pattern wall
G1 E0.5 F2100 ; Un-retract
G1 X109.319 Y99.22 E0.99515 F3600 ; Print pattern wall
G1 X88.1058 Y120.4332 E0.99515 F3600 ; Print pattern wall
G1 E-0.5 F2100 ; Retract
G0 X90.5558 Y78.0068 F7200 ; Move to next pattern
G1 E0.5 F2100 ; Un-retract
SET_PRESSURE_ADVANCE ADVANCE=0.035 ; Set pressure advance
M117 PA 0.035
G1 X111.769 Y99.22 E0.99515 F3600 ; Print pattern wall
G1 X90.5558 Y120.4332 E0.99515 F3600 ; Print pattern wall
G1 E-0.5 F2100 ; Retract
G0 X91.1315 Y78.0068 F7200 ; Move to start next pattern wall
G1 E0.5 F2100 ; Un-retract
G1 X112.3447 Y99.22 E0.99515 F3600 ; Print pattern wall
G1 X91.1315 Y120.4332 E0.99515 F3600 ; Print pattern wall
G1 E-0.5 F2100 ; Retract
G0 X91.7072 Y78.0068 F7200 ; Move to start next pattern wall
G1 E0.5 F2100 ; Un-retract
G1 X112.9204 Y99.22 E0.99515 F3600 ; Print pattern wall
G1 X91.7072 Y120.4332 E0.99515 F3600 ; Print pattern wall
G1 E-0.5 F2100 ; Retract
G0 X94.1572 Y78.0068 F7200 ; Move to next pattern
G1 E0.5 F2100 ; Un-retract
SET_PRESSURE_ADVANCE ADVANCE=0.04 ; Set pressure advance
M117 PA 0.04
G1 X115.3704 Y99.22 E0.99515 F3600 ; Print pattern wall
G1 X94.1572 Y120.4332 E0.99515 F3600 ; Print pattern wall
G1 E-0.5 F2100 ; Retract
G0 X94.7329 Y78.0068 F7200 ; Move to start next pattern wall
G1 E0.5 F2100 ; Un-retract
G1 X115.9461 Y99.22 E0.99515 F3600 ; Print pattern wall
G1 X94.7329 Y120.4332 E0.99515 F3600 ; Print pattern wall
G1 E-0.5 F2100 ; Retract
G0 X95.3086 Y78.0068 F7200 ; Move to start next pattern wall
G1 E0.5 F2100 ; Un-retract
G1 X116.5218 Y99.22 E0.99515 F3600 ; Print pattern wall
G1 X95.3086 Y120.4332 E0.99515 F3600 ; Print pattern wall
G1 E-0.5 F2100 ; Retract
G0 X97.7586 Y78.0068 F7200 ; Move to next pattern
G1 E0.5 F2100 ; Un-retract
SET_PRESSURE_ADVANCE ADVANCE=0.045 ; Set pressure advance
M117 PA 0.045
G1 X118.9718 Y99.22 E0.99515 F3600 ; Print pattern wall
G1 X97.7586 Y120.4332 E0.99515 F3600 ; Print pattern wall
G1 E-0.5 F2100 ; Retract
G0 X98.3343 Y78.0068 F7200 ; Move to start next pattern wall
G1 E0.5 F2100 ; Un-retract
G1 X119.5475 Y99.22 E0.99515 F3600 ; Print pattern wall
G1 X98.3343 Y120.4332 E0.99515 F3600 ; Print pattern wall
G1 E-0.5 F2100 ; Retract
G0 X98.91 Y78.0068 F7200 ; Move to start next pattern wall
G1 E0.5 F2100 ; Un-retract
G1 X120.1232 Y99.22 E0.99515 F3600 ; Print pattern wall
G1 X98.91 Y120.4332 E0.99515 F3600 ; Print pattern wall
G1 E-0.5 F2100 ; Retract
G0 X101.36 Y78.0068 F7200 ; Move to next pattern
G1 E0.5 F2100 ; Un-retract
SET_PRESSURE_ADVANCE ADVANCE=0.05 ; Set pressure advance
M117 PA 0.05
G1 X122.5732 Y99.22 E0.99515 F3600 ; Print pattern wall
G1 X101.36 Y120.4332 E0.99515 F3600 ; Print pattern wall
G1 E-0.5 F2100 ; Retract
G0 X101.9357 Y78.0068 F7200 ; Move to start next pattern wall
G1 E0.5 F2100 ; Un-retract
G1 X123.1489 Y99.22 E0.99515 F3600 ; Print pattern wall
G1 X101.9357 Y120.4332 E0.99515 F3600 ; Print pattern wall
G1 E-0.5 F2100 ; Retract
G0 X102.5113 Y78.0068 F7200 ; Move to start next pattern wall
G1 E0.5 F2100 ; Un-retract
G1 X123.7246 Y99.22 E0.99515 F3600 ; Print pattern wall
G1 X102.5113 Y120.4332 E0.99515 F3600 ; Print pattern wall
G1 E-0.5 F2100 ; Retract
G0 X104.9613 Y78.0068 F7200 ; Move to next pattern
G1 E0.5 F2100 ; Un-retract
SET_PRESSURE_ADVANCE ADVANCE=0.055 ; Set pressure advance
M117 PA 0.055
G1 X126.1746 Y99.22 E0.99515 F3600 ; Print pattern wall
G1 X104.9613 Y120.4332 E0.99515 F3600 ; Print pattern wall
G1 E-0.5 F2100 ; Retract
G0 X105.537 Y78.0068 F7200 ; Move to start next pattern wall
G1 E0.5 F2100 ; Un-retract
G1 X126.7502 Y99.22 E0.99515 F3600 ; Print pattern wall
G1 X105.537 Y120.4332 E0.99515 F3600 ; Print pattern wall
G1 E-0.5 F2100 ; Retract
G0 X106.1127 Y78.0068 F7200 ; Move to start next pattern wall
G1 E0.5 F2100 ; Un-retract
G1 X127.3259 Y99.22 E0.99515 F3600 ; Print pattern wall
G1 X106.1127 Y120.4332 E0.99515 F3600 ; Print pattern wall
G1 E-0.5 F2100 ; Retract
G0 X108.5627 Y78.0068 F7200 ; Move to next pattern
G1 E0.5 F2100 ; Un-retract
SET_PRESSURE_ADVANCE ADVANCE=0.06 ; Set pressure advance
M117 PA 0.06
G1 X129.7759 Y99.22 E0.99515 F3600 ; Print pattern wall
G1 X108.5627 Y120.4332 E0.99515 F3600 ; Print pattern wall
G1 E-0.5 F2100 ; Retract
G0 X109.1384 Y78.0068 F7200 ; Move to start next pattern wall
G1 E0.5 F2100 ; Un-retract
G1 X130.3516 Y99.22 E0.99515 F3600 ; Print pattern wall
G1 X109.1384 Y120.4332 E0.99515 F3600 ; Print pattern wall
G1 E-0.5 F2100 ; Retract
G0 X109.7141 Y78.0068 F7200 ; Move to start next pattern wall
G1 E0.5 F2100 ; Un-retract
G1 X130.9273 Y99.22 E0.99515 F3600 ; Print pattern wall
G1 X109.7141 Y120.4332 E0.99515 F3600 ; Print pattern wall
G1 E-0.5 F2100 ; Retract
G0 X112.1641 Y78.0068 F7200 ; Move to next pattern
G1 E0.5 F2100 ; Un-retract
SET_PRESSURE_ADVANCE ADVANCE=0.065 ; Set pressure advance
M117 PA 0.065
G1 X133.3773 Y99.22 E0.99515 F3600 ; Print pattern wall
G1 X112.1641 Y120.4332 E0.99515 F3600 ; Print pattern wall
G1 E-0.5 F2100 ; Retract
G0 X112.7398 Y78.0068 F7200 ; Move to start next pattern wall
G1 E0.5 F2100 ; Un-retract
G1 X133.953 Y99.22 E0.99515 F3600 ; Print pattern wall
G1 X112.7398 Y120.4332 E0.99515 F3600 ; Print pattern wall
G1 E-0.5 F2100 ; Retract
G0 X113.3155 Y78.0068 F7200 ; Move to start next pattern wall
G1 E0.5 F2100 ; Un-retract
G1 X134.5287 Y99.22 E0.99515 F3600 ; Print pattern wall
G1 X113.3155 Y120.4332 E0.99515 F3600 ; Print pattern wall
G1 E-0.5 F2100 ; Retract
G0 X115.7655 Y78.0068 F7200 ; Move to next pattern
G1 E0.5 F2100 ; Un-retract
SET_PRESSURE_ADVANCE ADVANCE=0.07 ; Set pressure advance
M117 PA 0.07
G1 X136.9787 Y99.22 E0.99515 F3600 ; Print pattern wall
G1 X115.7655 Y120.4332 E0.99515 F3600 ; Print pattern wall
G1 E-0.5 F2100 ; Retract
G0 X116.3412 Y78.0068 F7200 ; Move to start next pattern wall
G1 E0.5 F2100 ; Un-retract
G1 X137.5544 Y99.22 E0.99515 F3600 ; Print pattern wall
G1 X116.3412 Y120.4332 E0.99515 F3600 ; Print pattern wall
G1 E-0.5 F2100 ; Retract
G0 X116.9169 Y78.0068 F7200 ; Move to start next pattern wall
G1 E0.5 F2100 ; Un-retract
G1 X138.1301 Y99.22 E0.99515 F3600 ; Print pattern wall
G1 X116.9169 Y120.4332 E0.99515 F3600 ; Print pattern wall
G1 E-0.5 F2100 ; Retract
G0 X119.3669 Y78.0068 F7200 ; Move to next pattern
G1 E0.5 F2100 ; Un-retract
SET_PRESSURE_ADVANCE ADVANCE=0.075 ; Set pressure advance
M117 PA 0.075
G1 X140.5801 Y99.22 E0.99515 F3600 ; Print pattern wall
G1 X119.3669 Y120.4332 E0.99515 F3600 ; Print pattern wall
G1 E-0.5 F2100 ; Retract
G0 X119.9426 Y78.0068 F7200 ; Move to start next pattern wall
G1 E0.5 F2100 ; Un-retract
G1 X141.1558 Y99.22 E0.99515 F3600 ; Print pattern wall
G1 X119.9426 Y120.4332 E0.99515 F3600 ; Print pattern wall
G1 E-0.5 F2100 ; Retract
G0 X120.5183 Y78.0068 F7200 ; Move to start next pattern wall
G1 E0.5 F2100 ; Un-retract
G1 X141.7315 Y99.22 E0.99515 F3600 ; Print pattern wall
G1 X120.5183 Y120.4332 E0.99515 F3600 ; Print pattern wall
G1 E-0.5 F2100 ; Retract
G0 X122.9683 Y78.0068 F7200 ; Move to next pattern
G1 E0.5 F2100 ; Un-retract
SET_PRESSURE_ADVANCE ADVANCE=0.08 ; Set pressure advance
M117 PA 0.08
G1 X144.1815 Y99.22 E0.99515 F3600 ; Print pattern wall
G1 X122.9683 Y120.4332 E0.99515 F3600 ; Print pattern wall
G1 E-0.5 F2100 ; Retract
G0 X123.544 Y78.0068 F7200 ; Move to start next pattern wall
G1 E0.5 F2100 ; Un-retract
G1 X144.7572 Y99.22 E0.99515 F3600 ; Print pattern wall
G1 X123.544 Y120.4332 E0.99515 F3600 ; Print pattern wall
G1 E-0.5 F2100 ; Retract
G0 X124.1197 Y78.0068 F7200 ; Move to start next pattern wall
G1 E0.5 F2100 ; Un-retract
G1 X145.3329 Y99.22 E0.99515 F3600 ; Print pattern wall
G1 X124.1197 Y120.4332 E0.99515 F3600 ; Print pattern wall
G1 E-0.5 F2100 ; Retract
G0 X65.346 Y78.0068 F7200 ; Move back to start position
G1 E0.5 F2100 ; Un-retract
G0 Z0.65 F7200 ; Move to layer height
SET_PRESSURE_ADVANCE ADVANCE=0 ; Set pressure advance
M117 PA 0
G1 X86.5592 Y99.22 E0.99515 F3600 ; Print pattern wall
G1 X65.346 Y120.4332 E0.99515 F3600 ; Print pattern wall
G1 E-0.5 F2100 ; Retract
G0 X65.9217 Y78.0068 F7200 ; Move to start next pattern wall
G1 E0.5 F2100 ; Un-retract
G1 X87.1349 Y99.22 E0.99515 F3600 ; Print pattern wall
G1 X65.9217 Y120.4332 E0.99515 F3600 ; Print pattern wall
G1 E-0.5 F2100 ; Retract
G0 X66.4974 Y78.0068 F7200 ; Move to start next pattern wall
G1 E0.5 F2100 ; Un-retract
G1 X87.7106 Y99.22 E0.99515 F3600 ; Print pattern wall
G1 X66.4974 Y120.4332 E0.99515 F3600 ; Print pattern wall
G1 E-0.5 F2100 ; Retract
G0 X68.9474 Y78.0068 F7200 ; Move to next pattern
G1 E0.5 F2100 ; Un-retract
SET_PRESSURE_ADVANCE ADVANCE=0.005 ; Set pressure advance
M117 PA 0.005
G1 X90.1606 Y99.22 E0.99515 F3600 ; Print pattern wall
G1 X68.9474 Y120.4332 E0.99515 F3600 ; Print pattern wall
G1 E-0.5 F2100 ; Retract
G0 X69.5231 Y78.0068 F7200 ; Move to start next pattern wall
G1 E0.5 F2100 ; Un-retract
G1 X90.7363 Y99.22 E0.99515 F3600 ; Print pattern wall
G1 X69.5231 Y120.4332 E0.99515 F3600 ; Print pattern wall
G1 E-0.5 F2100 ; Retract
G0 X70.0988 Y78.0068 F7200 ; Move to start next pattern wall
G1 E0.5 F2100 ; Un-retract
G1 X91.312 Y99.22 E0.99515 F3600 ; Print pattern wall
G1 X70.0988 Y120.4332 E0.99515 F3600 ; Print pattern wall
G1 E-0.5 F2100 ; Retract
G0 X72.5488 Y78.0068 F7200 ; Move to next pattern
G1 E0.5 F2100 ; Un-retract
SET_PRESSURE_ADVANCE ADVANCE=0.01 ; Set pressure advance
M117 PA 0.01
G1 X93.762 Y99.22 E0.99515 F3600 ; Print pattern wall
G1 X72.5488 Y120.4332 E0.99515 F3600 ; Print pattern wall
G1 E-0.5 F2100 ; Retract
G0 X73.1245 Y78.0068 F7200 ; Move to start next pattern wall
G1 E0.5 F2100 ; Un-retract
G1 X94.3377 Y99.22 E0.99515 F3600 ; Print pattern wall
G1 X73.1245 Y120.4332 E0.99515 F3600 ; Print pattern wall
G1 E-0.5 F2100 ; Retract
G0 X73.7002 Y78.0068 F7200 ; Move to start next pattern wall
G1 E0.5 F2100 ; Un-retract
G1 X94.9134 Y99.22 E0.99515 F3600 ; Print pattern wall
G1 X73.7002 Y120.4332 E0.99515 F3600 ; Print pattern wall
G1 E-0.5 F2100 ; Retract
G0 X76.1502 Y78.0068 F7200 ; Move to next pattern
G1 E0.5 F2100 ; Un-retract
SET_PRESSURE_ADVANCE ADVANCE=0.015 ; Set pressure advance
M117 PA 0.015
G1 X97.3634 Y99.22 E0.99515 F3600 ; Print pattern wall
G1 X76.1502 Y120.4332 E0.99515 F3600 ; Print pattern wall
G1 E-0.5 F2100 ; Retract
G0 X76.7259 Y78.0068 F7200 ; Move to start next pattern wall
G1 E0.5 F2100 ; Un-retract
G1 X97.9391 Y99.22 E0.99515 F3600 ; Print pattern wall
G1 X76.7259 Y120.4332 E0.99515 F3600 ; Print pattern wall
G1 E-0.5 F2100 ; Retract
G0 X77.3016 Y78.0068 F7200 ; Move to start next pattern wall
G1 E0.5 F2100 ; Un-retract
G1 X98.5148 Y99.22 E0.99515 F3600 ; Print pattern wall
G1 X77.3016 Y120.4332 E0.99515 F3600 ; Print pattern wall
G1 E-0.5 F2100 ; Retract
G0 X79.7516 Y78.0068 F7200 ; Move to next pattern
G1 E0.5 F2100 ; Un-retract
SET_PRESSURE_ADVANCE ADVANCE=0.02 ; Set pressure advance
M117 PA 0.02
G1 X100.9648 Y99.22 E0.99515 F3600 ; Print pattern wall
G1 X79.7516 Y120.4332 E0.99515 F3600 ; Print pattern wall
G1 E-0.5 F2100 ; Retract
G0 X80.3273 Y78.0068 F7200 ; Move to start next pattern wall
G1 E0.5 F2100 ; Un-retract
G1 X101.5405 Y99.22 E0.99515 F3600 ; Print pattern wall
G1 X80.3273 Y120.4332 E0.99515 F3600 ; Print pattern wall
G1 E-0.5 F2100 ; Retract
G0 X80.903 Y78.0068 F7200 ; Move to start next pattern wall
G1 E0.5 F2100 ; Un-retract
G1 X102.1162 Y99.22 E0.99515 F3600 ; Print pattern wall
G1 X80.903 Y120.4332 E0.99515 F3600 ; Print pattern wall
G1 E-0.5 F2100 ; Retract
G0 X83.353 Y78.0068 F7200 ; Move to next pattern
G1 E0.5 F2100 ; Un-retract
SET_PRESSURE_ADVANCE ADVANCE=0.025 ; Set pressure advance
M117 PA 0.025
G1 X104.5662 Y99.22 E0.99515 F3600 ; Print pattern wall
G1 X83.353 Y120.4332 E0.99515 F3600 ; Print pattern wall
G1 E-0.5 F2100 ; Retract
G0 X83.9287 Y78.0068 F7200 ; Move to start next pattern wall
G1 E0.5 F2100 ; Un-retract
G1 X105.1419 Y99.22 E0.99515 F3600 ; Print pattern wall
G1 X83.9287 Y120.4332 E0.99515 F3600 ; Print pattern wall
G1 E-0.5 F2100 ; Retract
G0 X84.5044 Y78.0068 F7200 ; Move to start next pattern wall
G1 E0.5 F2100 ; Un-retract
G1 X105.7176 Y99.22 E0.99515 F3600 ; Print pattern wall
G1 X84.5044 Y120.4332 E0.99515 F3600 ; Print pattern wall
G1 E-0.5 F2100 ; Retract
G0 X86.9544 Y78.0068 F7200 ; Move to next pattern
G1 E0.5 F2100 ; Un-retract
SET_PRESSURE_ADVANCE ADVANCE=0.03 ; Set pressure advance
M117 PA 0.03
G1 X108.1676 Y99.22 E0.99515 F3600 ; Print pattern wall
G1 X86.9544 Y120.4332 E0.99515 F3600 ; Print pattern wall
G1 E-0.5 F2100 ; Retract
G0 X87.5301 Y78.0068 F7200 ; Move to start next pattern wall
G1 E0.5 F2100 ; Un-retract
G1 X108.7433 Y99.22 E0.99515 F3600 ; Print pattern wall
G1 X87.5301 Y120.4332 E0.99515 F3600 ; Print pattern wall
G1 E-0.5 F2100 ; Retract
G0 X88.1058 Y78.0068 F7200 ; Move to start next pattern wall
G1 E0.5 F2100 ; Un-retract
G1 X109.319 Y99.22 E0.99515 F3600 ; Print pattern wall
G1 X88.1058 Y120.4332 E0.99515 F3600 ; Print pattern wall
G1 E-0.5 F2100 ; Retract
G0 X90.5558 Y78.0068 F7200 ; Move to next pattern
G1 E0.5 F2100 ; Un-retract
SET_PRESSURE_ADVANCE ADVANCE=0.035 ; Set pressure advance
M117 PA 0.035
G1 X111.769 Y99.22 E0.99515 F3600 ; Print pattern wall
G1 X90.5558 Y120.4332 E0.99515 F3600 ; Print pattern wall
G1 E-0.5 F2100 ; Retract
G0 X91.1315 Y78.0068 F7200 ; Move to start next pattern wall
G1 E0.5 F2100 ; Un-retract
G1 X112.3447 Y99.22 E0.99515 F3600 ; Print pattern wall
G1 X91.1315 Y120.4332 E0.99515 F3600 ; Print pattern wall
G1 E-0.5 F2100 ; Retract
G0 X91.7072 Y78.0068 F7200 ; Move to start next pattern wall
G1 E0.5 F2100 ; Un-retract
G1 X112.9204 Y99.22 E0.99515 F3600 ; Print pattern wall
G1 X91.7072 Y120.4332 E0.99515 F3600 ; Print pattern wall
G1 E-0.5 F2100 ; Retract
G0 X94.1572 Y78.0068 F7200 ; Move to next pattern
G1 E0.5 F2100 ; Un-retract
SET_PRESSURE_ADVANCE ADVANCE=0.04 ; Set pressure advance
M117 PA 0.04
G1 X115.3704 Y99.22 E0.99515 F3600 ; Print pattern wall
G1 X94.1572 Y120.4332 E0.99515 F3600 ; Print pattern wall
G1 E-0.5 F2100 ; Retract
G0 X94.7329 Y78.0068 F7200 ; Move to start next pattern wall
G1 E0.5 F2100 ; Un-retract
G1 X115.9461 Y99.22 E0.99515 F3600 ; Print pattern wall
G1 X94.7329 Y120.4332 E0.99515 F3600 ; Print pattern wall
G1 E-0.5 F2100 ; Retract
G0 X95.3086 Y78.0068 F7200 ; Move to start next pattern wall
G1 E0.5 F2100 ; Un-retract
G1 X116.5218 Y99.22 E0.99515 F3600 ; Print pattern wall
G1 X95.3086 Y120.4332 E0.99515 F3600 ; Print pattern wall
G1 E-0.5 F2100 ; Retract
G0 X97.7586 Y78.0068 F7200 ; Move to next pattern
G1 E0.5 F2100 ; Un-retract
SET_PRESSURE_ADVANCE ADVANCE=0.045 ; Set pressure advance
M117 PA 0.045
G1 X118.9718 Y99.22 E0.99515 F3600 ; Print pattern wall
G1 X97.7586 Y120.4332 E0.99515 F3600 ; Print pattern wall
G1 E-0.5 F2100 ; Retract
G0 X98.3343 Y78.0068 F7200 ; Move to start next pattern wall
G1 E0.5 F2100 ; Un-retract
G1 X119.5475 Y99.22 E0.99515 F3600 ; Print pattern wall
G1 X98.3343 Y120.4332 E0.99515 F3600 ; Print pattern wall
G1 E-0.5 F2100 ; Retract
G0 X98.91 Y78.0068 F7200 ; Move to start next pattern wall
G1 E0.5 F2100 ; Un-retract
G1 X120.1232 Y99.22 E0.99515 F3600 ; Print pattern wall
G1 X98.91 Y120.4332 E0.99515 F3600 ; Print pattern wall
G1 E-0.5 F2100 ; Retract
G0 X101.36 Y78.0068 F7200 ; Move to next pattern
G1 E0.5 F2100 ; Un-retract
SET_PRESSURE_ADVANCE ADVANCE=0.05 ; Set pressure advance
M117 PA 0.05
G1 X122.5732 Y99.22 E0.99515 F3600 ; Print pattern wall
G1 X101.36 Y120.4332 E0.99515 F3600 ; Print pattern wall
G1 E-0.5 F2100 ; Retract
G0 X101.9357 Y78.0068 F7200 ; Move to start next pattern wall
G1 E0.5 F2100 ; Un-retract
G1 X123.1489 Y99.22 E0.99515 F3600 ; Print pattern wall
G1 X101.9357 Y120.4332 E0.99515 F3600 ; Print pattern wall
G1 E-0.5 F2100 ; Retract
G0 X102.5113 Y78.0068 F7200 ; Move to start next pattern wall
G1 E0.5 F2100 ; Un-retract
G1 X123.7246 Y99.22 E0.99515 F3600 ; Print pattern wall
G1 X102.5113 Y120.4332 E0.99515 F3600 ; Print pattern wall
G1 E-0.5 F2100 ; Retract
G0 X104.9613 Y78.0068 F7200 ; Move to next pattern
G1 E0.5 F2100 ; Un-retract
SET_PRESSURE_ADVANCE ADVANCE=0.055 ; Set pressure advance
M117 PA 0.055
G1 X126.1746 Y99.22 E0.99515 F3600 ; Print pattern wall
G1 X104.9613 Y120.4332 E0.99515 F3600 ; Print pattern wall
G1 E-0.5 F2100 ; Retract
G0 X105.537 Y78.0068 F7200 ; Move to start next pattern wall
G1 E0.5 F2100 ; Un-retract
G1 X126.7502 Y99.22 E0.99515 F3600 ; Print pattern wall
G1 X105.537 Y120.4332 E0.99515 F3600 ; Print pattern wall
G1 E-0.5 F2100 ; Retract
G0 X106.1127 Y78.0068 F7200 ; Move to start next pattern wall
G1 E0.5 F2100 ; Un-retract
G1 X127.3259 Y99.22 E0.99515 F3600 ; Print pattern wall
G1 X106.1127 Y120.4332 E0.99515 F3600 ; Print pattern wall
G1 E-0.5 F2100 ; Retract
G0 X108.5627 Y78.0068 F7200 ; Move to next pattern
G1 E0.5 F2100 ; Un-retract
SET_PRESSURE_ADVANCE ADVANCE=0.06 ; Set pressure advance
M117 PA 0.06
G1 X129.7759 Y99.22 E0.99515 F3600 ; Print pattern wall
G1 X108.5627 Y120.4332 E0.99515 F3600 ; Print pattern wall
G1 E-0.5 F2100 ; Retract
G0 X109.1384 Y78.0068 F7200 ; Move to start next pattern wall
G1 E0.5 F2100 ; Un-retract
G1 X130.3516 Y99.22 E0.99515 F3600 ; Print pattern wall
G1 X109.1384 Y120.4332 E0.99515 F3600 ; Print pattern wall
G1 E-0.5 F2100 ; Retract
G0 X109.7141 Y78.0068 F7200 ; Move to start next pattern wall
G1 E0.5 F2100 ; Un-retract
G1 X130.9273 Y99.22 E0.99515 F3600 ; Print pattern wall
G1 X109.7141 Y120.4332 E0.99515 F3600 ; Print pattern wall
G1 E-0.5 F2100 ; Retract
G0 X112.1641 Y78.0068 F7200 ; Move to next pattern
G1 E0.5 F2100 ; Un-retract
SET_PRESSURE_ADVANCE ADVANCE=0.065 ; Set pressure advance
M117 PA 0.065
G1 X133.3773 Y99.22 E0.99515 F3600 ; Print pattern wall
G1 X112.1641 Y120.4332 E0.99515 F3600 ; Print pattern wall
G1 E-0.5 F2100 ; Retract
G0 X112.7398 Y78.0068 F7200 ; Move to start next pattern wall
G1 E0.5 F2100 ; Un-retract
G1 X133.953 Y99.22 E0.99515 F3600 ; Print pattern wall
G1 X112.7398 Y120.4332 E0.99515 F3600 ; Print pattern wall
G1 E-0.5 F2100 ; Retract
G0 X113.3155 Y78.0068 F7200 ; Move to start next pattern wall
G1 E0.5 F2100 ; Un-retract
G1 X134.5287 Y99.22 E0.99515 F3600 ; Print pattern wall
G1 X113.3155 Y120.4332 E0.99515 F3600 ; Print pattern wall
G1 E-0.5 F2100 ; Retract
G0 X115.7655 Y78.0068 F7200 ; Move to next pattern
G1 E0.5 F2100 ; Un-retract
SET_PRESSURE_ADVANCE ADVANCE=0.07 ; Set pressure advance
M117 PA 0.07
G1 X136.9787 Y99.22 E0.99515 F3600 ; Print pattern wall
G1 X115.7655 Y120.4332 E0.99515 F3600 ; Print pattern wall
G1 E-0.5 F2100 ; Retract
G0 X116.3412 Y78.0068 F7200 ; Move to start next pattern wall
G1 E0.5 F2100 ; Un-retract
G1 X137.5544 Y99.22 E0.99515 F3600 ; Print pattern wall
G1 X116.3412 Y120.4332 E0.99515 F3600 ; Print pattern wall
G1 E-0.5 F2100 ; Retract
G0 X116.9169 Y78.0068 F7200 ; Move to start next pattern wall
G1 E0.5 F2100 ; Un-retract
G1 X138.1301 Y99.22 E0.99515 F3600 ; Print pattern wall
G1 X116.9169 Y120.4332 E0.99515 F3600 ; Print pattern wall
G1 E-0.5 F2100 ; Retract
G0 X119.3669 Y78.0068 F7200 ; Move to next pattern
G1 E0.5 F2100 ; Un-retract
SET_PRESSURE_ADVANCE ADVANCE=0.075 ; Set pressure advance
M117 PA 0.075
G1 X140.5801 Y99.22 E0.99515 F3600 ; Print pattern wall
G1 X119.3669 Y120.4332 E0.99515 F3600 ; Print pattern wall
G1 E-0.5 F2100 ; Retract
G0 X119.9426 Y78.0068 F7200 ; Move to start next pattern wall
G1 E0.5 F2100 ; Un-retract
G1 X141.1558 Y99.22 E0.99515 F3600 ; Print pattern wall
G1 X119.9426 Y120.4332 E0.99515 F3600 ; Print pattern wall
G1 E-0.5 F2100 ; Retract
G0 X120.5183 Y78.0068 F7200 ; Move to start next pattern wall
G1 E0.5 F2100 ; Un-retract
G1 X141.7315 Y99.22 E0.99515 F3600 ; Print pattern wall
G1 X120.5183 Y120.4332 E0.99515 F3600 ; Print pattern wall
G1 E-0.5 F2100 ; Retract
G0 X122.9683 Y78.0068 F7200 ; Move to next pattern
G1 E0.5 F2100 ; Un-retract
SET_PRESSURE_ADVANCE ADVANCE=0.08 ; Set pressure advance
M117 PA 0.08
G1 X144.1815 Y99.22 E0.99515 F3600 ; Print pattern wall
G1 X122.9683 Y120.4332 E0.99515 F3600 ; Print pattern wall
G1 E-0.5 F2100 ; Retract
G0 X123.544 Y78.0068 F7200 ; Move to start next pattern wall
G1 E0.5 F2100 ; Un-retract
G1 X144.7572 Y99.22 E0.99515 F3600 ; Print pattern wall
G1 X123.544 Y120.4332 E0.99515 F3600 ; Print pattern wall
G1 E-0.5 F2100 ; Retract
G0 X124.1197 Y78.0068 F7200 ; Move to start next pattern wall
G1 E0.5 F2100 ; Un-retract
G1 X145.3329 Y99.22 E0.99515 F3600 ; Print pattern wall
G1 X124.1197 Y120.4332 E0.99515 F3600 ; Print pattern wall
G1 E-0.5 F2100 ; Retract
G0 X65.346 Y78.0068 F7200 ; Move back to start position
G1 E0.5 F2100 ; Un-retract
G0 Z0.85 F7200 ; Move to layer height
SET_PRESSURE_ADVANCE ADVANCE=0 ; Set pressure advance
M117 PA 0
G1 X86.5592 Y99.22 E0.99515 F3600 ; Print pattern wall
G1 X65.346 Y120.4332 E0.99515 F3600 ; Print pattern wall
G1 E-0.5 F2100 ; Retract
G0 X65.9217 Y78.0068 F7200 ; Move to start next pattern wall
G1 E0.5 F2100 ; Un-retract
G1 X87.1349 Y99.22 E0.99515 F3600 ; Print pattern wall
G1 X65.9217 Y120.4332 E0.99515 F3600 ; Print pattern wall
G1 E-0.5 F2100 ; Retract
G0 X66.4974 Y78.0068 F7200 ; Move to start next pattern wall
G1 E0.5 F2100 ; Un-retract
G1 X87.7106 Y99.22 E0.99515 F3600 ; Print pattern wall
G1 X66.4974 Y120.4332 E0.99515 F3600 ; Print pattern wall
G1 E-0.5 F2100 ; Retract
G0 X68.9474 Y78.0068 F7200 ; Move to next pattern
G1 E0.5 F2100 ; Un-retract
SET_PRESSURE_ADVANCE ADVANCE=0.005 ; Set pressure advance
M117 PA 0.005
G1 X90.1606 Y99.22 E0.99515 F3600 ; Print pattern wall
G1 X68.9474 Y120.4332 E0.99515 F3600 ; Print pattern wall
G1 E-0.5 F2100 ; Retract
G0 X69.5231 Y78.0068 F7200 ; Move to start next pattern wall
G1 E0.5 F2100 ; Un-retract
G1 X90.7363 Y99.22 E0.99515 F3600 ; Print pattern wall
G1 X69.5231 Y120.4332 E0.99515 F3600 ; Print pattern wall
G1 E-0.5 F2100 ; Retract
G0 X70.0988 Y78.0068 F7200 ; Move to start next pattern wall
G1 E0.5 F2100 ; Un-retract
G1 X91.312 Y99.22 E0.99515 F3600 ; Print pattern wall
G1 X70.0988 Y120.4332 E0.99515 F3600 ; Print pattern wall
G1 E-0.5 F2100 ; Retract
G0 X72.5488 Y78.0068 F7200 ; Move to next pattern
G1 E0.5 F2100 ; Un-retract
SET_PRESSURE_ADVANCE ADVANCE=0.01 ; Set pressure advance
M117 PA 0.01
G1 X93.762 Y99.22 E0.99515 F3600 ; Print pattern wall
G1 X72.5488 Y120.4332 E0.99515 F3600 ; Print pattern wall
G1 E-0.5 F2100 ; Retract
G0 X73.1245 Y78.0068 F7200 ; Move to start next pattern wall
G1 E0.5 F2100 ; Un-retract
G1 X94.3377 Y99.22 E0.99515 F3600 ; Print pattern wall
G1 X73.1245 Y120.4332 E0.99515 F3600 ; Print pattern wall
G1 E-0.5 F2100 ; Retract
G0 X73.7002 Y78.0068 F7200 ; Move to start next pattern wall
G1 E0.5 F2100 ; Un-retract
G1 X94.9134 Y99.22 E0.99515 F3600 ; Print pattern wall
G1 X73.7002 Y120.4332 E0.99515 F3600 ; Print pattern wall
G1 E-0.5 F2100 ; Retract
G0 X76.1502 Y78.0068 F7200 ; Move to next pattern
G1 E0.5 F2100 ; Un-retract
SET_PRESSURE_ADVANCE ADVANCE=0.015 ; Set pressure advance
M117 PA 0.015
G1 X97.3634 Y99.22 E0.99515 F3600 ; Print pattern wall
G1 X76.1502 Y120.4332 E0.99515 F3600 ; Print pattern wall
G1 E-0.5 F2100 ; Retract
G0 X76.7259 Y78.0068 F7200 ; Move to start next pattern wall
G1 E0.5 F2100 ; Un-retract
G1 X97.9391 Y99.22 E0.99515 F3600 ; Print pattern wall
G1 X76.7259 Y120.4332 E0.99515 F3600 ; Print pattern wall
G1 E-0.5 F2100 ; Retract
G0 X77.3016 Y78.0068 F7200 ; Move to start next pattern wall
G1 E0.5 F2100 ; Un-retract
G1 X98.5148 Y99.22 E0.99515 F3600 ; Print pattern wall
G1 X77.3016 Y120.4332 E0.99515 F3600 ; Print pattern wall
G1 E-0.5 F2100 ; Retract
G0 X79.7516 Y78.0068 F7200 ; Move to next pattern
G1 E0.5 F2100 ; Un-retract
SET_PRESSURE_ADVANCE ADVANCE=0.02 ; Set pressure advance
M117 PA 0.02
G1 X100.9648 Y99.22 E0.99515 F3600 ; Print pattern wall
G1 X79.7516 Y120.4332 E0.99515 F3600 ; Print pattern wall
G1 E-0.5 F2100 ; Retract
G0 X80.3273 Y78.0068 F7200 ; Move to start next pattern wall
G1 E0.5 F2100 ; Un-retract
G1 X101.5405 Y99.22 E0.99515 F3600 ; Print pattern wall
G1 X80.3273 Y120.4332 E0.99515 F3600 ; Print pattern wall
G1 E-0.5 F2100 ; Retract
G0 X80.903 Y78.0068 F7200 ; Move to start next pattern wall
G1 E0.5 F2100 ; Un-retract
G1 X102.1162 Y99.22 E0.99515 F3600 ; Print pattern wall
G1 X80.903 Y120.4332 E0.99515 F3600 ; Print pattern wall
G1 E-0.5 F2100 ; Retract
G0 X83.353 Y78.0068 F7200 ; Move to next pattern
G1 E0.5 F2100 ; Un-retract
SET_PRESSURE_ADVANCE ADVANCE=0.025 ; Set pressure advance
M117 PA 0.025
G1 X104.5662 Y99.22 E0.99515 F3600 ; Print pattern wall
G1 X83.353 Y120.4332 E0.99515 F3600 ; Print pattern wall
G1 E-0.5 F2100 ; Retract
G0 X83.9287 Y78.0068 F7200 ; Move to start next pattern wall
G1 E0.5 F2100 ; Un-retract
G1 X105.1419 Y99.22 E0.99515 F3600 ; Print pattern wall
G1 X83.9287 Y120.4332 E0.99515 F3600 ; Print pattern wall
G1 E-0.5 F2100 ; Retract
G0 X84.5044 Y78.0068 F7200 ; Move to start next pattern wall
G1 E0.5 F2100 ; Un-retract
G1 X105.7176 Y99.22 E0.99515 F3600 ; Print pattern wall
G1 X84.5044 Y120.4332 E0.99515 F3600 ; Print pattern wall
G1 E-0.5 F2100 ; Retract
G0 X86.9544 Y78.0068 F7200 ; Move to next pattern
G1 E0.5 F2100 ; Un-retract
SET_PRESSURE_ADVANCE ADVANCE=0.03 ; Set pressure advance
M117 PA 0.03
G1 X108.1676 Y99.22 E0.99515 F3600 ; Print pattern wall
G1 X86.9544 Y120.4332 E0.99515 F3600 ; Print pattern wall
G1 E-0.5 F2100 ; Retract
G0 X87.5301 Y78.0068 F7200 ; Move to start next pattern wall
G1 E0.5 F2100 ; Un-retract
G1 X108.7433 Y99.22 E0.99515 F3600 ; Print pattern wall
G1 X87.5301 Y120.4332 E0.99515 F3600 ; Print pattern wall
G1 E-0.5 F2100 ; Retract
G0 X88.1058 Y78.0068 F7200 ; Move to start next pattern wall
G1 E0.5 F2100 ; Un-retract
G1 X109.319 Y99.22 E0.99515 F3600 ; Print pattern wall
G1 X88.1058 Y120.4332 E0.99515 F3600 ; Print pattern wall
G1 E-0.5 F2100 ; Retract
G0 X90.5558 Y78.0068 F7200 ; Move to next pattern
G1 E0.5 F2100 ; Un-retract
SET_PRESSURE_ADVANCE ADVANCE=0.035 ; Set pressure advance
M117 PA 0.035
G1 X111.769 Y99.22 E0.99515 F3600 ; Print pattern wall
G1 X90.5558 Y120.4332 E0.99515 F3600 ; Print pattern wall
G1 E-0.5 F2100 ; Retract
G0 X91.1315 Y78.0068 F7200 ; Move to start next pattern wall
G1 E0.5 F2100 ; Un-retract
G1 X112.3447 Y99.22 E0.99515 F3600 ; Print pattern wall
G1 X91.1315 Y120.4332 E0.99515 F3600 ; Print pattern wall
G1 E-0.5 F2100 ; Retract
G0 X91.7072 Y78.0068 F7200 ; Move to start next pattern wall
G1 E0.5 F2100 ; Un-retract
G1 X112.9204 Y99.22 E0.99515 F3600 ; Print pattern wall
G1 X91.7072 Y120.4332 E0.99515 F3600 ; Print pattern wall
G1 E-0.5 F2100 ; Retract
G0 X94.1572 Y78.0068 F7200 ; Move to next pattern
G1 E0.5 F2100 ; Un-retract
SET_PRESSURE_ADVANCE ADVANCE=0.04 ; Set pressure advance
M117 PA 0.04
G1 X115.3704 Y99.22 E0.99515 F3600 ; Print pattern wall
G1 X94.1572 Y120.4332 E0.99515 F3600 ; Print pattern wall
G1 E-0.5 F2100 ; Retract
G0 X94.7329 Y78.0068 F7200 ; Move to start next pattern wall
G1 E0.5 F2100 ; Un-retract
G1 X115.9461 Y99.22 E0.99515 F3600 ; Print pattern wall
G1 X94.7329 Y120.4332 E0.99515 F3600 ; Print pattern wall
G1 E-0.5 F2100 ; Retract
G0 X95.3086 Y78.0068 F7200 ; Move to start next pattern wall
G1 E0.5 F2100 ; Un-retract
G1 X116.5218 Y99.22 E0.99515 F3600 ; Print pattern wall
G1 X95.3086 Y120.4332 E0.99515 F3600 ; Print pattern wall
G1 E-0.5 F2100 ; Retract
G0 X97.7586 Y78.0068 F7200 ; Move to next pattern
G1 E0.5 F2100 ; Un-retract
SET_PRESSURE_ADVANCE ADVANCE=0.045 ; Set pressure advance
M117 PA 0.045
G1 X118.9718 Y99.22 E0.99515 F3600 ; Print pattern wall
G1 X97.7586 Y120.4332 E0.99515 F3600 ; Print pattern wall
G1 E-0.5 F2100 ; Retract
G0 X98.3343 Y78.0068 F7200 ; Move to start next pattern wall
G1 E0.5 F2100 ; Un-retract
G1 X119.5475 Y99.22 E0.99515 F3600 ; Print pattern wall
G1 X98.3343 Y120.4332 E0.99515 F3600 ; Print pattern wall
G1 E-0.5 F2100 ; Retract
G0 X98.91 Y78.0068 F7200 ; Move to start next pattern wall
G1 E0.5 F2100 ; Un-retract
G1 X120.1232 Y99.22 E0.99515 F3600 ; Print pattern wall
G1 X98.91 Y120.4332 E0.99515 F3600 ; Print pattern wall
G1 E-0.5 F2100 ; Retract
G0 X101.36 Y78.0068 F7200 ; Move to next pattern
G1 E0.5 F2100 ; Un-retract
SET_PRESSURE_ADVANCE ADVANCE=0.05 ; Set pressure advance
M117 PA 0.05
G1 X122.5732 Y99.22 E0.99515 F3600 ; Print pattern wall
G1 X101.36 Y120.4332 E0.99515 F3600 ; Print pattern wall
G1 E-0.5 F2100 ; Retract
G0 X101.9357 Y78.0068 F7200 ; Move to start next pattern wall
G1 E0.5 F2100 ; Un-retract
G1 X123.1489 Y99.22 E0.99515 F3600 ; Print pattern wall
G1 X101.9357 Y120.4332 E0.99515 F3600 ; Print pattern wall
G1 E-0.5 F2100 ; Retract
G0 X102.5113 Y78.0068 F7200 ; Move to start next pattern wall
G1 E0.5 F2100 ; Un-retract
G1 X123.7246 Y99.22 E0.99515 F3600 ; Print pattern wall
G1 X102.5113 Y120.4332 E0.99515 F3600 ; Print pattern wall
G1 E-0.5 F2100 ; Retract
G0 X104.9613 Y78.0068 F7200 ; Move to next pattern
G1 E0.5 F2100 ; Un-retract
SET_PRESSURE_ADVANCE ADVANCE=0.055 ; Set pressure advance
M117 PA 0.055
G1 X126.1746 Y99.22 E0.99515 F3600 ; Print pattern wall
G1 X104.9613 Y120.4332 E0.99515 F3600 ; Print pattern wall
G1 E-0.5 F2100 ; Retract
G0 X105.537 Y78.0068 F7200 ; Move to start next pattern wall
G1 E0.5 F2100 ; Un-retract
G1 X126.7502 Y99.22 E0.99515 F3600 ; Print pattern wall
G1 X105.537 Y120.4332 E0.99515 F3600 ; Print pattern wall
G1 E-0.5 F2100 ; Retract
G0 X106.1127 Y78.0068 F7200 ; Move to start next pattern wall
G1 E0.5 F2100 ; Un-retract
G1 X127.3259 Y99.22 E0.99515 F3600 ; Print pattern wall
G1 X106.1127 Y120.4332 E0.99515 F3600 ; Print pattern wall
G1 E-0.5 F2100 ; Retract
G0 X108.5627 Y78.0068 F7200 ; Move to next pattern
G1 E0.5 F2100 ; Un-retract
SET_PRESSURE_ADVANCE ADVANCE=0.06 ; Set pressure advance
M117 PA 0.06
G1 X129.7759 Y99.22 E0.99515 F3600 ; Print pattern wall
G1 X108.5627 Y120.4332 E0.99515 F3600 ; Print pattern wall
G1 E-0.5 F2100 ; Retract
G0 X109.1384 Y78.0068 F7200 ; Move to start next pattern wall
G1 E0.5 F2100 ; Un-retract
G1 X130.3516 Y99.22 E0.99515 F3600 ; Print pattern wall
G1 X109.1384 Y120.4332 E0.99515 F3600 ; Print pattern wall
G1 E-0.5 F2100 ; Retract
G0 X109.7141 Y78.0068 F7200 ; Move to start next pattern wall
G1 E0.5 F2100 ; Un-retract
G1 X130.9273 Y99.22 E0.99515 F3600 ; Print pattern wall
G1 X109.7141 Y120.4332 E0.99515 F3600 ; Print pattern wall
G1 E-0.5 F2100 ; Retract
G0 X112.1641 Y78.0068 F7200 ; Move to next pattern
G1 E0.5 F2100 ; Un-retract
SET_PRESSURE_ADVANCE ADVANCE=0.065 ; Set pressure advance
M117 PA 0.065
G1 X133.3773 Y99.22 E0.99515 F3600 ; Print pattern wall
G1 X112.1641 Y120.4332 E0.99515 F3600 ; Print pattern wall
G1 E-0.5 F2100 ; Retract
G0 X112.7398 Y78.0068 F7200 ; Move to start next pattern wall
G1 E0.5 F2100 ; Un-retract
G1 X133.953 Y99.22 E0.99515 F3600 ; Print pattern wall
G1 X112.7398 Y120.4332 E0.99515 F3600 ; Print pattern wall
G1 E-0.5 F2100 ; Retract
G0 X113.3155 Y78.0068 F7200 ; Move to start next pattern wall
G1 E0.5 F2100 ; Un-retract
G1 X134.5287 Y99.22 E0.99515 F3600 ; Print pattern wall
G1 X113.3155 Y120.4332 E0.99515 F3600 ; Print pattern wall
G1 E-0.5 F2100 ; Retract
G0 X115.7655 Y78.0068 F7200 ; Move to next pattern
G1 E0.5 F2100 ; Un-retract
SET_PRESSURE_ADVANCE ADVANCE=0.07 ; Set pressure advance
M117 PA 0.07
G1 X136.9787 Y99.22 E0.99515 F3600 ; Print pattern wall
G1 X115.7655 Y120.4332 E0.99515 F3600 ; Print pattern wall
G1 E-0.5 F2100 ; Retract
G0 X116.3412 Y78.0068 F7200 ; Move to start next pattern wall
G1 E0.5 F2100 ; Un-retract
G1 X137.5544 Y99.22 E0.99515 F3600 ; Print pattern wall
G1 X116.3412 Y120.4332 E0.99515 F3600 ; Print pattern wall
G1 E-0.5 F2100 ; Retract
G0 X116.9169 Y78.0068 F7200 ; Move to start next pattern wall
G1 E0.5 F2100 ; Un-retract
G1 X138.1301 Y99.22 E0.99515 F3600 ; Print pattern wall
G1 X116.9169 Y120.4332 E0.99515 F3600 ; Print pattern wall
G1 E-0.5 F2100 ; Retract
G0 X119.3669 Y78.0068 F7200 ; Move to next pattern
G1 E0.5 F2100 ; Un-retract
SET_PRESSURE_ADVANCE ADVANCE=0.075 ; Set pressure advance
M117 PA 0.075
G1 X140.5801 Y99.22 E0.99515 F3600 ; Print pattern wall
G1 X119.3669 Y120.4332 E0.99515 F3600 ; Print pattern wall
G1 E-0.5 F2100 ; Retract
G0 X119.9426 Y78.0068 F7200 ; Move to start next pattern wall
G1 E0.5 F2100 ; Un-retract
G1 X141.1558 Y99.22 E0.99515 F3600 ; Print pattern wall
G1 X119.9426 Y120.4332 E0.99515 F3600 ; Print pattern wall
G1 E-0.5 F2100 ; Retract
G0 X120.5183 Y78.0068 F7200 ; Move to start next pattern wall
G1 E0.5 F2100 ; Un-retract
G1 X141.7315 Y99.22 E0.99515 F3600 ; Print pattern wall
G1 X120.5183 Y120.4332 E0.99515 F3600 ; Print pattern wall
G1 E-0.5 F2100 ; Retract
G0 X122.9683 Y78.0068 F7200 ; Move to next pattern
G1 E0.5 F2100 ; Un-retract
SET_PRESSURE_ADVANCE ADVANCE=0.08 ; Set pressure advance
M117 PA 0.08
G1 X144.1815 Y99.22 E0.99515 F3600 ; Print pattern wall
G1 X122.9683 Y120.4332 E0.99515 F3600 ; Print pattern wall
G1 E-0.5 F2100 ; Retract
G0 X123.544 Y78.0068 F7200 ; Move to start next pattern wall
G1 E0.5 F2100 ; Un-retract
G1 X144.7572 Y99.22 E0.99515 F3600 ; Print pattern wall
G1 X123.544 Y120.4332 E0.99515 F3600 ; Print pattern wall
G1 E-0.5 F2100 ; Retract
G0 X124.1197 Y78.0068 F7200 ; Move to start next pattern wall
G1 E0.5 F2100 ; Un-retract
G1 X145.3329 Y99.22 E0.99515 F3600 ; Print pattern wall
G1 X124.1197 Y120.4332 E0.99515 F3600 ; Print pattern wall
SET_PRESSURE_ADVANCE ADVANCE=0 ; Set pressure advance back to start value
M117 PA 0
G1 E-0.5 F2100 ; Retract
G0 Z5.85 F7200 ; Z raise
M104 S0 ; Turn off hotend
M140 S0 ; Turn off bed
M107    ; Turn off fan
;
; End G-code
;
PRINT_END ; End macro. Change name to match yours
;
; FINISH
;
