; generated by PrusaSlicer 2.6.1+win64 on 2023-11-04 at 13:26:52 UTC


;
;

;
;

;
;
; 

; external perimeters extrusion width = 0.40mm
; perimeters extrusion width = 0.40mm
; infill extrusion width = 0.40mm
; solid infill extrusion width = 0.40mm
; top infill extrusion width = 0.40mm
; support material extrusion width = 0.35mm
; first layer extrusion width = 0.40mm

M190 S60 ; set bed temperature and wait for it to be reached
M104 S215 ; set temperature
;TYPE:Custom
SAVE_GCODE_STATE NAME=start-gcode


START_PRINT EXTRUDER_TEMP=215 BED_TEMP=60


RESTORE_GCODE_STATE NAME=start-gcode
M109 S215 ; set temperature and wait for it to be reached
G21 ; set units to millimeters
G90 ; use absolute coordinates
M82 ; use absolute distances for extrusion
G92 E0 ; reset extrusion distance
; Filament gcode
M107 ; disable fan
;LAYER_CHANGE
;Z:0.2
;HEIGHT:0.2
G1 Z.2 F7800 ; move to next layer (0)
G1 E-.5 F2400 ; retract
G92 E0 ; reset extrusion distance
M204 S2500 ; adjust acceleration
G1 X91.38 Y74.128 F7800 ; move to first skirt point
G1 E.5 F2400 ;  ; unretract
M204 S2000 ; adjust acceleration
;TYPE:Skirt/Brim
;WIDTH:0.4
G1 F1800
G1 X93.235 Y72.752 E.56858 ; skirt
G1 X96.249 Y72.037 E.66055 ; skirt
G1 X101.249 Y72.037 E.80901 ; skirt
G1 X103.523 Y72.434 E.87755 ; skirt
G1 X105.529 Y73.578 E.94612 ; skirt
G1 X107.254 Y75.749 E1.02845 ; skirt
G1 X127.254 Y115.749 E2.35629 ; skirt
G1 X127.96 Y118.55 E2.44206 ; skirt
G1 X128.454 Y135.052 E2.93225 ; skirt
G1 X128.324 Y137.011 E2.99054 ; skirt
G1 X128.102 Y138.213 E3.02683 ; skirt
G1 X127.791 Y139.32 E3.06097 ; skirt
G1 X127.355 Y140.461 E3.09724 ; skirt
G1 X126.849 Y141.493 E3.13137 ; skirt
G1 X126.213 Y142.537 E3.16767 ; skirt
G1 X124.787 Y144.297 E3.23493 ; skirt
G1 X123.828 Y145.193 E3.2739 ; skirt
G1 X122.899 Y145.907 E3.30869 ; skirt
G1 X121.94 Y146.519 E3.34247 ; skirt
G1 X120.855 Y147.08 E3.37874 ; skirt
G1 X119.792 Y147.512 E3.41281 ; skirt
G1 X118.623 Y147.866 E3.44908 ; skirt
G1 X117.5 Y148.098 E3.48313 ; skirt
G1 X116.286 Y148.236 E3.51941 ; skirt
G1 X115.14 Y148.26 E3.55344 ; skirt
G1 X113.922 Y148.176 E3.58969 ; skirt
G1 X112.79 Y147.992 E3.62374 ; skirt
G1 X111.608 Y147.689 E3.65997 ; skirt
G1 X110.528 Y147.304 E3.69401 ; skirt
G1 X78.6 Y132.061 E4.74449 ; skirt
G1 X77.62 Y131.478 E4.77835 ; skirt
G1 X76.639 Y130.767 E4.81432 ; skirt
G1 X75.782 Y130.02 E4.84807 ; skirt
G1 X74.947 Y129.148 E4.88392 ; skirt
G1 X74.24 Y128.261 E4.9176 ; skirt
G1 X73.577 Y127.257 E4.95332 ; skirt
G1 X72.714 Y125.539 E5.0104 ; skirt
G1 X72.174 Y123.923 E5.06099 ; skirt
G1 X71.922 Y122.766 E5.09615 ; skirt
G1 X71.744 Y120.957 E5.15012 ; skirt
G1 X71.812 Y119.218 E5.20179 ; skirt
G1 X72.126 Y117.432 E5.25563 ; skirt
G1 X72.654 Y115.79 E5.30684 ; skirt
G1 X90.102 Y76.05 E6.59549 ; skirt
G1 X91.347 Y74.178 E6.66224 ; skirt
M204 S2500 ; adjust acceleration
G1 X91.648 Y74.38 F7800 ; move to first skirt point
M204 S2000 ; adjust acceleration
G1 F1800
G1 X91.681 Y74.33 E6.66402 ; skirt
G1 X93.504 Y73.017 E6.73073 ; skirt
G1 X96.249 Y72.394 E6.81431 ; skirt
G1 X101.249 Y72.394 E6.96277 ; skirt
G1 X103.46 Y72.791 E7.02947 ; skirt
G1 X105.394 Y73.932 E7.09614 ; skirt
G1 X106.935 Y75.908 E7.17054 ; skirt
G1 X126.935 Y115.908 E8.49838 ; skirt
G1 X127.603 Y118.561 E8.57961 ; skirt
G1 X128.097 Y135.062 E9.06977 ; skirt
G1 X127.968 Y136.979 E9.12682 ; skirt
G1 X127.758 Y138.117 E9.16118 ; skirt
G1 X127.447 Y139.223 E9.19529 ; skirt
G1 X127.034 Y140.304 E9.22965 ; skirt
G1 X126.528 Y141.336 E9.26378 ; skirt
G1 X125.926 Y142.324 E9.29813 ; skirt
G1 X124.54 Y144.039 E9.3636 ; skirt
G1 X123.587 Y144.93 E9.40234 ; skirt
G1 X121.748 Y146.218 E9.469 ; skirt
G1 X120.72 Y146.749 E9.50335 ; skirt
G1 X119.657 Y147.181 E9.53742 ; skirt
G1 X118.551 Y147.517 E9.57174 ; skirt
G1 X117.427 Y147.749 E9.60582 ; skirt
G1 X116.279 Y147.879 E9.64012 ; skirt
G1 X115.132 Y147.903 E9.67418 ; skirt
G1 X113.979 Y147.823 E9.7085 ; skirt
G1 X112.847 Y147.64 E9.74255 ; skirt
G1 X111.728 Y147.352 E9.77686 ; skirt
G1 X110.648 Y146.967 E9.8109 ; skirt
G1 X78.783 Y131.754 E10.85931 ; skirt
G1 X77.803 Y131.171 E10.89317 ; skirt
G1 X76.874 Y130.498 E10.92723 ; skirt
G1 X76.017 Y129.751 E10.96098 ; skirt
G1 X75.226 Y128.925 E10.99494 ; skirt
G1 X74.519 Y128.039 E11.0286 ; skirt
G1 X73.891 Y127.088 E11.06244 ; skirt
G1 X73.048 Y125.411 E11.11817 ; skirt
G1 X72.517 Y123.823 E11.16789 ; skirt
G1 X72.273 Y122.7 E11.20201 ; skirt
G1 X72.101 Y120.954 E11.2541 ; skirt
G1 X72.168 Y119.247 E11.30482 ; skirt
G1 X72.471 Y117.526 E11.3567 ; skirt
G1 X72.989 Y115.913 E11.407 ; skirt
G1 X90.429 Y76.194 E12.69498 ; skirt
G1 X91.614 Y74.429 E12.7581 ; skirt
; printing object spoolholder_base.stl id:0 copy 0
G1 E12.2581 F2400 ; retract
G92 E0 ; reset extrusion distance
M204 S2500 ; adjust acceleration
G1 X84.815 Y114.286 F7800 ; move to first support material point
G1 E.5 F2400 ;  ; unretract
M204 S2000 ; adjust acceleration
;TYPE:Support material
G1 F1800
G1 X85.544 Y114.319 E.52167 ; support material
G1 X86.647 Y114.559 E.55519 ; support material
G1 X87.706 Y115.003 E.58928 ; support material
G1 X88.667 Y115.631 E.62337 ; support material
G1 X89.294 Y116.227 E.64906 ; support material
G1 X88.94 Y116.754 E.66791 ; support material
G1 X88.769 Y117.076 E.67874 ; support material
G1 X88.515 Y117.705 E.69888 ; support material
G1 X88.415 Y118.054 E.70966 ; support material
G1 X88.297 Y118.722 E.7298 ; support material
G1 X88.271 Y119.086 E.74064 ; support material
G1 X88.272 Y119.434 E.75097 ; support material
G1 X88.343 Y120.108 E.77109 ; support material
G1 X88.419 Y120.464 E.7819 ; support material
G1 X88.628 Y121.109 E.80203 ; support material
G1 X88.776 Y121.442 E.81285 ; support material
G1 X89.115 Y122.029 E.83298 ; support material
G1 X89.33 Y122.324 E.84382 ; support material
G1 X89.783 Y122.828 E.86394 ; support material
G1 X90.054 Y123.072 E.87477 ; support material
G1 X90.407 Y123.338 E.88789 ; support material
G1 X90.113 Y123.924 E.90736 ; support material
G1 X89.433 Y124.825 E.94088 ; support material
G1 X88.558 Y125.629 E.97616 ; support material
G1 X87.587 Y126.235 E1.01014 ; support material
G1 X86.514 Y126.656 E1.04436 ; support material
G1 X85.384 Y126.876 E1.07854 ; support material
G1 X84.234 Y126.886 E1.11269 ; support material
G1 X83.105 Y126.688 E1.14672 ; support material
G1 X82.033 Y126.29 E1.18067 ; support material
G1 X81.052 Y125.707 E1.21455 ; support material
G1 X80.195 Y124.96 E1.2483 ; support material
G1 X79.488 Y124.073 E1.28198 ; support material
G1 X78.985 Y123.14 E1.31345 ; support material
G1 X78.798 Y122.651 E1.32899 ; support material
G1 X78.616 Y122.031 E1.34818 ; support material
G1 X78.52 Y121.522 E1.36356 ; support material
G1 X78.458 Y120.908 E1.38188 ; support material
G1 X78.454 Y120.362 E1.39809 ; support material
G1 X78.503 Y119.775 E1.41558 ; support material
G1 X78.601 Y119.209 E1.43264 ; support material
G1 X78.75 Y118.667 E1.44933 ; support material
G1 X78.957 Y118.103 E1.46717 ; support material
G1 X79.192 Y117.621 E1.48309 ; support material
G1 X79.54 Y117.029 E1.50348 ; support material
G1 X80.245 Y116.162 E1.53666 ; support material
G1 X81.132 Y115.409 E1.57121 ; support material
G1 X82.139 Y114.834 E1.60564 ; support material
G1 X83.231 Y114.453 E1.63998 ; support material
G1 X84.33 Y114.285 E1.67299 ; support material
G1 X84.761 Y114.286 E1.68579 ; support material
M204 S2500 ; adjust acceleration
G1 X89.923 Y123.909 F7800 ; move to first support material point
M204 S2000 ; adjust acceleration
G1 F1800
G1 X89.923 Y123.377 E1.70159 ; support material
G1 X89.527 Y123.025 E1.71732 ; support material
G1 X89.527 Y124.168 E1.75126 ; support material
G1 X89.13 Y124.669 E1.77024 ; support material
G1 X89.13 Y122.586 E1.83209 ; support material
G1 X88.861 Y122.227 E1.84541 ; support material
G1 X88.733 Y122.024 E1.85254 ; support material
G1 X88.733 Y125.038 E1.94203 ; support material
G1 X88.336 Y125.388 E1.95774 ; support material
G1 X88.336 Y121.245 E2.08075 ; support material
G1 X88.202 Y120.876 E2.09241 ; support material
G1 X88.03 Y120.186 E2.11352 ; support material
G1 X87.975 Y119.792 E2.12533 ; support material
G1 X87.95 Y119.097 E2.14598 ; support material
G1 X87.975 Y118.711 E2.15746 ; support material
G1 X88.03 Y118.317 E2.16927 ; support material
G1 X88.202 Y117.627 E2.19038 ; support material
G1 X88.336 Y117.258 E2.20204 ; support material
G1 X88.336 Y115.798 E2.24539 ; support material
G1 X87.94 Y115.539 E2.25944 ; support material
G1 X87.94 Y125.636 E2.55923 ; support material
G1 X87.543 Y125.883 E2.57311 ; support material
G1 X87.543 Y115.283 E2.88784 ; support material
G1 X87.146 Y115.117 E2.90062 ; support material
G1 X87.146 Y126.063 E3.22562 ; support material
G1 X86.749 Y126.219 E3.23828 ; support material
G1 X86.749 Y114.95 E3.57287 ; support material
G1 X86.55 Y114.867 E3.57927 ; support material
G1 X86.353 Y114.824 E3.58526 ; support material
G1 X86.353 Y126.36 E3.92778 ; support material
G1 X85.956 Y126.437 E3.93979 ; support material
G1 X85.956 Y114.738 E4.28715 ; support material
G1 X85.559 Y114.651 E4.29922 ; support material
G1 X85.559 Y126.514 E4.65145 ; support material
G1 X85.351 Y126.555 E4.65774 ; support material
G1 X85.162 Y126.556 E4.66335 ; support material
G1 X85.162 Y114.623 E5.01766 ; support material
G1 X84.765 Y114.607 E5.02946 ; support material
G1 X84.765 Y126.56 E5.38436 ; support material
G1 X84.369 Y126.563 E5.39612 ; support material
G1 X84.369 Y114.607 E5.75111 ; support material
G1 X83.972 Y114.665 E5.76302 ; support material
G1 X83.972 Y126.514 E6.11483 ; support material
G1 X83.575 Y126.444 E6.1268 ; support material
G1 X83.575 Y114.726 E6.47472 ; support material
G1 X83.309 Y114.766 E6.48271 ; support material
G1 X83.178 Y114.812 E6.48683 ; support material
G1 X83.178 Y126.373 E6.83009 ; support material
G1 X82.782 Y126.225 E6.84264 ; support material
G1 X82.782 Y114.95 E7.17741 ; support material
G1 X82.385 Y115.088 E7.18989 ; support material
G1 X82.385 Y126.078 E7.5162 ; support material
G1 X82.172 Y125.999 E7.52295 ; support material
G1 X81.988 Y125.89 E7.5293 ; support material
G1 X81.988 Y115.29 E7.84403 ; support material
G1 X81.591 Y115.517 E7.85761 ; support material
G1 X81.591 Y125.654 E8.15859 ; support material
G1 X81.195 Y125.405 E8.17248 ; support material
G1 X81.195 Y115.777 E8.45835 ; support material
G1 X80.798 Y116.114 E8.47381 ; support material
G1 X80.798 Y125.059 E8.7394 ; support material
G1 X80.401 Y124.702 E8.75525 ; support material
G1 X80.401 Y116.479 E8.9994 ; support material
G1 X80.004 Y116.967 E9.01808 ; support material
G1 X80.004 Y124.205 E9.23299 ; support material
G1 X79.757 Y123.896 E9.24474 ; support material
G1 X79.608 Y123.618 E9.25411 ; support material
G1 X79.608 Y117.548 E9.43434 ; support material
G1 X79.475 Y117.773 E9.4421 ; support material
G1 X79.211 Y118.344 E9.46078 ; support material
G1 X79.211 Y122.83 E9.59398 ; support material
G1 X79.103 Y122.548 E9.60295 ; support material
G1 X78.929 Y121.956 E9.62127 ; support material
G1 X78.839 Y121.476 E9.63577 ; support material
G1 X78.814 Y121.235 E9.64296 ; support material
G1 X78.814 Y119.04 E9.70813 ; support material
M204 S2500 ; adjust acceleration
G1 X88.733 Y116.8 F7800 ; move to first support material point
M204 S2000 ; adjust acceleration
G1 F1800
G1 X88.733 Y115.915 E9.73441 ; support material
G1 E9.23441 F2400 ; retract
G92 E0 ; reset extrusion distance
M204 S2500 ; adjust acceleration
G1 X112.715 Y129.672 F7800 ; move to first support material point
G1 E.5 F2400 ;  ; unretract
M204 S2000 ; adjust acceleration
G1 F1800
G1 X112.939 Y129.959 E.51081 ; support material
G1 X113.172 Y130.217 E.52113 ; support material
G1 X113.431 Y130.465 E.53178 ; support material
G1 X113.957 Y130.875 E.55158 ; support material
G1 X114.251 Y131.06 E.56189 ; support material
G1 X114.573 Y131.231 E.57272 ; support material
G1 X115.202 Y131.485 E.59286 ; support material
G1 X115.536 Y131.581 E.60318 ; support material
G1 X115.892 Y131.657 E.61399 ; support material
G1 X116.566 Y131.728 E.63411 ; support material
G1 X117.261 Y131.705 E.65476 ; support material
G1 X117.622 Y131.654 E.66558 ; support material
G1 X118.28 Y131.49 E.68571 ; support material
G1 X118.622 Y131.366 E.69651 ; support material
G1 X119.231 Y131.068 E.71664 ; support material
G1 X119.775 Y130.705 E.73606 ; support material
G1 X120.14 Y131.046 E.75089 ; support material
G1 X120.823 Y131.969 E.78498 ; support material
G1 X121.329 Y133.001 E.81911 ; support material
G1 X121.639 Y134.108 E.85324 ; support material
G1 X121.743 Y135.253 E.88738 ; support material
G1 X121.638 Y136.398 E.92152 ; support material
G1 X121.327 Y137.504 E.95563 ; support material
G1 X120.821 Y138.536 E.98976 ; support material
G1 X120.147 Y139.444 E1.02334 ; support material
G1 X119.785 Y139.79 E1.03821 ; support material
G1 X119.287 Y140.247 E1.05828 ; support material
G1 X118.328 Y140.859 E1.09206 ; support material
G1 X117.265 Y141.291 E1.12613 ; support material
G1 X116.142 Y141.523 E1.16018 ; support material
G1 X114.995 Y141.548 E1.19424 ; support material
G1 X113.863 Y141.365 E1.22829 ; support material
G1 X112.783 Y140.98 E1.26233 ; support material
G1 X111.791 Y140.405 E1.29637 ; support material
G1 X110.919 Y139.661 E1.3304 ; support material
G1 X110.196 Y138.771 E1.36445 ; support material
G1 X109.673 Y137.814 E1.39683 ; support material
G1 X109.454 Y137.232 E1.41529 ; support material
G1 X109.296 Y136.677 E1.43242 ; support material
G1 X109.193 Y136.112 E1.44947 ; support material
G1 X109.14 Y135.54 E1.46653 ; support material
G1 X109.14 Y134.964 E1.48363 ; support material
G1 X109.193 Y134.393 E1.50066 ; support material
G1 X109.295 Y133.826 E1.51777 ; support material
G1 X109.453 Y133.274 E1.53482 ; support material
G1 X109.673 Y132.687 E1.55343 ; support material
G1 X110.196 Y131.73 E1.58581 ; support material
G1 X110.92 Y130.839 E1.6199 ; support material
G1 X111.793 Y130.095 E1.65396 ; support material
G1 X112.662 Y129.593 E1.68376 ; support material
G1 X112.685 Y129.627 E1.68498 ; support material
M204 S2500 ; adjust acceleration
G1 X121.267 Y137.123 F7800 ; move to first support material point
M204 S2000 ; adjust acceleration
G1 F1800
G1 X121.267 Y133.972 E1.77854 ; support material
G1 X121.027 Y133.116 E1.80494 ; support material
G1 X120.87 Y132.795 E1.81555 ; support material
G1 X120.87 Y137.705 E1.96133 ; support material
G1 X120.545 Y138.368 E1.98325 ; support material
G1 X120.473 Y138.465 E1.98684 ; support material
G1 X120.473 Y132.036 E2.17773 ; support material
G1 X120.077 Y131.501 E2.19749 ; support material
G1 X120.077 Y138.999 E2.42012 ; support material
G1 X119.905 Y139.231 E2.42869 ; support material
G1 X119.68 Y139.446 E2.43793 ; support material
G1 X119.68 Y131.168 E2.68371 ; support material
G1 X119.283 Y131.405 E2.69744 ; support material
G1 X119.283 Y139.815 E2.94714 ; support material
G1 X119.091 Y139.991 E2.95487 ; support material
G1 X118.886 Y140.122 E2.96209 ; support material
G1 X118.886 Y131.6 E3.21512 ; support material
G1 X118.49 Y131.756 E3.22776 ; support material
G1 X118.49 Y140.375 E3.48367 ; support material
G1 X118.18 Y140.572 E3.49458 ; support material
G1 X118.093 Y140.608 E3.49738 ; support material
G1 X118.093 Y131.878 E3.75658 ; support material
G1 X117.696 Y131.967 E3.76866 ; support material
G1 X117.696 Y140.769 E4.03 ; support material
G1 X117.299 Y140.93 E4.04272 ; support material
G1 X117.299 Y132.024 E4.30715 ; support material
G1 X116.903 Y132.05 E4.31893 ; support material
G1 X116.903 Y141.038 E4.5858 ; support material
G1 X116.506 Y141.12 E4.59784 ; support material
G1 X116.506 Y132.046 E4.86726 ; support material
G1 X116.109 Y132.012 E4.87909 ; support material
G1 X116.109 Y141.202 E5.15195 ; support material
G1 X115.712 Y141.211 E5.16374 ; support material
G1 X115.712 Y131.948 E5.43877 ; support material
G1 X115.316 Y131.853 E5.45086 ; support material
G1 X115.316 Y141.219 E5.72895 ; support material
G1 X115.017 Y141.226 E5.73783 ; support material
G1 X114.919 Y141.21 E5.74078 ; support material
G1 X114.919 Y131.724 E6.02243 ; support material
