; generated by PrusaSlicer 2.6.1+win64 on 2023-10-29 at 12:16:29 UTC


;
;

;
;

;
;
; 

; external perimeters extrusion width = 0.40mm
; perimeters extrusion width = 0.40mm
; infill extrusion width = 0.40mm
; solid infill extrusion width = 0.40mm
; top infill extrusion width = 0.40mm
; first layer extrusion width = 0.40mm

; external perimeters extrusion width = 0.40mm
; perimeters extrusion width = 0.40mm
; infill extrusion width = 0.40mm
; solid infill extrusion width = 0.40mm
; top infill extrusion width = 0.40mm
; first layer extrusion width = 0.40mm

;TYPE:Custom
M104 S0 ; Stops PrusaSlicer from sending temp waits separately
M140 S0

SAVE_GCODE_STATE NAME=start-gcode


START_PRINT EXTRUDER_TEMP=235 BED_TEMP=70


RESTORE_GCODE_STATE NAME=start-gcode
G21 ; set units to millimeters
G90 ; use absolute coordinates
M82 ; use absolute distances for extrusion
G92 E0 ; reset extrusion distance
; Filament gcode
M107 ; disable fan
;LAYER_CHANGE
;Z:0.2
;HEIGHT:0.2
G1 Z.2 F7800 ; move to next layer (0)
G1 E-2 F2400 ; retract
G92 E0 ; reset extrusion distance
M204 S2500 ; adjust acceleration
G1 X92.827 Y85.72 F7800 ; move to first skirt point
G1 E2 F2400 ;  ; unretract
M204 S2000 ; adjust acceleration
;TYPE:Skirt/Brim
;WIDTH:0.4
G1 F1800
G1 X94.583 Y84.22 E2.06857 ; skirt
G1 X96.743 Y83.405 E2.13712 ; skirt
G1 X98 Y83.286 E2.17461 ; skirt
G1 X112 Y83.286 E2.59029 ; skirt
G1 X114.275 Y83.683 E2.65886 ; skirt
G1 X116.28 Y84.827 E2.7274 ; skirt
G1 X117.78 Y86.583 E2.79597 ; skirt
G1 X118.595 Y88.743 E2.86452 ; skirt
G1 X118.714 Y90 E2.90201 ; skirt
G1 X118.714 Y119.941 E3.791 ; skirt
G1 X118.317 Y122.215 E3.85954 ; skirt
G1 X117.173 Y124.221 E3.92811 ; skirt
G1 X115.417 Y125.72 E3.99666 ; skirt
G1 X113.257 Y126.536 E4.06522 ; skirt
G1 X112 Y126.655 E4.10271 ; skirt
G1 X98 Y126.655 E4.51839 ; skirt
G1 X95.725 Y126.258 E4.58696 ; skirt
G1 X93.72 Y125.114 E4.6555 ; skirt
G1 X92.22 Y123.358 E4.72407 ; skirt
G1 X91.405 Y121.198 E4.79262 ; skirt
G1 X91.286 Y119.941 E4.83011 ; skirt
G1 X91.286 Y90 E5.7191 ; skirt
G1 X91.683 Y87.725 E5.78767 ; skirt
G1 X92.797 Y85.772 E5.85443 ; skirt
M204 S2500 ; adjust acceleration
G1 X93.118 Y85.961 F7800 ; move to first skirt point
M204 S2000 ; adjust acceleration
G1 F1800
G1 X93.181 Y85.854 E5.85812 ; skirt
G1 X94.924 Y84.437 E5.92482 ; skirt
G1 X98 Y83.643 E6.01914 ; skirt
G1 X112 Y83.643 E6.43482 ; skirt
G1 X114.211 Y84.04 E6.50152 ; skirt
G1 X116.146 Y85.181 E6.56822 ; skirt
G1 X117.563 Y86.923 E6.63489 ; skirt
G1 X118.357 Y90 E6.72924 ; skirt
G1 X118.357 Y119.941 E7.61823 ; skirt
G1 X117.96 Y122.152 E7.68493 ; skirt
G1 X116.819 Y124.087 E7.75163 ; skirt
G1 X115.076 Y125.504 E7.81833 ; skirt
G1 X112 Y126.298 E7.91265 ; skirt
G1 X98 Y126.298 E8.32833 ; skirt
G1 X95.789 Y125.901 E8.39503 ; skirt
G1 X93.854 Y124.76 E8.46173 ; skirt
G1 X92.437 Y123.017 E8.52843 ; skirt
G1 X91.643 Y119.941 E8.62275 ; skirt
G1 X91.643 Y90 E9.51174 ; skirt
G1 X92.04 Y87.789 E9.57844 ; skirt
G1 X93.087 Y86.013 E9.63965 ; skirt
; printing object Zip_Tie_Holder_0.1.stl id:0 copy 0
G1 E7.63965 F2400 ; retract
G92 E0 ; reset extrusion distance
M204 S2500 ; adjust acceleration
G1 X110.986 Y118.927 F7800 ; move to first perimeter point
G1 E2 F2400 ;  ; unretract
M204 S2000 ; adjust acceleration
;TYPE:Perimeter
;WIDTH:0.399999
G1 F1800
G1 X99.014 Y118.927 E2.35546 ; perimeter
G1 X99.014 Y109.014 E2.64979 ; perimeter
G1 X110.986 Y109.014 E3.00525 ; perimeter
G1 X110.986 Y118.867 E3.2978 ; perimeter
M204 S2500 ; adjust acceleration
G1 X111.343 Y119.284 F7800 ; move to first perimeter point
M204 S2000 ; adjust acceleration
G1 F1800
G1 X98.657 Y119.284 E3.67446 ; perimeter
G1 X98.657 Y108.657 E3.98999 ; perimeter
G1 X111.343 Y108.657 E4.36665 ; perimeter
G1 X111.343 Y119.224 E4.6804 ; perimeter
M204 S2500 ; adjust acceleration
G1 X111.7 Y119.641 F7800 ; move to first perimeter point
M204 S2000 ; adjust acceleration
;TYPE:External perimeter
G1 F1800
G1 X98.3 Y119.641 E5.07826 ; perimeter
G1 X98.3 Y108.3 E5.41499 ; perimeter
G1 X111.7 Y108.3 E5.81285 ; perimeter
G1 X111.7 Y119.581 E6.1478 ; perimeter
G1 X111.311 Y119.548 F7800 ; move inwards before travel
G1 E4.1478 F2400 ; retract
G92 E0 ; reset extrusion distance
M204 S2500 ; adjust acceleration
G1 X101.275 Y111.228 F7800 ; move to first perimeter point
G1 E2 F2400 ;  ; unretract
M204 S2000 ; adjust acceleration
;TYPE:Perimeter
G1 F1800
G1 X101.524 Y111.059 E2.00894 ; perimeter
G1 X101.879 Y110.986 E2.0197 ; perimeter
G1 X108.121 Y110.986 E2.20503 ; perimeter
G1 X108.476 Y111.059 E2.21579 ; perimeter
G1 X108.753 Y111.247 E2.22573 ; perimeter
G1 X108.941 Y111.524 E2.23567 ; perimeter
G1 X109.014 Y111.879 E2.24643 ; perimeter
G1 X109.014 Y117.087 E2.40106 ; perimeter
G1 X108.941 Y117.44 E2.41176 ; perimeter
G1 X108.652 Y117.805 E2.42558 ; perimeter
G1 X108.276 Y117.966 E2.43772 ; perimeter
G1 X108.121 Y117.98 E2.44234 ; perimeter
G1 X101.879 Y117.98 E2.62767 ; perimeter
G1 X101.348 Y117.805 E2.64427 ; perimeter
G1 X101.059 Y117.44 E2.65809 ; perimeter
G1 X100.986 Y117.087 E2.66879 ; perimeter
G1 X100.986 Y111.879 E2.82342 ; perimeter
G1 X101.059 Y111.524 E2.83418 ; perimeter
G1 X101.233 Y111.269 E2.84335 ; perimeter
M204 S2500 ; adjust acceleration
G1 X101.526 Y111.486 F7800 ; move to first perimeter point
M204 S2000 ; adjust acceleration
G1 F1800
G1 X101.786 Y111.351 E2.85205 ; perimeter
G1 X101.879 Y111.343 E2.85482 ; perimeter
G1 X108.121 Y111.343 E3.04015 ; perimeter
G1 X108.334 Y111.387 E3.04661 ; perimeter
G1 X108.5 Y111.5 E3.05257 ; perimeter
G1 X108.613 Y111.666 E3.05853 ; perimeter
G1 X108.657 Y111.879 E3.06499 ; perimeter
G1 X108.657 Y117.087 E3.21962 ; perimeter
G1 X108.613 Y117.299 E3.22605 ; perimeter
G1 X108.44 Y117.518 E3.23434 ; perimeter
G1 X108.121 Y117.623 E3.24431 ; perimeter
G1 X101.879 Y117.623 E3.42964 ; perimeter
G1 X101.56 Y117.518 E3.43961 ; perimeter
G1 X101.387 Y117.299 E3.4479 ; perimeter
G1 X101.343 Y117.087 E3.45433 ; perimeter
G1 X101.343 Y111.879 E3.60896 ; perimeter
G1 X101.387 Y111.666 E3.61542 ; perimeter
G1 X101.483 Y111.525 E3.62048 ; perimeter
M204 S2500 ; adjust acceleration
G1 X101.752 Y111.752 F7800 ; move to first perimeter point
M204 S2000 ; adjust acceleration
;TYPE:External perimeter
G1 F1800
G1 X101.879 Y111.7 E3.62455 ; perimeter
G1 X108.121 Y111.7 E3.80988 ; perimeter
G1 X108.248 Y111.752 E3.81395 ; perimeter
G1 X108.3 Y111.879 E3.81802 ; perimeter
G1 X108.3 Y117.087 E3.97265 ; perimeter
G1 X108.228 Y117.231 E3.97743 ; perimeter
G1 X108.121 Y117.266 E3.98077 ; perimeter
G1 X101.879 Y117.266 E4.1661 ; perimeter
G1 X101.772 Y117.231 E4.16944 ; perimeter
G1 X101.7 Y117.087 E4.17422 ; perimeter
G1 X101.7 Y111.879 E4.32885 ; perimeter
G1 X101.729 Y111.808 E4.33113 ; perimeter
G1 X101.717 Y111.62 F7800 ; move inwards before travel
G1 E2.33113 F2400 ; retract
G92 E0 ; reset extrusion distance
M204 S2500 ; adjust acceleration
G1 X110.146 Y109.122 F7800 ; move to first infill point
G1 E2 F2400 ;  ; unretract
M204 S2000 ; adjust acceleration
;TYPE:Solid infill
;WIDTH:0.405342
G1 F1800
G1 X110.718 Y109.694 E2.02438 ; infill
G1 X110.718 Y110.207 E2.03984 ; infill
G1 X109.794 Y109.282 E2.07924 ; infill
G1 X109.281 Y109.282 E2.0947 ; infill
G1 X110.718 Y110.719 E2.15594 ; infill
G1 X110.718 Y111.232 E2.1714 ; infill
G1 X108.769 Y109.282 E2.25448 ; infill
G1 X108.256 Y109.282 E2.26994 ; infill
G1 X110.718 Y111.744 E2.37487 ; infill
G1 X110.718 Y112.257 E2.39033 ; infill
G1 X107.744 Y109.282 E2.5171 ; infill
G1 X107.231 Y109.282 E2.53256 ; infill
G1 X110.718 Y112.769 E2.68117 ; infill
G1 X110.718 Y113.282 E2.69663 ; infill
G1 X109.276 Y111.84 E2.75809 ; infill
G1 X109.188 Y111.418 E2.77108 ; infill
G1 X108.943 Y111.057 E2.78423 ; infill
G1 X108.582 Y110.812 E2.79738 ; infill
G1 X108.16 Y110.724 E2.81037 ; infill
G1 X106.718 Y109.282 E2.87183 ; infill
G1 X106.206 Y109.282 E2.88726 ; infill
G1 X107.642 Y110.718 E2.94846 ; infill
G1 X107.129 Y110.718 E2.96392 ; infill
G1 X105.693 Y109.282 E3.02512 ; infill
G1 X105.181 Y109.282 E3.04055 ; infill
G1 X106.617 Y110.718 E3.10175 ; infill
G1 X106.104 Y110.718 E3.11721 ; infill
G1 X104.668 Y109.282 E3.17841 ; infill
G1 X104.156 Y109.282 E3.19384 ; infill
G1 X105.591 Y110.718 E3.25502 ; infill
G1 X105.079 Y110.718 E3.27045 ; infill
G1 X103.643 Y109.282 E3.33165 ; infill
G1 X103.131 Y109.282 E3.34708 ; infill
G1 X104.566 Y110.718 E3.40826 ; infill
G1 X104.054 Y110.718 E3.42369 ; infill
G1 X102.618 Y109.282 E3.48489 ; infill
G1 X102.106 Y109.282 E3.50032 ; infill
G1 X103.541 Y110.718 E3.5615 ; infill
G1 X103.029 Y110.718 E3.57693 ; infill
G1 X101.593 Y109.282 E3.63813 ; infill
G1 X101.08 Y109.282 E3.65359 ; infill
G1 X102.516 Y110.718 E3.71479 ; infill
G1 X102.004 Y110.718 E3.73022 ; infill
G1 X100.568 Y109.282 E3.79142 ; infill
G1 X100.055 Y109.282 E3.80688 ; infill
G1 X101.547 Y110.774 E3.87047 ; infill
G1 X101.414 Y110.814 E3.87466 ; infill
G1 X101.212 Y110.951 E3.88202 ; infill
G1 X99.543 Y109.282 E3.95315 ; infill
G1 X99.282 Y109.282 E3.96102 ; infill
G1 X99.282 Y109.534 E3.96861 ; infill
G1 X100.955 Y111.207 E4.03991 ; infill
G1 X100.812 Y111.418 E4.04759 ; infill
G1 X100.784 Y111.549 E4.05163 ; infill
G1 X99.282 Y110.046 E4.11566 ; infill
G1 X99.282 Y110.559 E4.13112 ; infill
G1 X100.718 Y111.995 E4.19232 ; infill
G1 X100.718 Y112.508 E4.20778 ; infill
G1 X99.282 Y111.072 E4.26898 ; infill
G1 X99.282 Y111.584 E4.28441 ; infill
G1 X100.718 Y113.02 E4.34561 ; infill
G1 X100.718 Y113.533 E4.36107 ; infill
G1 X99.282 Y112.097 E4.42227 ; infill
G1 X99.282 Y112.609 E4.4377 ; infill
G1 X100.718 Y114.045 E4.4989 ; infill
G1 X100.718 Y114.558 E4.51436 ; infill
G1 X99.282 Y113.122 E4.57556 ; infill
G1 X99.282 Y113.634 E4.59099 ; infill
G1 X100.718 Y115.07 E4.65219 ; infill
G1 X100.718 Y115.583 E4.66765 ; infill
G1 X99.282 Y114.147 E4.72885 ; infill
G1 X99.282 Y114.659 E4.74428 ; infill
G1 X100.718 Y116.095 E4.80548 ; infill
G1 X100.718 Y116.608 E4.82094 ; infill
G1 X99.121 Y115.011 E4.889 ; infill
G1 E2.889 F2400 ; retract
G92 E0 ; reset extrusion distance
M204 S2500 ; adjust acceleration
G1 X109.121 Y112.198 F7800 ; move to first infill point
G1 E2 F2400 ;  ; unretract
M204 S2000 ; adjust acceleration
G1 F1800
G1 X110.718 Y113.794 E2.06804 ; infill
G1 X110.718 Y114.307 E2.0835 ; infill
G1 X109.282 Y112.871 E2.1447 ; infill
G1 X109.282 Y113.383 E2.16013 ; infill
G1 X110.718 Y114.819 E2.22133 ; infill
G1 X110.718 Y115.332 E2.23679 ; infill
G1 X109.282 Y113.896 E2.29799 ; infill
G1 X109.282 Y114.409 E2.31345 ; infill
G1 X110.718 Y115.845 E2.37465 ; infill
G1 X110.718 Y116.357 E2.39008 ; infill
G1 X109.282 Y114.921 E2.45128 ; infill
G1 X109.282 Y115.434 E2.46674 ; infill
G1 X110.718 Y116.87 E2.52794 ; infill
G1 X110.718 Y117.382 E2.54337 ; infill
G1 X109.282 Y115.946 E2.60457 ; infill
G1 X109.282 Y116.459 E2.62003 ; infill
G1 X110.718 Y117.895 E2.68123 ; infill
G1 X110.718 Y118.407 E2.69666 ; infill
G1 X109.282 Y116.971 E2.75786 ; infill
G1 X109.265 Y117.289 E2.76746 ; infill
G1 X109.224 Y117.426 E2.77177 ; infill
G1 X110.457 Y118.659 E2.82432 ; infill
G1 X109.945 Y118.659 E2.83975 ; infill
G1 X109.032 Y117.747 E2.87864 ; infill
G1 X108.801 Y118.028 E2.8896 ; infill
G1 X109.432 Y118.659 E2.91649 ; infill
G1 X108.919 Y118.659 E2.93195 ; infill
G1 X108.442 Y118.181 E2.9523 ; infill
G1 X108.329 Y118.23 E2.95601 ; infill
G1 X107.996 Y118.248 E2.96606 ; infill
G1 X108.407 Y118.659 E2.98358 ; infill
G1 X107.894 Y118.659 E2.99904 ; infill
G1 X107.483 Y118.248 E3.01656 ; infill
G1 X106.971 Y118.248 E3.03199 ; infill
G1 X107.382 Y118.659 E3.04951 ; infill
G1 X106.869 Y118.659 E3.06497 ; infill
G1 X106.458 Y118.248 E3.08249 ; infill
G1 X105.946 Y118.248 E3.09792 ; infill
G1 X106.357 Y118.659 E3.11544 ; infill
G1 X105.844 Y118.659 E3.1309 ; infill
G1 X105.433 Y118.248 E3.14842 ; infill
G1 X104.921 Y118.248 E3.16385 ; infill
G1 X105.332 Y118.659 E3.18137 ; infill
G1 X104.819 Y118.659 E3.19683 ; infill
G1 X104.408 Y118.248 E3.21435 ; infill
G1 X103.895 Y118.248 E3.22981 ; infill
G1 X104.307 Y118.659 E3.24735 ; infill
G1 X103.794 Y118.659 E3.26281 ; infill
G1 X103.383 Y118.248 E3.28033 ; infill
G1 X102.87 Y118.248 E3.29579 ; infill
G1 X103.281 Y118.659 E3.31331 ; infill
G1 X102.769 Y118.659 E3.32874 ; infill
G1 X102.197 Y118.087 E3.35312 ; infill
M204 S2500 ; adjust acceleration
G1 X102.417 Y118.82 F7800 ; move to first infill point
M204 S2000 ; adjust acceleration
G1 F1800
G1 X101.836 Y118.238 E3.3779 ; infill
G1 X101.189 Y118.025 E3.39843 ; infill
G1 X100.814 Y117.553 E3.4166 ; infill
G1 X100.735 Y117.289 E3.4249 ; infill
G1 X100.721 Y117.123 E3.42992 ; infill
G1 X99.282 Y115.684 E3.49125 ; infill
G1 X99.282 Y116.197 E3.50671 ; infill
G1 X101.744 Y118.659 E3.61164 ; infill
G1 X101.231 Y118.659 E3.6271 ; infill
G1 X99.282 Y116.71 E3.71016 ; infill
G1 X99.282 Y117.222 E3.72559 ; infill
G1 X100.719 Y118.659 E3.78683 ; infill
G1 X100.206 Y118.659 E3.80229 ; infill
G1 X99.282 Y117.735 E3.84167 ; infill
G1 X99.282 Y118.247 E3.8571 ; infill
G1 X99.854 Y118.82 E3.8815 ; infill
; stop printing object Zip_Tie_Holder_0.1.stl id:0 copy 0
; printing object Zip_Tie_Holder_0.1.stl id:1 copy 0
G1 E1.8815 F2400 ; retract
G92 E0 ; reset extrusion distance
M204 S2500 ; adjust acceleration
G1 X110.986 Y100.927 F7800 ; move to first perimeter point
G1 E2 F2400 ;  ; unretract
M204 S2000 ; adjust acceleration
;TYPE:Perimeter
;WIDTH:0.399999
G1 F1800
G1 X99.014 Y100.927 E2.35546 ; perimeter
G1 X99.014 Y91.014 E2.64979 ; perimeter
G1 X110.986 Y91.014 E3.00525 ; perimeter
G1 X110.986 Y100.867 E3.2978 ; perimeter
M204 S2500 ; adjust acceleration
G1 X111.343 Y101.284 F7800 ; move to first perimeter point
M204 S2000 ; adjust acceleration
G1 F1800
G1 X98.657 Y101.284 E3.67446 ; perimeter
G1 X98.657 Y90.657 E3.98999 ; perimeter
G1 X111.343 Y90.657 E4.36665 ; perimeter
G1 X111.343 Y101.224 E4.6804 ; perimeter
M204 S2500 ; adjust acceleration
G1 X111.7 Y101.641 F7800 ; move to first perimeter point
M204 S2000 ; adjust acceleration
;TYPE:External perimeter
G1 F1800
G1 X98.3 Y101.641 E5.07826 ; perimeter
G1 X98.3 Y90.3 E5.41499 ; perimeter
G1 X111.7 Y90.3 E5.81285 ; perimeter
G1 X111.7 Y101.581 E6.1478 ; perimeter
G1 X111.311 Y101.548 F7800 ; move inwards before travel
G1 E4.1478 F2400 ; retract
G92 E0 ; reset extrusion distance
M204 S2500 ; adjust acceleration
G1 X101.275 Y93.228 F7800 ; move to first perimeter point
G1 E2 F2400 ;  ; unretract
M204 S2000 ; adjust acceleration
;TYPE:Perimeter
G1 F1800
G1 X101.524 Y93.059 E2.00894 ; perimeter
G1 X101.879 Y92.986 E2.0197 ; perimeter
G1 X108.121 Y92.986 E2.20503 ; perimeter
G1 X108.476 Y93.059 E2.21579 ; perimeter
G1 X108.753 Y93.247 E2.22573 ; perimeter
G1 X108.941 Y93.524 E2.23567 ; perimeter
G1 X109.014 Y93.879 E2.24643 ; perimeter
G1 X109.014 Y99.087 E2.40106 ; perimeter
G1 X108.941 Y99.44 E2.41176 ; perimeter
G1 X108.652 Y99.805 E2.42558 ; perimeter
G1 X108.276 Y99.966 E2.43772 ; perimeter
G1 X108.121 Y99.98 E2.44234 ; perimeter
G1 X101.879 Y99.98 E2.62767 ; perimeter
G1 X101.348 Y99.805 E2.64427 ; perimeter
G1 X101.059 Y99.44 E2.65809 ; perimeter
G1 X100.986 Y99.087 E2.66879 ; perimeter
G1 X100.986 Y93.879 E2.82342 ; perimeter
G1 X101.059 Y93.524 E2.83418 ; perimeter
G1 X101.233 Y93.269 E2.84335 ; perimeter
M204 S2500 ; adjust acceleration
G1 X101.526 Y93.486 F7800 ; move to first perimeter point
M204 S2000 ; adjust acceleration
G1 F1800
G1 X101.786 Y93.351 E2.85205 ; perimeter
G1 X101.879 Y93.343 E2.85482 ; perimeter
G1 X108.121 Y93.343 E3.04015 ; perimeter
G1 X108.334 Y93.387 E3.04661 ; perimeter
G1 X108.5 Y93.5 E3.05257 ; perimeter
G1 X108.613 Y93.666 E3.05853 ; perimeter
G1 X108.657 Y93.879 E3.06499 ; perimeter
G1 X108.657 Y99.087 E3.21962 ; perimeter
G1 X108.613 Y99.299 E3.22605 ; perimeter
G1 X108.44 Y99.518 E3.23434 ; perimeter
G1 X108.121 Y99.623 E3.24431 ; perimeter
G1 X101.879 Y99.623 E3.42964 ; perimeter
G1 X101.56 Y99.518 E3.43961 ; perimeter
G1 X101.387 Y99.299 E3.4479 ; perimeter
G1 X101.343 Y99.087 E3.45433 ; perimeter
G1 X101.343 Y93.879 E3.60896 ; perimeter
G1 X101.387 Y93.666 E3.61542 ; perimeter
G1 X101.483 Y93.525 E3.62048 ; perimeter
